; generated by Slic3r 1.2.9 on 2015-07-09 at 07:45:09

; external perimeters extrusion width = 0.60mm
; perimeters extrusion width = 0.70mm
; infill extrusion width = 0.75mm
; solid infill extrusion width = 0.60mm
; top infill extrusion width = 0.50mm

M208 S-0.05 F180
M201 X750 Y750
G28 X10.0 Y10.0
G28 Z
G92 E0.0
G1 Y60.0 E2.0  F1000.0
G1 Y100.0 E4.5  F1000.0
G92 Z0.35
G92 E0.0
G21 ; set units to millimeters
G90 ; use absolute coordinates
M83 ; use relative distances for extrusion
M106 S255
G1 E-0.60000 F360.00000
G1 Z0.200 F6000.000
G1 X59.906 Y59.267 F6000.000
G1 E0.56000 F360.00000
G1 X61.799 Y57.485 E0.05172 F1800.000
G1 X63.722 Y55.833 E0.05045
G1 X65.711 Y54.272 E0.05031
G1 X67.938 Y52.684 E0.05441
G1 X70.062 Y51.312 E0.05031
G1 X72.251 Y50.032 E0.05045
G1 X74.374 Y48.912 E0.04775
G1 X76.582 Y47.862 E0.04864
G1 X78.911 Y46.877 E0.05031
G1 X81.281 Y45.996 E0.05031
G1 X83.886 Y45.163 E0.05441
G1 X86.327 Y44.503 E0.05031
G1 X88.795 Y43.953 E0.05031
G1 X91.286 Y43.512 E0.05031
G1 X93.588 Y43.205 E0.04621
G1 X96.106 Y42.977 E0.05031
G1 X98.633 Y42.860 E0.05031
G1 X101.245 Y42.859 E0.05198
G1 X103.688 Y42.963 E0.04864 F1800.000
G1 X106.207 Y43.182 E0.05031
G1 X108.714 Y43.512 E0.05031
G1 X111.205 Y43.953 E0.05031
G1 X113.673 Y44.503 E0.05031
G1 X116.114 Y45.163 E0.05031
G1 X118.524 Y45.929 E0.05031
G1 X120.898 Y46.801 E0.05031
G1 X123.230 Y47.778 E0.05031
G1 X125.518 Y48.856 E0.05031
G1 X128.002 Y50.175 E0.05595
G1 X130.113 Y51.420 E0.04877
G1 X132.232 Y52.800 E0.05031
G1 X134.289 Y54.272 E0.05031
G1 X136.278 Y55.833 E0.05031
G1 X138.043 Y57.344 E0.04621
G1 X139.892 Y59.068 E0.05031
G1 X141.664 Y60.873 E0.05031
G1 X143.354 Y62.754 E0.05031
G1 X144.959 Y64.708 E0.05031
G1 X146.476 Y66.731 E0.05031
G1 X147.902 Y68.820 E0.05031
G1 X149.234 Y70.969 E0.05031
G1 X150.470 Y73.175 E0.05031
G1 X151.607 Y75.434 E0.05031
G1 X152.643 Y77.741 E0.05031
G1 X153.577 Y80.091 E0.05031
G1 X154.405 Y82.480 E0.05031
G1 X155.126 Y84.904 E0.05031
G1 X155.740 Y87.357 E0.05031
G1 X156.245 Y89.835 E0.05031
G1 X156.639 Y92.333 E0.05031
G1 X156.923 Y94.846 E0.05031
G1 X157.090 Y97.292 E0.04877
G1 X157.156 Y99.890 E0.05172
G1 X157.105 Y102.425 E0.05045
G1 X156.941 Y104.949 E0.05031
G1 X156.667 Y107.463 E0.05031
G1 X156.281 Y109.962 E0.05031
G1 X155.740 Y112.643 E0.05441
G1 X155.126 Y115.096 E0.05031
G1 X154.405 Y117.520 E0.05031
G1 X153.577 Y119.909 E0.05031
G1 X152.643 Y122.259 E0.05031
G1 X151.642 Y124.490 E0.04864
G1 X150.470 Y126.825 E0.05198
G1 X149.234 Y129.031 E0.05031
G1 X147.902 Y131.180 E0.05031
G1 X146.595 Y133.101 E0.04621
G1 X145.086 Y135.130 E0.05031
G1 X143.488 Y137.090 E0.05031
G1 X141.804 Y138.977 E0.05031
G1 X140.039 Y140.788 E0.05031
G1 X138.196 Y142.519 E0.05031
G1 X136.278 Y144.167 E0.05031
G1 X134.289 Y145.728 E0.05031
G1 X132.232 Y147.200 E0.05031
G1 X130.178 Y148.538 E0.04877
G1 X127.941 Y149.861 E0.05172
G1 X125.702 Y151.051 E0.05044
G1 X123.418 Y152.138 E0.05031
G1 X121.089 Y153.123 E0.05031
G1 X118.719 Y154.004 E0.05031
G1 X116.312 Y154.779 E0.05031
G1 X113.873 Y155.447 E0.05031
G1 X111.407 Y156.006 E0.05031
G1 X108.994 Y156.442 E0.04877
G1 X106.419 Y156.794 E0.05172
G1 X103.688 Y157.037 E0.05454
G1 X101.161 Y157.144 E0.05031
G1 X98.633 Y157.140 E0.05031
G1 X96.106 Y157.023 E0.05031
G1 X93.588 Y156.795 E0.05031
G1 X91.082 Y156.456 E0.05031
G1 X88.593 Y156.006 E0.05031
G1 X86.127 Y155.447 E0.05031
G1 X83.688 Y154.779 E0.05031
G1 X81.281 Y154.004 E0.05031
G1 X78.911 Y153.123 E0.05031
G1 X76.582 Y152.138 E0.05031
G1 X74.298 Y151.051 E0.05031
G1 X72.245 Y149.965 E0.04621
G1 X70.062 Y148.688 E0.05031
G1 X67.938 Y147.316 E0.05031
G1 X65.876 Y145.852 E0.05031
G1 X63.882 Y144.297 E0.05031
G1 X61.957 Y142.656 E0.05031
G1 X60.108 Y140.932 E0.05031
G1 X58.336 Y139.127 E0.05031
G1 X56.646 Y137.246 E0.05031
G1 X55.041 Y135.292 E0.05031
G1 X53.524 Y133.269 E0.05031
G1 X52.098 Y131.180 E0.05031
G1 X50.766 Y129.031 E0.05031
G1 X49.530 Y126.825 E0.05031
G1 X48.427 Y124.635 E0.04877
G1 X47.359 Y122.265 E0.05172
G1 X46.352 Y119.716 E0.05454
G1 X45.532 Y117.323 E0.05031
G1 X44.819 Y114.897 E0.05031
G1 X44.215 Y112.442 E0.05031
G1 X43.719 Y109.962 E0.05031
G1 X43.333 Y107.463 E0.05031
G1 X43.059 Y104.949 E0.05031
G1 X42.901 Y102.509 E0.04864
G1 X42.844 Y99.897 E0.05198
G1 X42.905 Y97.369 E0.05031
G1 X43.077 Y94.846 E0.05031
G1 X43.361 Y92.333 E0.05031
G1 X43.742 Y89.918 E0.04864
G1 X44.213 Y87.565 E0.04775
G1 X44.819 Y85.103 E0.05045
G1 X45.532 Y82.677 E0.05031
G1 X46.352 Y80.284 E0.05031
G1 X47.277 Y77.931 E0.05031
G1 X48.304 Y75.620 E0.05031
G1 X49.433 Y73.357 E0.05031
G1 X50.661 Y71.147 E0.05031
G1 X51.986 Y68.992 E0.05031
G1 X53.405 Y66.899 E0.05031
G1 X54.914 Y64.870 E0.05031
G1 X56.512 Y62.910 E0.05031
G1 X58.196 Y61.023 E0.05031
G1 X59.864 Y59.310 E0.04758
G1 E-0.60000 F360.00000
G1 X138.810 Y134.889 F6000.000
G1 E0.56000 F360.00000
G1 X138.115 Y135.666 E0.01758 F600.000
G1 X136.500 Y137.317 E0.03896
G1 X134.814 Y138.895 E0.03896
G1 X133.059 Y140.397 E0.03896
G1 X131.240 Y141.820 E0.03896
G1 X129.360 Y143.161 E0.03896
G1 X127.487 Y144.375 E0.03765
G1 X125.430 Y145.587 E0.04026
G1 X123.389 Y146.667 E0.03895
G1 X121.302 Y147.656 E0.03896
G1 X119.173 Y148.551 E0.03896
G1 X117.007 Y149.352 E0.03896
G1 X114.807 Y150.056 E0.03896
G1 X112.578 Y150.662 E0.03896
G1 X110.325 Y151.169 E0.03896
G1 X108.128 Y151.562 E0.03765
G1 X105.762 Y151.881 E0.04026
G1 X103.462 Y152.085 E0.03895
G1 X101.155 Y152.187 E0.03896
G1 X98.845 Y152.187 E0.03896
G1 X96.538 Y152.085 E0.03896
G1 X94.237 Y151.881 E0.03896
G1 X91.948 Y151.575 E0.03896
G1 X89.675 Y151.169 E0.03896
G1 X87.422 Y150.662 E0.03896
G1 X85.193 Y150.056 E0.03896
G1 X82.993 Y149.352 E0.03896
G1 X80.827 Y148.551 E0.03896
G1 X78.698 Y147.656 E0.03896
G1 X76.611 Y146.667 E0.03896
G1 X74.570 Y145.586 E0.03896
G1 X72.578 Y144.417 E0.03896
G1 X70.640 Y143.161 E0.03896
G1 X68.760 Y141.820 E0.03896
G1 X66.941 Y140.397 E0.03896
G1 X65.186 Y138.895 E0.03896
G1 X63.500 Y137.317 E0.03896
G1 X61.885 Y135.666 E0.03896
G1 X60.344 Y133.945 E0.03896
G1 X58.882 Y132.158 E0.03896
G1 X57.500 Y130.307 E0.03896
G1 X56.201 Y128.398 E0.03896
G1 X54.987 Y126.433 E0.03896
G1 X53.862 Y124.416 E0.03896
G1 X52.862 Y122.420 E0.03765
G1 X51.885 Y120.242 E0.04026
G1 X51.036 Y118.094 E0.03895
G1 X50.284 Y115.911 E0.03896
G1 X49.629 Y113.696 E0.03896
G1 X49.072 Y111.455 E0.03896
G1 X48.616 Y109.191 E0.03896
G1 X48.259 Y106.909 E0.03896
G1 X48.004 Y104.613 E0.03896
G1 X47.856 Y102.386 E0.03765
G1 X47.800 Y100.000 E0.04026
G1 X47.851 Y97.691 E0.03895
G1 X48.004 Y95.387 E0.03896
G1 X48.259 Y93.091 E0.03896
G1 X48.604 Y90.886 E0.03765
G1 X49.072 Y88.545 E0.04026
G1 X49.629 Y86.304 E0.03895
G1 X50.284 Y84.089 E0.03896
G1 X51.036 Y81.906 E0.03896
G1 X51.885 Y79.758 E0.03896
G1 X52.827 Y77.649 E0.03896
G1 X53.862 Y75.584 E0.03896
G1 X54.987 Y73.567 E0.03896
G1 X56.201 Y71.602 E0.03896
G1 X57.500 Y69.693 E0.03896
G1 X58.882 Y67.842 E0.03896
G1 X60.344 Y66.055 E0.03896
G1 X61.885 Y64.334 E0.03896
G1 X63.446 Y62.738 E0.03765
G1 X65.186 Y61.105 E0.04026
G1 X66.941 Y59.603 E0.03895
G1 X68.760 Y58.180 E0.03896
G1 X70.640 Y56.839 E0.03896
G1 X72.578 Y55.583 E0.03896
G1 X74.569 Y54.414 E0.03895
G1 X76.681 Y53.300 E0.04026
G1 X78.698 Y52.344 E0.03765
G1 X80.827 Y51.449 E0.03896
G1 X82.993 Y50.648 E0.03896
G1 X85.193 Y49.944 E0.03896
G1 X87.422 Y49.338 E0.03896
G1 X89.675 Y48.831 E0.03896
G1 X91.948 Y48.425 E0.03896
G1 X94.237 Y48.119 E0.03896
G1 X96.538 Y47.915 E0.03896
G1 X98.845 Y47.813 E0.03895
G1 X101.232 Y47.816 E0.04026
G1 X103.462 Y47.915 E0.03765 F600.000
G1 X105.763 Y48.119 E0.03896
G1 X108.052 Y48.425 E0.03896
G1 X110.325 Y48.831 E0.03896
G1 X112.578 Y49.338 E0.03896
G1 X114.807 Y49.944 E0.03896
G1 X117.007 Y50.648 E0.03896
G1 X119.173 Y51.449 E0.03896
G1 X121.302 Y52.344 E0.03896
G1 X123.389 Y53.333 E0.03895
G1 X125.497 Y54.453 E0.04026
G1 X127.422 Y55.583 E0.03765
G1 X129.360 Y56.839 E0.03896
G1 X131.240 Y58.180 E0.03896
G1 X133.059 Y59.603 E0.03896
G1 X134.814 Y61.105 E0.03896
G1 X136.500 Y62.683 E0.03896
G1 X138.115 Y64.334 E0.03896
G1 X139.656 Y66.055 E0.03896
G1 X141.118 Y67.842 E0.03896
G1 X142.500 Y69.693 E0.03896
G1 X143.800 Y71.602 E0.03896
G1 X145.013 Y73.567 E0.03896
G1 X146.138 Y75.584 E0.03896
G1 X147.173 Y77.649 E0.03896
G1 X148.115 Y79.758 E0.03896
G1 X148.964 Y81.906 E0.03896
G1 X149.716 Y84.089 E0.03896
G1 X150.371 Y86.304 E0.03896
G1 X150.928 Y88.545 E0.03896
G1 X151.384 Y90.809 E0.03896
G1 X151.741 Y93.091 E0.03896
G1 X151.996 Y95.387 E0.03896
G1 X152.144 Y97.614 E0.03765
G1 X152.200 Y100.000 E0.04026
G1 X152.149 Y102.309 E0.03895
G1 X151.996 Y104.613 E0.03896
G1 X151.741 Y106.909 E0.03896
G1 X151.384 Y109.191 E0.03896
G1 X150.928 Y111.455 E0.03896
G1 X150.371 Y113.696 E0.03896
G1 X149.716 Y115.911 E0.03896
G1 X148.964 Y118.094 E0.03896
G1 X148.115 Y120.242 E0.03896
G1 X147.204 Y122.280 E0.03765
G1 X146.138 Y124.416 E0.04026
G1 X145.013 Y126.433 E0.03895
G1 X143.800 Y128.398 E0.03896
G1 X142.500 Y130.307 E0.03896
G1 X141.118 Y132.158 E0.03896
G1 X139.656 Y133.945 E0.03896
G1 X138.850 Y134.845 E0.02037
G1 X138.419 Y134.807 F6000.000
G1 X138.358 Y134.485 F6000.000
G1 X137.672 Y135.251 E0.02047 F900.000
G1 X136.076 Y136.883 E0.04542
G1 X134.409 Y138.443 E0.04542
G1 X132.675 Y139.927 E0.04542
G1 X130.877 Y141.333 E0.04542
G1 X129.018 Y142.658 E0.04542
G1 X127.167 Y143.859 E0.04389
G1 X125.134 Y145.056 E0.04695
G1 X123.117 Y146.124 E0.04540
G1 X121.054 Y147.101 E0.04542
G1 X118.950 Y147.986 E0.04542
G1 X116.809 Y148.778 E0.04542
G1 X114.635 Y149.474 E0.04542
G1 X112.432 Y150.072 E0.04542
G1 X110.205 Y150.573 E0.04542
G1 X108.034 Y150.962 E0.04389
G1 X105.695 Y151.277 E0.04695
G1 X103.422 Y151.479 E0.04540
G1 X101.141 Y151.580 E0.04542
G1 X98.859 Y151.580 E0.04542
G1 X96.578 Y151.479 E0.04542
G1 X94.304 Y151.277 E0.04542
G1 X92.042 Y150.975 E0.04542
G1 X89.795 Y150.573 E0.04542
G1 X87.568 Y150.072 E0.04542
G1 X85.365 Y149.474 E0.04542
G1 X83.191 Y148.778 E0.04542
G1 X81.050 Y147.986 E0.04542
G1 X78.946 Y147.101 E0.04542
G1 X76.883 Y146.124 E0.04542
G1 X74.865 Y145.056 E0.04542
G1 X72.897 Y143.900 E0.04542
G1 X70.982 Y142.658 E0.04542
G1 X69.123 Y141.333 E0.04542
G1 X67.325 Y139.927 E0.04542
G1 X65.591 Y138.443 E0.04542
G1 X63.924 Y136.883 E0.04542
G1 X62.328 Y135.251 E0.04542
G1 X60.806 Y133.550 E0.04542
G1 X59.360 Y131.784 E0.04542
G1 X57.994 Y129.955 E0.04542
G1 X56.710 Y128.067 E0.04542
G1 X55.511 Y126.125 E0.04542
G1 X54.399 Y124.132 E0.04542
G1 X53.410 Y122.160 E0.04389
G1 X52.444 Y120.006 E0.04695
G1 X51.606 Y117.884 E0.04540
G1 X50.862 Y115.726 E0.04542
G1 X50.215 Y113.537 E0.04542
G1 X49.665 Y111.321 E0.04542
G1 X49.213 Y109.084 E0.04542
G1 X48.861 Y106.828 E0.04542
G1 X48.609 Y104.560 E0.04542
G1 X48.463 Y102.359 E0.04389
G1 X48.407 Y99.999 E0.04695
G1 X48.458 Y97.718 E0.04540
G1 X48.609 Y95.440 E0.04542
G1 X48.861 Y93.172 E0.04542
G1 X49.201 Y90.992 E0.04389
G1 X49.665 Y88.678 E0.04695
G1 X50.215 Y86.463 E0.04540
G1 X50.862 Y84.274 E0.04542
G1 X51.606 Y82.116 E0.04542
G1 X52.444 Y79.993 E0.04542
G1 X53.376 Y77.909 E0.04542
G1 X54.399 Y75.868 E0.04542
G1 X55.511 Y73.875 E0.04542
G1 X56.710 Y71.933 E0.04542
G1 X57.994 Y70.045 E0.04542
G1 X59.360 Y68.216 E0.04542
G1 X60.806 Y66.450 E0.04542
G1 X62.328 Y64.749 E0.04542
G1 X63.871 Y63.172 E0.04389
G1 X65.591 Y61.557 E0.04695
G1 X67.325 Y60.073 E0.04540
G1 X69.123 Y58.667 E0.04542
G1 X70.982 Y57.342 E0.04542
G1 X72.897 Y56.100 E0.04542
G1 X74.865 Y54.944 E0.04540
G1 X76.952 Y53.843 E0.04695
G1 X78.946 Y52.899 E0.04389
G1 X81.050 Y52.014 E0.04542
G1 X83.191 Y51.222 E0.04542
G1 X85.365 Y50.526 E0.04542
G1 X87.568 Y49.928 E0.04542
G1 X89.795 Y49.427 E0.04542
G1 X92.042 Y49.025 E0.04542
G1 X94.304 Y48.723 E0.04542
G1 X96.578 Y48.521 E0.04542
G1 X98.858 Y48.420 E0.04540
G1 X101.218 Y48.423 E0.04695
G1 X103.422 Y48.521 E0.04389 F900.000
G1 X105.696 Y48.723 E0.04542
G1 X107.958 Y49.025 E0.04542
G1 X110.205 Y49.427 E0.04542
G1 X112.432 Y49.928 E0.04542
G1 X114.635 Y50.526 E0.04542
G1 X116.809 Y51.222 E0.04542
G1 X118.950 Y52.014 E0.04542
G1 X121.054 Y52.899 E0.04542
G1 X123.116 Y53.876 E0.04540
G1 X125.201 Y54.983 E0.04695
G1 X127.103 Y56.100 E0.04389
G1 X129.018 Y57.342 E0.04542
G1 X130.877 Y58.667 E0.04542
G1 X132.675 Y60.073 E0.04542
G1 X134.409 Y61.557 E0.04542
G1 X136.076 Y63.117 E0.04542
G1 X137.672 Y64.749 E0.04542
G1 X139.194 Y66.450 E0.04542
G1 X140.640 Y68.216 E0.04542
G1 X142.006 Y70.045 E0.04542
G1 X143.290 Y71.933 E0.04542
G1 X144.489 Y73.875 E0.04542
G1 X145.601 Y75.868 E0.04542
G1 X146.624 Y77.909 E0.04542
G1 X147.556 Y79.993 E0.04542
G1 X148.394 Y82.116 E0.04542
G1 X149.138 Y84.274 E0.04542
G1 X149.785 Y86.463 E0.04542
G1 X150.335 Y88.679 E0.04542
G1 X150.787 Y90.916 E0.04542
G1 X151.139 Y93.172 E0.04542
G1 X151.391 Y95.440 E0.04542
G1 X151.537 Y97.641 E0.04389
G1 X151.593 Y100.001 E0.04695
G1 X151.542 Y102.282 E0.04540
G1 X151.391 Y104.560 E0.04542
G1 X151.139 Y106.828 E0.04542
G1 X150.787 Y109.084 E0.04542
G1 X150.335 Y111.321 E0.04542
G1 X149.785 Y113.537 E0.04542
G1 X149.138 Y115.726 E0.04542
G1 X148.394 Y117.884 E0.04542
G1 X147.556 Y120.007 E0.04542
G1 X146.655 Y122.021 E0.04389
G1 X145.601 Y124.132 E0.04695
G1 X144.489 Y126.125 E0.04540
G1 X143.290 Y128.067 E0.04542
G1 X142.006 Y129.955 E0.04542
G1 X140.640 Y131.784 E0.04542
G1 X139.194 Y133.550 E0.04542
G1 X138.398 Y134.440 E0.02376
G1 E-0.60000 F360.00000
G1 X137.405 Y133.614 F6000.000
G1 E0.56000 F360.00000
G1 X136.357 Y134.760 E0.02621 F600.000
G1 X134.760 Y136.357 E0.03808
G1 X133.094 Y137.880 E0.03808
G1 X131.362 Y139.326 E0.03808
G1 X129.566 Y140.694 E0.03808
G1 X127.710 Y141.979 E0.03808
G1 X125.799 Y143.180 E0.03808
G1 X123.836 Y144.294 E0.03808
G1 X121.824 Y145.319 E0.03808
G1 X119.769 Y146.252 E0.03808
G1 X117.674 Y147.093 E0.03808
G1 X115.544 Y147.838 E0.03808
G1 X113.382 Y148.487 E0.03808
G1 X111.193 Y149.039 E0.03808
G1 X108.981 Y149.492 E0.03808
G1 X106.752 Y149.845 E0.03808
G1 X104.509 Y150.098 E0.03808
G1 X102.257 Y150.249 E0.03808
G1 X100.000 Y150.300 E0.03808
G1 X97.743 Y150.249 E0.03808
G1 X95.491 Y150.098 E0.03808
G1 X93.248 Y149.845 E0.03808
G1 X91.138 Y149.511 E0.03603
G1 X88.808 Y149.039 E0.04012
G1 X86.618 Y148.487 E0.03808
G1 X84.456 Y147.838 E0.03808
G1 X82.326 Y147.093 E0.03808
G1 X80.231 Y146.252 E0.03808
G1 X78.176 Y145.319 E0.03808
G1 X76.164 Y144.294 E0.03808
G1 X74.201 Y143.180 E0.03808
G1 X72.290 Y141.979 E0.03808
G1 X70.434 Y140.694 E0.03808
G1 X68.638 Y139.326 E0.03808
G1 X66.906 Y137.880 E0.03808
G1 X65.329 Y136.439 E0.03603
G1 X63.644 Y134.761 E0.04012
G1 X62.120 Y133.094 E0.03808
G1 X60.674 Y131.362 E0.03808
G1 X59.306 Y129.566 E0.03808
G1 X58.021 Y127.710 E0.03808
G1 X56.820 Y125.799 E0.03808
G1 X55.706 Y123.836 E0.03808
G1 X54.681 Y121.824 E0.03808
G1 X53.748 Y119.769 E0.03808
G1 X52.907 Y117.674 E0.03808
G1 X52.162 Y115.543 E0.03808
G1 X51.483 Y113.264 E0.04012
G1 X50.961 Y111.193 E0.03603
G1 X50.508 Y108.981 E0.03808
G1 X50.155 Y106.752 E0.03808
G1 X49.902 Y104.509 E0.03808
G1 X49.751 Y102.257 E0.03808
G1 X49.700 Y100.000 E0.03808
G1 X49.751 Y97.743 E0.03808
G1 X49.902 Y95.491 E0.03808
G1 X50.155 Y93.248 E0.03808
G1 X50.508 Y91.019 E0.03808
G1 X50.961 Y88.807 E0.03808
G1 X51.513 Y86.618 E0.03808
G1 X52.162 Y84.456 E0.03808
G1 X52.907 Y82.326 E0.03808
G1 X53.748 Y80.231 E0.03808
G1 X54.681 Y78.176 E0.03808
G1 X55.706 Y76.164 E0.03808
G1 X56.820 Y74.201 E0.03808
G1 X58.021 Y72.290 E0.03808
G1 X59.306 Y70.434 E0.03808
G1 X60.674 Y68.638 E0.03808
G1 X62.120 Y66.906 E0.03808
G1 X63.643 Y65.239 E0.03808
G1 X65.239 Y63.643 E0.03808
G1 X66.906 Y62.120 E0.03808
G1 X68.545 Y60.752 E0.03603
G1 X70.434 Y59.307 E0.04012
G1 X72.290 Y58.021 E0.03808
G1 X74.201 Y56.820 E0.03808
G1 X76.164 Y55.706 E0.03808
G1 X78.176 Y54.681 E0.03808
G1 X80.231 Y53.748 E0.03808
G1 X82.326 Y52.907 E0.03808
G1 X84.456 Y52.162 E0.03808
G1 X86.618 Y51.513 E0.03808
G1 X88.807 Y50.961 E0.03808
G1 X91.019 Y50.508 E0.03808
G1 X93.248 Y50.155 E0.03808
G1 X95.491 Y49.902 E0.03808
G1 X97.865 Y49.748 E0.04012
G1 X100.000 Y49.700 E0.03603 F600.000
G1 X102.257 Y49.751 E0.03808
G1 X104.509 Y49.902 E0.03808
G1 X106.752 Y50.155 E0.03808
G1 X108.981 Y50.508 E0.03808
