; generated by Slic3r 1.2.9 on 2015-09-17 at 13:50:32

; Layer Hight:                  from .15 to .2
; 1st Layer Hieght:          from .15 to .18
; 1st Layer Speed:           from 80% to 40mm
; Extrusion Multiplier     from  1 to .96

; external perimeters extrusion width = 0.45mm
; perimeters extrusion width = 0.50mm
; infill extrusion width = 0.50mm
; solid infill extrusion width = 0.65mm
; top infill extrusion width = 0.65mm

M201 X750 Y750 E100
G28 X10.0 Y10.0
G28 Z
G92 E0.0
G1 Y60.0 E2.0  F1000.0
G1 Y100.0 E4.5  F1000.0
G92 Z0.35
G92 E0.0
G21 ; set units to millimeters
G90 ; use absolute coordinates
M83 ; use relative distances for extrusion
G1 E-3.00000 F1200.00000
G1 Z0.240 F6000.000
G1 X16.243 Y23.821 F6000.000
G1 E3.00000 F1200.00000
G1 X16.415 Y23.704 E0.00293 F2400.000
G1 X18.545 Y23.265 E0.03055
G1 X194.545 Y23.265 E2.47191
G1 X196.576 Y23.662 E0.02905
G1 X198.308 Y24.792 E0.02905 F2400.000
G1 X199.487 Y26.492 E0.02905
G1 X199.944 Y28.664 E0.03118
G1 X199.943 Y73.729 E0.63294
G1 X199.398 Y119.065 E0.63679
G1 X198.977 Y121.090 E0.02905
G1 X197.826 Y122.809 E0.02905
G1 X196.113 Y123.968 E0.02905
G1 X194.000 Y124.398 E0.03028
G1 X18.000 Y124.398 E2.47191
G1 X15.970 Y124.002 E0.02905
G1 X14.238 Y122.871 E0.02905
G1 X13.058 Y121.172 E0.02905
G1 X12.602 Y119.000 E0.03118
G1 X12.602 Y93.000 E0.36517
G1 X13.147 Y28.618 E0.90427
G1 X13.560 Y26.591 E0.02905
G1 X14.706 Y24.869 E0.02905
G1 X16.193 Y23.855 E0.02528
G1 F4800
G1 X16.415 Y23.704 E-0.06379
G1 F4800
G1 X18.545 Y23.265 E-0.51657
G1 F4800
G1 X28.102 Y23.265 E-2.26964
G1 E-0.15000 F1200.00000
G1 X96.073 Y104.356 F6000.000
G1 E3.00000 F1200.00000
G1 X96.073 Y106.166 E0.02542 F2400.000
G1 F4800
G1 X96.073 Y104.356 E-0.42990
G1 E-2.57010 F1200.00000
G1 X98.117 Y104.064 F6000.000
G1 E3.00000 F1200.00000
G1 X97.437 Y104.110 E0.00957 F2400.000
G1 X96.737 Y104.063 E0.00986
G1 F4800
G1 X97.437 Y104.110 E-0.16672
G1 F4800
G1 X98.117 Y104.064 E-0.16188
G1 E-2.67139 F1200.00000
G1 X117.048 Y104.064 F6000.000
G1 E3.00000 F1200.00000
G1 X116.368 Y104.110 E0.00957 F2400.000
G1 X115.668 Y104.063 E0.00986
G1 F4800
G1 X116.368 Y104.110 E-0.16672
G1 F4800
G1 X117.048 Y104.064 E-0.16188
G1 E-2.67139 F1200.00000
G1 X117.706 Y105.732 F6000.000
G1 E3.00000 F1200.00000
G1 X117.706 Y104.292 E0.02023 F2400.000
G1 F4800
G1 X117.706 Y105.732 E-0.34210
G1 E-2.65790 F1200.00000
G1 X123.099 Y107.695 F6000.000
G1 E3.00000 F1200.00000
G1 X122.300 Y107.394 E0.01198 F2400.000
G1 X122.300 Y107.426 E0.00044
G1 X121.605 Y107.640 E0.01021
G1 X121.410 Y107.661 E0.00276
G1 X121.200 Y107.595 E0.00310
G1 X121.142 Y107.552 E0.00101
G1 X121.090 Y107.214 E0.00480
G1 X121.090 Y105.957 E0.01765
G1 X122.313 Y105.957 E0.01718
G1 X122.376 Y106.403 E0.00632
G1 X122.654 Y106.902 E0.00803 F2400.000
G1 X123.160 Y107.293 E0.00898
G1 X124.214 Y107.709 E0.01591
G1 X124.157 Y107.916 E0.00301
G1 X123.337 Y107.784 E0.01167
G1 X123.155 Y107.716 E0.00273
G1 X123.034 Y107.300 F6000.000
G1 F4800
G1 X122.300 Y107.394 E-0.21685
G1 F4800
G1 X122.300 Y107.426 E-0.00752
G1 F4800
G1 X121.605 Y107.640 E-0.17268
G1 F4800
G1 X121.410 Y107.661 E-0.04664
G1 F4800
G1 X121.200 Y107.595 E-0.05234
G1 F4800
G1 X121.142 Y107.552 E-0.01711
G1 F4800
G1 X121.090 Y107.214 E-0.08119
G1 F4800
G1 X121.090 Y105.957 E-0.29848
G1 F4800
G1 X122.313 Y105.957 E-0.29049
G1 F4800
G1 X122.376 Y106.403 E-0.10692
G1 E-1.70978 F1200.00000
G1 X122.215 Y109.102 F6000.000
G1 E3.00000 F1200.00000
G1 X122.215 Y107.687 E0.01987 F2400.000
G1 F4800
G1 X122.215 Y109.102 E-0.33607
G1 E-2.66393 F1200.00000
G1 X122.215 Y118.775 F6000.000
G1 E3.00000 F1200.00000
G1 X18.225 Y118.775 E1.46054 F2400.000
G1 X18.225 Y93.225 E0.35885
G1 X193.775 Y93.225 E2.46559
G1 X193.775 Y118.775 E0.35885
G1 X122.275 Y118.775 E1.00421 F2400.000
G1 X122.015 Y118.429 F6000.000
G1 F4800
G1 X110.275 Y118.775 E-2.85000
G1 E-0.15000 F1200.00000
G1 X114.619 Y105.256 F6000.000
G1 E3.00000 F1200.00000
G1 X114.680 Y105.277 E0.00091 F2400.000
G1 X114.680 Y105.745 E0.00656 F2400.000
G1 X114.321 Y105.474 E0.00631
G1 X114.519 Y105.222 E0.00450
G1 X114.562 Y105.237 E0.00064
G1 F4800
G1 X114.680 Y105.277 E-0.02963
G1 E-2.97037 F1200.00000
G1 X121.489 Y106.924 F6000.000
G1 E3.00000 F1200.00000
G1 X121.489 Y106.355 E0.00799 F2400.000
G1 X121.967 Y106.355 E0.00672
G1 X121.992 Y106.532 E0.00250
G1 X122.218 Y106.937 E0.00652 F2400.000
G1 X121.902 Y106.819 E0.00474
G1 X121.902 Y107.131 E0.00440
G1 X121.489 Y107.258 E0.00607
G1 X121.489 Y106.984 E0.00385
G1 F4800
G1 X121.489 Y106.355 E-0.14938
G1 F4800
G1 X121.967 Y106.355 E-0.11360
G1 F4800
G1 X121.992 Y106.532 E-0.04227
G1 E-2.69475 F1200.00000
G1 X121.489 Y118.377 F6000.000
G1 E3.00000 F1200.00000
G1 X18.623 Y118.377 E1.44474 F2400.000
G1 X18.623 Y93.623 E0.34766
G1 X193.377 Y93.623 E2.45440
G1 X193.377 Y118.377 E0.34766
G1 X121.549 Y118.377 E1.00882 F2400.000
G1 F4800
G1 X109.549 Y118.377 E-2.85000
G1 E-0.15000 F1200.00000
G1 X47.911 Y117.978 F6000.000
G1 E3.00000 F1200.00000
G1 X19.022 Y117.978 E0.40575 F2400.000
G1 X19.022 Y94.022 E0.33646
G1 X192.978 Y94.022 E2.44321
G1 X192.978 Y117.978 E0.33646
G1 X47.971 Y117.978 E2.03662 F2400.000
G1 F4800
G1 X35.971 Y117.978 E-2.85000
G1 E-0.15000 F1200.00000
G1 X84.390 Y109.517 F6000.000
G1 E3.00000 F1200.00000
G1 X84.390 Y102.065 E0.10466 F2400.000
G1 X87.530 Y102.065 E0.04409 F2400.000
G1 X88.372 Y102.170 E0.01192
G1 X89.096 Y102.307 E0.01035
G1 X89.759 Y102.527 E0.00981
G1 X90.126 Y102.724 E0.00585
G1 X90.511 Y103.043 E0.00703
G1 X90.834 Y103.499 E0.00784
G1 X91.094 Y104.111 E0.00934
G1 X91.300 Y104.914 E0.01165
G1 X91.443 Y105.689 E0.01106
G1 X91.411 Y106.217 E0.00743
G1 X91.333 Y106.725 E0.00721
G1 X91.176 Y107.213 E0.00720
G1 X90.969 Y107.693 E0.00735
G1 X90.696 Y108.101 E0.00690
G1 X90.385 Y108.472 E0.00680
G1 X90.010 Y108.779 E0.00680
G1 X89.599 Y109.047 E0.00689
G1 X89.111 Y109.253 E0.00744
G1 X88.615 Y109.409 E0.00730
G1 X88.100 Y109.486 E0.00731
G1 X87.586 Y109.517 E0.00724
G1 X84.450 Y109.517 E0.04404
G1 X83.990 Y109.517 F6000.000
G1 F4800
G1 X84.390 Y102.065 E-1.76990
G1 E-1.23010 F1200.00000
G1 X91.788 Y109.517 F6000.000
G1 E3.00000 F1200.00000
G1 X91.788 Y104.067 E0.07655 F2400.000
G1 X94.313 Y104.067 E0.03547
G1 X94.322 Y104.463 E0.00556
G1 X94.520 Y104.267 E0.00392
G1 X94.865 Y104.086 E0.00547
G1 X95.263 Y103.994 E0.00573
G1 X95.661 Y103.992 E0.00559
G1 X96.148 Y104.144 E0.00717
G1 X96.148 Y104.067 E0.00109
G1 X96.503 Y104.067 E0.00499
G1 X96.550 Y103.888 E0.00259
G1 X96.435 Y103.823 E0.00186
G1 X96.194 Y103.539 E0.00523
G1 X96.087 Y103.308 E0.00358
G1 X96.029 Y102.949 E0.00511
G1 X96.058 Y102.700 E0.00352
G1 X96.126 Y102.466 E0.00343
G1 X96.257 Y102.260 E0.00343
G1 X96.425 Y102.074 E0.00353
G1 X96.660 Y101.928 E0.00387
G1 X96.901 Y101.823 E0.00371
G1 X97.201 Y101.770 E0.00427 F2400.000
G1 X97.669 Y101.773 E0.00658
G1 X98.048 Y101.868 E0.00548
G1 X98.401 Y102.072 E0.00573
G1 X98.641 Y102.352 E0.00518
G1 X98.747 Y102.583 E0.00357
G1 X98.803 Y102.943 E0.00512
G1 X98.748 Y103.309 E0.00519
G1 X98.643 Y103.544 E0.00361
G1 X98.400 Y103.834 E0.00532
G1 X98.304 Y103.886 E0.00153
G1 X98.350 Y104.067 E0.00262
G1 X98.678 Y104.067 E0.00461
G1 X98.678 Y109.517 E0.07655
G1 X96.148 Y109.517 E0.03553
G1 X96.148 Y106.425 E0.04342
G1 X95.407 Y106.197 E0.01089
G1 X95.139 Y106.161 E0.00379
G1 X94.645 Y106.299 E0.00721
G1 X94.541 Y106.364 E0.00173
G1 X94.458 Y106.467 E0.00185
G1 X94.378 Y106.689 E0.00331
G1 X94.318 Y107.139 E0.00637
G1 X94.318 Y109.517 E0.03340
G1 X91.848 Y109.517 E0.03469
G1 X91.388 Y109.517 F6000.000
G1 F4800
G1 X91.788 Y104.067 E-1.29445
G1 F4800
G1 X94.313 Y104.067 E-0.59972
G1 F4800
G1 X94.322 Y104.463 E-0.09408
G1 F4800
G1 X94.520 Y104.267 E-0.06625
G1 F4800
G1 X94.865 Y104.086 E-0.09250
G1 F4800
G1 X95.263 Y103.994 E-0.09691
G1 F4800
G1 X95.661 Y103.992 E-0.09454
G1 F4800
G1 X96.148 Y104.144 E-0.12128
G1 F4800
G1 X96.148 Y104.067 E-0.01835
G1 F4800
G1 X96.503 Y104.067 E-0.08439
G1 F4800
G1 X96.550 Y103.888 E-0.04383
G1 F4800
G1 X96.435 Y103.823 E-0.03137
G1 F4800
G1 X96.194 Y103.539 E-0.08844
G1 F4800
G1 X96.087 Y103.308 E-0.06051
G1 F4800
G1 X96.044 Y103.044 E-0.06339
G1 E-0.15000 F1200.00000
G1 X99.229 Y109.517 F6000.000
G1 E3.00000 F1200.00000
G1 X99.229 Y101.664 E0.11029 F2400.000
G1 X101.759 Y101.664 E0.03553 F2400.000
G1 X101.759 Y109.517 E0.11029
G1 X99.289 Y109.517 E0.03469
G1 X98.829 Y109.517 F6000.000
G1 F4800
G1 X99.229 Y101.664 E-1.86499
G1 E-1.13501 F1200.00000
G1 X102.310 Y109.517 F6000.000
G1 E3.00000 F1200.00000
G1 X102.310 Y101.664 E0.11029 F2400.000
G1 X104.840 Y101.664 E0.03553 F2400.000
G1 X104.840 Y109.517 E0.11029
G1 X102.370 Y109.517 E0.03469
G1 X101.910 Y109.517 F6000.000
G1 X102.370 Y109.915 F6000.000
G1 X95.750 Y109.915 E0.09299 F2400.000
G1 X95.750 Y106.719 E0.04489
G1 X95.322 Y106.587 E0.00629
G1 X95.168 Y106.567 E0.00218
G1 X94.809 Y106.667 E0.00523
G1 X94.767 Y106.784 E0.00174
G1 X94.716 Y107.165 E0.00540
G1 X94.716 Y109.915 E0.03862
G1 X91.389 Y109.915 E0.04673
G1 X91.389 Y108.086 E0.02569
G1 X91.220 Y108.035 E0.00249
G1 X91.015 Y108.341 E0.00517
G1 X90.666 Y108.757 E0.00763
G1 X90.246 Y109.101 E0.00762
G1 X89.787 Y109.400 E0.00769
G1 X89.249 Y109.628 E0.00821
G1 X88.705 Y109.798 E0.00800
G1 X88.142 Y109.882 E0.00800
G1 X87.598 Y109.915 E0.00766
G1 X83.992 Y109.915 E0.05065
G1 X83.992 Y101.666 E0.11586
G1 X87.555 Y101.666 E0.05004
G1 X88.433 Y101.776 E0.01244
G1 X89.196 Y101.920 E0.01090
G1 X89.917 Y102.160 E0.01067
G1 X90.350 Y102.392 E0.00689
G1 X90.806 Y102.770 E0.00832
G1 X91.184 Y103.303 E0.00918
G1 X91.339 Y103.668 E0.00556
G1 X94.703 Y103.668 E0.04724
G1 X94.704 Y103.714 E0.00065
G1 X95.216 Y103.595 E0.00739
G1 X95.780 Y103.592 E0.00792
G1 X95.703 Y103.426 E0.00258
G1 X95.626 Y102.958 E0.00666
G1 X95.666 Y102.621 E0.00476
G1 X95.759 Y102.300 E0.00469
G1 X95.939 Y102.017 E0.00471
G1 X96.168 Y101.764 E0.00479
G1 X96.474 Y101.575 E0.00506
G1 X96.785 Y101.438 E0.00478
G1 X97.168 Y101.371 E0.00545
G1 X97.720 Y101.375 E0.00776
G1 X98.199 Y101.496 E0.00694
G1 X98.831 Y101.860 E0.01025
G1 X98.831 Y101.266 E0.00835
G1 X105.239 Y101.266 E0.09000 F2400.000
G1 X105.239 Y109.915 E0.12148
G1 X102.430 Y109.915 E0.03945
G1 X102.430 Y110.313 F6000.000
G1 X90.991 Y110.313 E0.16067 F2400.000
G1 X90.991 Y109.006 E0.01837
G1 X90.482 Y109.423 E0.00924
G1 X89.975 Y109.753 E0.00850
G1 X89.386 Y110.002 E0.00898
G1 X88.795 Y110.188 E0.00871
G1 X88.183 Y110.279 E0.00868
G1 X87.610 Y110.313 E0.00807
G1 X83.593 Y110.313 E0.05641
G1 X83.593 Y101.268 E0.12705
G1 X87.580 Y101.268 E0.05599
G1 X88.495 Y101.382 E0.01296
G1 X89.296 Y101.534 E0.01145
G1 X90.076 Y101.792 E0.01153
G1 X90.573 Y102.060 E0.00794
G1 X91.101 Y102.497 E0.00962
G1 X91.534 Y103.108 E0.01053
G1 X91.603 Y103.270 E0.00246
G1 X94.857 Y103.270 E0.04570
G1 X95.258 Y103.177 E0.00579
G1 X95.224 Y102.967 E0.00298
G1 X95.274 Y102.542 E0.00600
G1 X95.392 Y102.134 E0.00596
G1 X95.621 Y101.775 E0.00599
G1 X95.910 Y101.455 E0.00605
G1 X96.288 Y101.221 E0.00625
G1 X96.669 Y101.054 E0.00585
G1 X97.134 Y100.972 E0.00663
G1 X97.771 Y100.977 E0.00894
G1 X98.432 Y101.143 E0.00958
G1 X98.432 Y100.867 E0.00388
G1 X105.637 Y100.867 E0.10120 F2400.000
G1 X105.637 Y110.313 E0.13267
G1 X102.490 Y110.313 E0.04420
G1 F4800
G1 X90.991 Y110.313 E-2.73112
G1 F4800
G1 X90.991 Y109.813 E-0.11888
G1 E-0.15000 F1200.00000
G1 X108.360 Y109.517 F6000.000
G1 E3.00000 F1200.00000
G1 X108.360 Y102.064 E0.10466 F2400.000
G1 X111.992 Y102.067 E0.05101
G1 X112.606 Y102.099 E0.00864
G1 X113.076 Y102.180 E0.00669
G1 X113.479 Y102.329 E0.00603
G1 X113.715 Y102.474 E0.00389
G1 X114.024 Y102.789 E0.00619
G1 X114.364 Y103.411 E0.00996
G1 X114.577 Y103.955 E0.00820
G1 X114.523 Y104.389 E0.00614
G1 X114.367 Y104.769 E0.00578
G1 X114.097 Y105.115 E0.00616
G1 X113.598 Y105.506 E0.00889
G1 X113.857 Y105.623 E0.00399
G1 X114.241 Y105.912 E0.00675
G1 X114.545 Y106.289 E0.00680
G1 X114.728 Y106.697 E0.00628
G1 X114.794 Y107.142 E0.00632
G1 X114.690 Y107.884 E0.01052
G1 X114.485 Y108.342 E0.00705
G1 X113.984 Y108.914 E0.01067
G1 X113.201 Y109.309 E0.01233
G1 X112.913 Y109.401 E0.00424
G1 X112.351 Y109.490 E0.00799
G1 X111.784 Y109.517 E0.00798
G1 X108.420 Y109.517 E0.04724
G1 X107.960 Y109.517 F6000.000
G1 F4800
G1 X108.360 Y102.064 E-1.76993
G1 F4800
G1 X111.992 Y102.067 E-0.86255
G1 F4800
G1 X112.606 Y102.099 E-0.14617
G1 F4800
G1 X112.902 Y102.150 E-0.07135
G1 E-0.15000 F1200.00000
G1 X115.079 Y109.517 F6000.000
G1 E3.00000 F1200.00000
G1 X115.079 Y104.067 E0.07655 F2400.000
G1 X115.434 Y104.067 E0.00499
G1 X115.481 Y103.888 E0.00259
G1 X115.366 Y103.823 E0.00186
G1 X115.125 Y103.539 E0.00523
G1 X115.018 Y103.308 E0.00358
G1 X114.959 Y102.949 E0.00511
G1 X114.989 Y102.700 E0.00352
G1 X115.056 Y102.466 E0.00343
G1 X115.188 Y102.260 E0.00343
G1 X115.356 Y102.074 E0.00353
G1 X115.590 Y101.928 E0.00387
G1 X115.832 Y101.823 E0.00371
G1 X116.132 Y101.770 E0.00427 F2400.000
G1 X116.600 Y101.773 E0.00658
G1 X116.978 Y101.868 E0.00548
G1 X117.332 Y102.072 E0.00573
G1 X117.572 Y102.352 E0.00518
G1 X117.678 Y102.583 E0.00357
G1 X117.734 Y102.943 E0.00512
G1 X117.679 Y103.309 E0.00519
G1 X117.574 Y103.544 E0.00361
G1 X117.331 Y103.834 E0.00532
G1 X117.235 Y103.886 E0.00153
G1 X117.281 Y104.067 E0.00262
G1 X118.590 Y104.067 E0.01838
G1 X118.590 Y103.139 E0.01303
G1 X121.090 Y102.448 E0.03644
G1 X121.090 Y104.067 E0.02273
G1 X122.130 Y104.067 E0.01461
G1 X122.130 Y105.470 E0.01971
G1 X122.333 Y105.501 E0.00288
G1 X122.474 Y105.056 E0.00656
G1 X122.710 Y104.727 E0.00568
G1 X123.013 Y104.434 E0.00592
G1 X123.682 Y104.112 E0.01043
G1 X124.155 Y103.994 E0.00685
G1 X124.882 Y103.944 E0.01023
G1 X125.556 Y103.992 E0.00950
G1 X126.491 Y104.175 E0.01337
G1 X126.491 Y106.071 E0.02664
G1 X125.541 Y105.761 E0.01403
G1 X125.273 Y105.723 E0.00379
G1 X125.221 Y105.933 E0.00303
G1 X125.879 Y106.169 E0.00982
G1 X126.449 Y106.568 E0.00976
G1 X126.698 Y106.939 E0.00628
G1 X126.817 Y107.340 E0.00588
G1 X126.843 Y107.635 E0.00416
G1 X126.792 Y108.062 E0.00605
G1 X126.667 Y108.471 E0.00600
G1 X126.421 Y108.821 E0.00601
G1 X126.103 Y109.132 E0.00625
G1 X125.635 Y109.371 E0.00738
G1 X125.163 Y109.540 E0.00703
G1 X124.666 Y109.615 E0.00707
G1 X124.166 Y109.639 E0.00703
G1 X123.728 Y109.617 E0.00616
G1 X122.883 Y109.499 E0.01199
G1 X122.130 Y109.313 E0.01089
G1 X122.130 Y109.394 E0.00114
G1 X121.486 Y109.574 E0.00940
G1 X121.073 Y109.625 E0.00585
G1 X120.657 Y109.639 E0.00584
G1 X120.061 Y109.578 E0.00841
G1 X119.669 Y109.444 E0.00582
G1 X119.144 Y109.099 E0.00883
G1 X118.788 Y108.575 E0.00889
G1 X118.650 Y108.181 E0.00587
G1 X118.590 Y107.584 E0.00843
G1 X118.590 Y105.957 E0.02286
G1 X117.609 Y105.957 E0.01377
G1 X117.609 Y109.517 E0.04999
G1 X115.139 Y109.517 E0.03469
G1 X114.679 Y109.517 F6000.000
G1 X115.139 Y109.915 F6000.000
G1 X114.680 Y109.915 E0.00644 F2400.000
G1 X114.680 Y108.723 E0.01674
G1 X114.233 Y109.234 E0.00954
G1 X113.352 Y109.679 E0.01386
G1 X113.006 Y109.790 E0.00511
G1 X112.392 Y109.887 E0.00873
G1 X111.793 Y109.915 E0.00842
G1 X107.962 Y109.915 E0.05382
G1 X107.962 Y101.666 E0.11586
G1 X112.002 Y101.668 E0.05675
G1 X112.651 Y101.702 E0.00912
G1 X113.180 Y101.794 E0.00754
G1 X113.654 Y101.969 E0.00710
G1 X113.965 Y102.160 E0.00513
G1 X114.347 Y102.549 E0.00765
G1 X114.524 Y102.874 E0.00520
G1 X114.689 Y102.300 E0.00839
G1 X114.870 Y102.017 E0.00471
G1 X115.098 Y101.764 E0.00479
G1 X115.404 Y101.575 E0.00506
G1 X115.716 Y101.438 E0.00478
G1 X116.098 Y101.371 E0.00545 F2400.000
G1 X116.651 Y101.375 E0.00776
G1 X117.129 Y101.496 E0.00694
G1 X117.590 Y101.761 E0.00746
G1 X117.911 Y102.135 E0.00692
G1 X118.063 Y102.468 E0.00514
G1 X118.123 Y102.854 E0.00549
G1 X121.489 Y101.925 E0.04904
G1 X121.489 Y103.668 E0.02449
G1 X122.529 Y103.668 E0.01461
G1 X122.529 Y104.348 E0.00955
G1 X122.782 Y104.103 E0.00494
G1 X123.545 Y103.735 E0.01190
G1 X124.087 Y103.600 E0.00784
G1 X124.887 Y103.545 E0.01126
G1 X125.609 Y103.596 E0.01017
G1 X126.889 Y103.846 E0.01832
G1 X126.889 Y106.509 E0.03740
G1 X127.062 Y106.767 E0.00437
G1 X127.210 Y107.265 E0.00729
G1 X127.244 Y107.641 E0.00531
G1 X127.183 Y108.145 E0.00713
G1 X127.030 Y108.648 E0.00739
G1 X126.726 Y109.081 E0.00742
