; generated by Slic3r 1.2.9 on 2015-09-17 at 10:57:58

; external perimeters extrusion width = 0.55mm
; perimeters extrusion width = 0.60mm
; infill extrusion width = 0.60mm
; solid infill extrusion width = 0.65mm
; top infill extrusion width = 0.65mm
; support material extrusion width = 0.50mm

M201 X750 Y750 E100
G28 X10.0 Y10.0
G28 Z
G92 E0.0
G1 Y60.0 E2.0  F1000.0
G1 Y100.0 E4.5  F1000.0
G92 Z0.35
G92 E0.0
G21 ; set units to millimeters
G90 ; use absolute coordinates
M83 ; use relative distances for extrusion
G1 E-2.50000 F1200.00000
G1 Z0.250 F6000.000
G1 X17.897 Y81.026 F6000.000
G1 E2.50000 F1200.00000
G1 X18.000 Y81.004 E0.00192 F2400.000
G1 X194.000 Y81.004 E3.20720
G1 X195.343 Y81.396 E0.02549
G1 X196.264 Y82.448 E0.02549 F2400.000
G1 X196.496 Y83.500 E0.01962
G1 X196.496 Y128.500 E0.82002
G1 X196.104 Y129.843 E0.02549
G1 X195.052 Y130.764 E0.02549
G1 X194.000 Y130.996 E0.01962
G1 X18.000 Y130.996 E3.20720
G1 X16.657 Y130.604 E0.02549
G1 X15.736 Y129.552 E0.02549
G1 X15.504 Y128.500 E0.01962
G1 X15.504 Y83.500 E0.82002
G1 X15.896 Y82.157 E0.02549
G1 X16.948 Y81.236 E0.02549
G1 X17.839 Y81.039 E0.01661
G1 F4800
G1 X18.000 Y81.004 E-0.03923
G1 F4800
G1 X27.835 Y81.004 E-2.33577
G1 E-0.12500 F1200.00000
G1 X18.275 Y83.775 F6000.000
G1 E2.50000 F1200.00000
G1 X193.725 Y83.775 E3.19718 F1920.000
G1 X193.725 Y128.225 E0.81000
G1 X18.275 Y128.225 E3.19718 F1920.000
G1 X18.275 Y83.835 E0.80891
G1 X18.621 Y83.975 F6000.000
G1 F4800
G1 X28.275 Y83.832 E-2.37500
G1 E-0.12500 F1200.00000
G1 X20.468 Y127.437 F6000.000
G1 E2.50000 F1200.00000
G1 X20.592 Y127.483 E0.00242 F1920.000
G1 X20.549 Y127.729 E0.00455
G1 X18.771 Y127.729 E0.03240
G1 X18.771 Y125.958 E0.03227
G1 X19.043 Y125.934 E0.00497
G1 X19.089 Y126.195 E0.00484
G1 X19.442 Y126.807 E0.01287 F1920.000
G1 X19.983 Y127.261 E0.01287
G1 X20.412 Y127.417 E0.00830
G1 X20.581 Y126.950 F6000.000
G1 X20.235 Y126.824 E0.00671 F1920.000
G1 X19.828 Y126.483 E0.00968
G1 X19.563 Y126.023 E0.00968
G1 X19.471 Y125.500 E0.00968
G1 X19.563 Y124.977 E0.00968
G1 X19.828 Y124.517 E0.00968
G1 X20.226 Y124.184 E0.00945
G1 X20.489 Y124.061 E0.00528
G1 X20.972 Y123.974 E0.00896 F1920.000
G1 X21.264 Y123.997 E0.00532
G1 X21.534 Y124.069 E0.00509
G1 X21.983 Y124.329 E0.00945
G1 X22.324 Y124.735 E0.00968
G1 X22.502 Y125.223 E0.00945
G1 X22.527 Y125.512 E0.00529
G1 X22.437 Y126.023 E0.00945
G1 X22.171 Y126.483 E0.00968
G1 X21.765 Y126.824 E0.00968
G1 X21.277 Y127.002 E0.00945
G1 X21.000 Y127.026 E0.00507
G1 X20.723 Y127.002 E0.00507
G1 X20.638 Y126.971 E0.00165
G1 X20.299 Y127.187 F6000.000
G1 F4800
G1 X20.235 Y126.824 E-0.10169
G1 F4800
G1 X19.828 Y126.483 E-0.12614
G1 F4800
G1 X19.563 Y126.023 E-0.12614
G1 F4800
G1 X19.471 Y125.500 E-0.12614
G1 F4800
G1 X19.563 Y124.977 E-0.12614
G1 F4800
G1 X19.828 Y124.517 E-0.12614
G1 F4800
G1 X20.226 Y124.184 E-0.12322
G1 F4800
G1 X20.489 Y124.061 E-0.06885
G1 E-1.57556 F1200.00000
G1 X21.000 Y88.029 F6000.000
G1 E2.50000 F1200.00000
G1 X20.489 Y87.939 E0.00945 F1920.000
G1 X20.226 Y87.817 E0.00529
G1 X19.828 Y87.483 E0.00945
G1 X19.563 Y87.023 E0.00968
G1 X19.471 Y86.500 E0.00968
G1 X19.563 Y85.977 E0.00968
G1 X19.828 Y85.517 E0.00968
G1 X20.226 Y85.184 E0.00945
G1 X20.489 Y85.061 E0.00528
G1 X20.972 Y84.974 E0.00896 F1920.000
G1 X21.264 Y84.997 E0.00532
G1 X21.534 Y85.069 E0.00509
G1 X21.983 Y85.329 E0.00945
G1 X22.324 Y85.735 E0.00968
G1 X22.502 Y86.223 E0.00945
G1 X22.527 Y86.512 E0.00529
G1 X22.437 Y87.023 E0.00945
G1 X22.178 Y87.472 E0.00945
G1 X21.972 Y87.678 E0.00529
G1 X21.523 Y87.937 E0.00945
G1 X21.059 Y88.019 E0.00858
G1 X20.780 Y88.364 F6000.000
G1 F4800
G1 X20.489 Y87.939 E-0.13670
G1 F4800
G1 X20.226 Y87.817 E-0.06895
G1 F4800
G1 X19.828 Y87.483 E-0.12322
G1 F4800
G1 X19.563 Y87.023 E-0.12614
G1 F4800
G1 X19.471 Y86.500 E-0.12614
G1 F4800
G1 X19.563 Y85.977 E-0.12614
G1 F4800
G1 X19.828 Y85.517 E-0.12614
G1 F4800
G1 X20.226 Y85.184 E-0.12322
G1 F4800
G1 X20.489 Y85.061 E-0.06885
G1 E-1.47453 F1200.00000
G1 X20.557 Y84.433 F6000.000
G1 E2.50000 F1200.00000
G1 X20.567 Y84.543 E0.00201 F1920.000
G1 X20.337 Y84.584 E0.00425 F1920.000
G1 X19.957 Y84.761 E0.00765
G1 X19.442 Y85.193 E0.01224
G1 X19.089 Y85.805 E0.01287
G1 X19.043 Y86.066 E0.00484
G1 X18.771 Y86.043 E0.00497
G1 X18.771 Y84.271 E0.03228
G1 X20.543 Y84.271 E0.03228
G1 X20.552 Y84.373 E0.00187
G1 F4800
G1 X20.567 Y84.543 E-0.04039
G1 E-2.45961 F1200.00000
G1 X172.895 Y84.271 F6000.000
G1 E2.50000 F1200.00000
G1 X190.543 Y84.271 E0.32159 F1920.000
G1 X190.567 Y84.543 E0.00497
G1 X190.338 Y84.584 E0.00425 F1920.000
G1 X189.957 Y84.761 E0.00765
G1 X189.442 Y85.193 E0.01224
G1 X189.089 Y85.805 E0.01287
G1 X188.967 Y86.500 E0.01287
G1 X189.089 Y87.195 E0.01287
G1 X189.425 Y87.777 E0.01224
G1 X189.723 Y88.075 E0.00767
G1 X190.305 Y88.411 E0.01224
G1 X191.000 Y88.533 E0.01287
G1 X191.695 Y88.411 E0.01287
G1 X192.277 Y88.075 E0.01224
G1 X192.575 Y87.777 E0.00767
G1 X192.911 Y87.195 E0.01224
G1 X192.957 Y86.934 E0.00484
G1 X193.229 Y86.957 E0.00497
G1 X193.229 Y125.043 E0.69401
G1 X192.957 Y125.066 E0.00497
G1 X192.911 Y124.805 E0.00484
G1 X192.575 Y124.223 E0.01224
G1 X192.277 Y123.925 E0.00767
G1 X191.725 Y123.607 E0.01161
G1 X191.348 Y123.505 E0.00712
G1 X190.947 Y123.475 E0.00732
G1 X190.338 Y123.584 E0.01129
G1 X189.957 Y123.761 E0.00765
G1 X189.442 Y124.193 E0.01224
G1 X189.089 Y124.805 E0.01287
G1 X188.967 Y125.500 E0.01287
G1 X189.089 Y126.195 E0.01287
G1 X189.425 Y126.777 E0.01224
G1 X189.723 Y127.075 E0.00767
G1 X190.305 Y127.411 E0.01224
G1 X190.566 Y127.457 E0.00485
G1 X190.543 Y127.729 E0.00497
G1 X21.451 Y127.729 E3.08132
G1 X21.407 Y127.483 E0.00455
G1 X22.017 Y127.261 E0.01181
G1 X22.558 Y126.807 E0.01287
G1 X22.911 Y126.195 E0.01287
G1 X23.027 Y125.534 E0.01224
G1 X22.991 Y125.115 E0.00767
G1 X22.761 Y124.483 E0.01224
G1 X22.307 Y123.942 E0.01287
G1 X21.725 Y123.607 E0.01224
G1 X21.348 Y123.505 E0.00712
G1 X20.947 Y123.475 E0.00732
G1 X20.337 Y123.584 E0.01129
G1 X19.957 Y123.761 E0.00765
G1 X19.442 Y124.193 E0.01224
G1 X19.089 Y124.805 E0.01287
G1 X19.043 Y125.066 E0.00484
G1 X18.771 Y125.042 E0.00497
G1 X18.771 Y86.958 E0.69401
G1 X19.043 Y86.934 E0.00497
G1 X19.089 Y87.195 E0.00484
G1 X19.442 Y87.807 E0.01287
G1 X19.957 Y88.239 E0.01224
G1 X20.338 Y88.417 E0.00767
G1 X21.000 Y88.533 E0.01224
G1 X21.695 Y88.411 E0.01287
G1 X22.277 Y88.075 E0.01224
G1 X22.575 Y87.777 E0.00767
G1 X22.911 Y87.195 E0.01224
G1 X23.027 Y86.534 E0.01224
G1 X22.991 Y86.115 E0.00767
G1 X22.761 Y85.483 E0.01224
G1 X22.307 Y84.943 E0.01287
G1 X21.725 Y84.607 E0.01224
G1 X21.440 Y84.530 E0.00538
G1 X21.474 Y84.271 E0.00476
G1 X172.835 Y84.271 E2.75821
G1 F4800
G1 X182.835 Y84.271 E-2.37500
G1 E-0.12500 F1200.00000
G1 X189.471 Y86.500 F6000.000
G1 E2.50000 F1200.00000
G1 X189.563 Y85.977 E0.00968 F1920.000
G1 X189.829 Y85.517 E0.00968
G1 X190.226 Y85.184 E0.00945
G1 X190.489 Y85.061 E0.00528
G1 X190.973 Y84.974 E0.00896 F1920.000
G1 X191.264 Y84.997 E0.00532
G1 X191.534 Y85.069 E0.00509
G1 X191.983 Y85.329 E0.00945
G1 X192.316 Y85.726 E0.00945
G1 X192.439 Y85.989 E0.00529
G1 X192.529 Y86.500 E0.00945
G1 X192.437 Y87.023 E0.00968
G1 X192.178 Y87.472 E0.00945
G1 X191.972 Y87.678 E0.00529
G1 X191.523 Y87.937 E0.00945
G1 X191.000 Y88.029 E0.00968
G1 X190.477 Y87.937 E0.00968
G1 X190.028 Y87.678 E0.00945
G1 X189.822 Y87.472 E0.00529
G1 X189.563 Y87.023 E0.00945
G1 X189.481 Y86.559 E0.00858
G1 X189.137 Y86.280 F6000.000
G1 F4800
G1 X189.563 Y85.977 E-0.13961
G1 F4800
G1 X189.829 Y85.517 E-0.12614
G1 F4800
G1 X190.226 Y85.184 E-0.12322
G1 F4800
G1 X190.489 Y85.061 E-0.06885
G1 E-2.04218 F1200.00000
G1 X192.074 Y84.808 F6000.000
G1 E2.50000 F1200.00000
G1 X191.725 Y84.607 E0.00734 F1920.000
G1 X191.440 Y84.530 E0.00538
G1 X191.474 Y84.271 E0.00476
G1 X193.229 Y84.271 E0.03197
G1 X193.229 Y86.043 E0.03228
G1 X192.957 Y86.066 E0.00497 F1920.000
G1 X192.917 Y85.839 E0.00422
G1 X192.739 Y85.457 E0.00767
G1 X192.307 Y84.943 E0.01224
G1 X192.126 Y84.838 E0.00381
G1 F4800
G1 X191.725 Y84.607 E-0.10989
G1 F4800
G1 X191.440 Y84.530 E-0.07010
G1 F4800
G1 X191.474 Y84.271 E-0.06203
G1 F4800
G1 X193.229 Y84.271 E-0.41667
G1 F4800
G1 X193.229 Y86.043 E-0.42069
G1 E-1.42062 F1200.00000
G1 X192.233 Y127.729 F6000.000
G1 E2.50000 F1200.00000
G1 X191.457 Y127.729 E0.01414 F1920.000
G1 X191.434 Y127.457 E0.00497
G1 X191.695 Y127.411 E0.00485
G1 X192.277 Y127.075 E0.01224
G1 X192.575 Y126.777 E0.00767
G1 X192.911 Y126.195 E0.01224
G1 X192.957 Y125.934 E0.00484
G1 X193.229 Y125.957 E0.00497
G1 X193.229 Y127.729 E0.03228 F1920.000
G1 X192.293 Y127.729 E0.01705
G1 F4800
G1 X191.457 Y127.729 E-0.19850
G1 F4800
G1 X191.434 Y127.457 E-0.06481
G1 F4800
G1 X191.695 Y127.411 E-0.06315
G1 F4800
G1 X192.277 Y127.075 E-0.15953
G1 F4800
G1 X192.575 Y126.777 E-0.09998
G1 F4800
G1 X192.911 Y126.195 E-0.15953
G1 F4800
G1 X192.957 Y125.934 E-0.06314
G1 F4800
G1 X193.229 Y125.957 E-0.06481
G1 E-1.62655 F1200.00000
G1 X191.758 Y126.801 F6000.000
G1 E2.50000 F1200.00000
G1 X191.523 Y126.937 E0.00494 F1920.000
G1 X191.000 Y127.029 E0.00968
G1 X190.477 Y126.937 E0.00968
G1 X190.028 Y126.678 E0.00945
G1 X189.822 Y126.472 E0.00529
G1 X189.563 Y126.023 E0.00945
G1 X189.471 Y125.500 E0.00968
G1 X189.563 Y124.977 E0.00968
G1 X189.829 Y124.517 E0.00968
G1 X190.226 Y124.184 E0.00945
G1 X190.489 Y124.061 E0.00528
G1 X190.973 Y123.974 E0.00896 F1920.000
G1 X191.264 Y123.997 E0.00532
G1 X191.534 Y124.069 E0.00509
G1 X191.972 Y124.322 E0.00923
G1 X192.178 Y124.528 E0.00529
G1 X192.437 Y124.977 E0.00945
G1 X192.529 Y125.500 E0.00968
G1 X192.437 Y126.023 E0.00968
G1 X192.178 Y126.472 E0.00945
G1 X191.972 Y126.678 E0.00529
G1 X191.810 Y126.771 E0.00342
G1 X191.758 Y127.073 F6000.000
G1 X192.116 Y127.468 F6000.000
G1 X192.485 Y127.369 E0.00695 F960.000
G1 X192.758 Y127.258 E0.00538
G1 X192.869 Y126.985 E0.00538
G1 X192.968 Y126.616 E0.00695
G1 F4800
G1 X192.869 Y126.985 E-0.09062
G1 F4800
G1 X192.758 Y127.258 E-0.07010
G1 F4800
G1 X192.485 Y127.369 E-0.07010
G1 F4800
G1 X192.116 Y127.468 E-0.09062
G1 E-2.17856 F1200.00000
G1 X192.980 Y84.763 F6000.000
G1 E2.50000 F1200.00000
G1 X192.116 Y84.532 E0.01630 F960.000
G1 F4800
G1 X192.980 Y84.763 E-0.21248
G1 E-2.28752 F1200.00000
G1 X189.324 Y84.877 F6000.000
G1 E2.50000 F1200.00000
G1 X189.079 Y84.632 E0.00632 F1920.000
G1 X189.021 Y85.278 E0.01183
G1 X188.376 Y84.632 E0.01666
G1 X187.673 Y84.632 E0.01284
G1 X188.764 Y85.724 E0.02818
G1 X188.650 Y86.313 E0.01097
G1 X186.969 Y84.632 E0.04340
G1 X186.266 Y84.632 E0.01284
G1 X188.675 Y87.042 E0.06223
G1 F4800
G1 X186.266 Y84.632 E-0.80934
G1 F4800
G1 X186.969 Y84.632 E-0.16705
G1 F4800
G1 X188.650 Y86.313 E-0.56453
G1 F4800
G1 X188.764 Y85.724 E-0.14262
G1 F4800
G1 X187.673 Y84.632 E-0.36649
G1 F4800
G1 X188.376 Y84.632 E-0.16705
G1 F4800
G1 X188.846 Y85.103 E-0.15792
G1 E-0.12500 F1200.00000
G1 X190.458 Y88.825 F6000.000
G1 E2.50000 F1200.00000
G1 X192.868 Y91.234 E0.06222 F1920.000
G1 X192.868 Y90.531 E0.01284
G1 X191.187 Y88.850 E0.04340
G1 X191.776 Y88.736 E0.01097
G1 X192.868 Y89.827 E0.02818
G1 X192.868 Y89.124 E0.01284
G1 X192.222 Y88.479 E0.01666
G1 X192.624 Y88.177 E0.00917
G1 X192.868 Y88.421 E0.00629
G1 F4800
G1 X192.624 Y88.177 E-0.08183
G1 F4800
G1 X192.222 Y88.479 E-0.11930
G1 F4800
G1 X192.868 Y89.124 E-0.21669
G1 F4800
G1 X192.868 Y89.827 E-0.16705
G1 F4800
G1 X191.776 Y88.736 E-0.36646
G1 F4800
G1 X191.187 Y88.850 E-0.14262
G1 F4800
G1 X192.868 Y90.531 E-0.56451
G1 F4800
G1 X192.868 Y91.234 E-0.16705
G1 F4800
G1 X191.232 Y89.598 E-0.54949
G1 E-0.12500 F1200.00000
G1 X192.868 Y91.938 F6000.000
G1 E2.50000 F1200.00000
G1 X185.562 Y84.632 E0.18864 F1920.000
G1 X184.859 Y84.632 E0.01284
G1 X192.868 Y92.641 E0.20681
G1 X192.868 Y93.344 E0.01284
G1 X184.156 Y84.632 E0.22497
G1 X183.452 Y84.632 E0.01284
G1 X192.868 Y94.048 E0.24313
G1 X192.868 Y94.751 E0.01284
G1 X182.749 Y84.632 E0.26130
G1 X182.046 Y84.632 E0.01284
G1 X192.868 Y95.454 E0.27946
G1 X192.868 Y96.158 E0.01284
G1 X181.342 Y84.632 E0.29762
G1 X180.639 Y84.632 E0.01284
G1 X192.868 Y96.861 E0.31579
G1 X192.868 Y97.565 E0.01284
G1 X179.935 Y84.632 E0.33395
G1 X179.232 Y84.632 E0.01284
G1 X192.868 Y98.268 E0.35211
G1 X192.868 Y98.971 E0.01284
G1 X178.529 Y84.632 E0.37028
G1 X177.825 Y84.632 E0.01284
G1 X192.868 Y99.675 E0.38844
G1 X192.868 Y100.378 E0.01284
G1 X177.122 Y84.632 E0.40660
G1 X176.419 Y84.632 E0.01284
G1 X192.868 Y101.081 E0.42477
G1 X192.868 Y101.785 E0.01284
G1 X175.715 Y84.632 E0.44293
G1 X175.012 Y84.632 E0.01284
G1 X192.868 Y102.488 E0.46109
G1 X192.868 Y103.192 E0.01284
G1 X174.308 Y84.632 E0.47926
G1 X173.605 Y84.632 E0.01284
G1 X192.868 Y103.895 E0.49742
G1 X192.868 Y104.598 E0.01284
G1 X172.902 Y84.632 E0.51559
G1 X172.198 Y84.632 E0.01284
G1 X192.868 Y105.302 E0.53375
G1 X192.868 Y106.005 E0.01284
G1 X171.495 Y84.632 E0.55191
G1 X170.792 Y84.632 E0.01284
G1 X192.868 Y106.708 E0.57008
G1 X192.868 Y107.412 E0.01284
G1 X170.088 Y84.632 E0.58824
G1 X169.385 Y84.632 E0.01284
G1 X192.868 Y108.115 E0.60640
G1 X192.868 Y108.819 E0.01284
G1 X168.681 Y84.632 E0.62457
G1 X167.978 Y84.632 E0.01284
G1 X192.868 Y109.522 E0.64273
G1 X192.868 Y110.225 E0.01284
G1 X167.275 Y84.632 E0.66089
G1 X166.571 Y84.632 E0.01284
G1 X192.868 Y110.929 E0.67906
G1 X192.868 Y111.632 E0.01284
G1 X165.868 Y84.632 E0.69722
G1 X165.165 Y84.632 E0.01284
G1 X192.868 Y112.335 E0.71538
G1 X192.868 Y113.039 E0.01284
G1 X164.461 Y84.632 E0.73355
G1 X163.758 Y84.632 E0.01284
G1 X192.868 Y113.742 E0.75171
G1 X192.868 Y114.446 E0.01284
G1 X163.054 Y84.632 E0.76987
G1 X162.351 Y84.632 E0.01284
G1 X192.868 Y115.149 E0.78804
G1 X192.868 Y115.852 E0.01284
G1 X161.648 Y84.632 E0.80620
G1 X160.944 Y84.632 E0.01284
G1 X192.868 Y116.556 E0.82436
G1 X192.868 Y117.259 E0.01284
G1 X160.241 Y84.632 E0.84253
G1 X159.538 Y84.632 E0.01284
G1 X192.868 Y117.962 E0.86069
G1 X192.868 Y118.666 E0.01284
G1 X158.834 Y84.632 E0.87886
G1 X158.131 Y84.632 E0.01284
G1 X192.868 Y119.369 E0.89702
G1 X192.868 Y120.073 E0.01284
G1 X157.427 Y84.632 E0.91518
G1 X156.724 Y84.632 E0.01284
G1 X192.868 Y120.776 E0.93335
G1 X192.868 Y121.479 E0.01284
G1 X156.021 Y84.632 E0.95151
G1 X155.317 Y84.632 E0.01284
G1 X192.868 Y122.183 E0.96967
G1 X192.868 Y122.886 E0.01284
G1 X154.614 Y84.632 E0.98784
G1 X153.911 Y84.632 E0.01284
G1 X192.868 Y123.589 E1.00600
G1 F4800
G1 X185.796 Y116.518 E-2.37500
G1 E-0.12500 F1200.00000
G1 X191.794 Y123.219 F6000.000
G1 E2.50000 F1200.00000
G1 X153.207 Y84.632 E0.99644 F1920.000
G1 X152.504 Y84.632 E0.01284
G1 X190.989 Y123.117 E0.99381
G1 X190.392 Y123.224 E0.01106
G1 X151.800 Y84.632 E0.99657
G1 X151.097 Y84.632 E0.01284
G1 X189.895 Y123.430 E1.00189
G1 X189.495 Y123.734 E0.00917
G1 X150.394 Y84.632 E1.00973
G1 X149.690 Y84.632 E0.01284
G1 X189.136 Y124.078 E1.01863
G1 X188.879 Y124.524 E0.00940
G1 X148.987 Y84.632 E1.03014
G1 X148.284 Y84.632 E0.01284
G1 X188.697 Y125.046 E1.04361
G1 X188.608 Y125.660 E0.01134
G1 X147.580 Y84.632 E1.05948
G1 X146.877 Y84.632 E0.01284
G1 X188.808 Y126.563 E1.08280
G1 X188.909 Y127.368 E0.01480
G1 X146.173 Y84.632 E1.10356
G1 X145.470 Y84.632 E0.01284
G1 X188.205 Y127.368 E1.10356
G1 X187.502 Y127.368 E0.01284
G1 X144.767 Y84.632 E1.10356
G1 X144.063 Y84.632 E0.01284
G1 X186.798 Y127.368 E1.10356
G1 X186.095 Y127.368 E0.01284
G1 X143.360 Y84.632 E1.10356
G1 X142.657 Y84.632 E0.01284
G1 X185.392 Y127.368 E1.10356
G1 X184.688 Y127.368 E0.01284
G1 X141.953 Y84.632 E1.10356
G1 X141.250 Y84.632 E0.01284
G1 X183.985 Y127.368 E1.10356
G1 X183.282 Y127.368 E0.01284
G1 X140.546 Y84.632 E1.10356
G1 X139.843 Y84.632 E0.01284
G1 X182.578 Y127.368 E1.10356
G1 X181.875 Y127.368 E0.01284
G1 X139.140 Y84.632 E1.10356
G1 X138.436 Y84.632 E0.01284
G1 X181.171 Y127.368 E1.10356
G1 X180.468 Y127.368 E0.01284
G1 X137.733 Y84.632 E1.10356
G1 X137.030 Y84.632 E0.01284
G1 X179.765 Y127.368 E1.10356
G1 X179.061 Y127.368 E0.01284
G1 X136.326 Y84.632 E1.10356
G1 X135.623 Y84.632 E0.01284
G1 X178.358 Y127.368 E1.10356
G1 X177.655 Y127.368 E0.01284
G1 X134.919 Y84.632 E1.10356
G1 X134.216 Y84.632 E0.01284
G1 X176.951 Y127.368 E1.10356
G1 X176.248 Y127.368 E0.01284
G1 X133.513 Y84.632 E1.10356
