; generated by Slic3r 1.2.9 on 2015-09-16 at 06:28:56

; external perimeters extrusion width = 0.55mm
; perimeters extrusion width = 0.60mm
; infill extrusion width = 0.60mm
; solid infill extrusion width = 0.65mm
; top infill extrusion width = 0.65mm

M201 X750 Y750 E100
G28 X10.0 Y10.0
G28 Z
G92 E0.0
G1 Y60.0 E2.0  F1000.0
G1 Y100.0 E4.5  F1000.0
G92 Z0.35
G92 E0.0
G21 ; set units to millimeters
G90 ; use absolute coordinates
M83 ; use relative distances for extrusion
G1 E-2.50000 F1200.00000
G1 Z0.250 F6000.000
G1 X62.437 Y97.968 F6000.000
G1 E2.50000 F1200.00000
G1 X108.365 Y68.697 E0.99245 F2400.000
G1 X109.706 Y68.306 E0.02547
G1 X119.706 Y68.306 E0.18223
G1 X121.237 Y68.830 E0.02948
G1 X193.394 Y124.814 E1.66426 F2400.000
G1 X194.214 Y125.947 E0.02549
G1 X194.360 Y126.786 E0.01552
G1 X194.360 Y136.786 E0.18223
G1 X193.968 Y138.129 E0.02549
G1 X192.915 Y139.051 E0.02549
G1 X191.863 Y139.283 E0.01962
G1 X21.863 Y139.283 E3.09786
G1 X20.520 Y138.891 E0.02549
G1 X19.599 Y137.838 E0.02549
G1 X19.367 Y136.786 E0.01962
G1 X19.367 Y126.786 E0.18223
G1 X19.759 Y125.444 E0.02549
G1 X20.522 Y124.681 E0.01965
G1 X62.387 Y98.000 E0.90466
G1 F4800
G1 X70.819 Y92.625 E-2.37500
G1 E-0.12500 F1200.00000
G1 X62.387 Y127.061 F6000.000
G1 E2.50000 F1200.00000
G1 X191.588 Y127.061 E2.35441 F1920.000
G1 X191.588 Y136.511 E0.17220
G1 X22.138 Y136.511 E3.08784 F1920.000
G1 X22.138 Y127.061 E0.17220
G1 X62.327 Y127.061 E0.73234
G1 X62.587 Y127.408 F6000.000
G1 F4800
G1 X72.327 Y127.061 E-2.37500
G1 E-0.12500 F1200.00000
G1 X26.538 Y136.015 F6000.000
G1 E2.50000 F1200.00000
G1 X22.635 Y136.015 E0.07114 F1920.000
G1 X22.635 Y127.558 E0.15412
G1 X191.092 Y127.558 E3.06975
G1 X191.092 Y136.015 E0.15412
G1 X26.598 Y136.015 E2.99752 F1920.000
G1 F4800
G1 X22.635 Y136.015 E-0.94139
G1 F4800
G1 X22.635 Y129.979 E-1.43361
G1 E-0.12500 F1200.00000
G1 X22.996 Y134.701 F6000.000
G1 E2.50000 F1200.00000
G1 X23.949 Y135.654 E0.02459 F1920.000
G1 X24.652 Y135.654 E0.01282
G1 X22.996 Y133.998 E0.04272
G1 X22.996 Y133.296 E0.01282
G1 X25.354 Y135.654 E0.06084
G1 X26.057 Y135.654 E0.01282
G1 X22.996 Y132.593 E0.07897
G1 X22.996 Y131.890 E0.01282
G1 X26.760 Y135.654 E0.09710
G1 X27.462 Y135.654 E0.01282
G1 X22.996 Y131.187 E0.11523
G1 X22.996 Y130.485 E0.01282
G1 X28.165 Y135.654 E0.13336
G1 X28.868 Y135.654 E0.01282
G1 X22.996 Y129.782 E0.15148
G1 X22.996 Y129.079 E0.01282
G1 X29.570 Y135.654 E0.16961
G1 X30.273 Y135.654 E0.01282
G1 X22.996 Y128.377 E0.18774
G1 X23.241 Y127.919 E0.00947
G1 X30.976 Y135.654 E0.19955
G1 X31.678 Y135.654 E0.01282
G1 X23.943 Y127.919 E0.19955
G1 X24.646 Y127.919 E0.01282
G1 X32.381 Y135.654 E0.19955
G1 X33.084 Y135.654 E0.01282
G1 X25.349 Y127.919 E0.19955
G1 X26.051 Y127.919 E0.01282
G1 X33.787 Y135.654 E0.19955
G1 X34.489 Y135.654 E0.01282
G1 X26.754 Y127.919 E0.19955
G1 X27.457 Y127.919 E0.01282
G1 X35.192 Y135.654 E0.19955
G1 X35.895 Y135.654 E0.01282
G1 X28.160 Y127.919 E0.19955
G1 X28.862 Y127.919 E0.01282
G1 X36.597 Y135.654 E0.19955
G1 X37.300 Y135.654 E0.01282
G1 X29.565 Y127.919 E0.19955
G1 X30.268 Y127.919 E0.01282
G1 X38.003 Y135.654 E0.19955
G1 X38.705 Y135.654 E0.01282
G1 X30.970 Y127.919 E0.19955
G1 X31.673 Y127.919 E0.01282
G1 X39.408 Y135.654 E0.19955
G1 X40.111 Y135.654 E0.01282
G1 X32.376 Y127.919 E0.19955
G1 X33.078 Y127.919 E0.01282
G1 X40.813 Y135.654 E0.19955
G1 X41.516 Y135.654 E0.01282
G1 X33.781 Y127.919 E0.19955
G1 X34.484 Y127.919 E0.01282
G1 X42.219 Y135.654 E0.19955
G1 X42.921 Y135.654 E0.01282
G1 X35.186 Y127.919 E0.19955
G1 X35.889 Y127.919 E0.01282
G1 X43.624 Y135.654 E0.19955
G1 X44.327 Y135.654 E0.01282
G1 X36.592 Y127.919 E0.19955
G1 X37.294 Y127.919 E0.01282
G1 X45.030 Y135.654 E0.19955
G1 X45.732 Y135.654 E0.01282
G1 X37.997 Y127.919 E0.19955
G1 X38.700 Y127.919 E0.01282
G1 X46.435 Y135.654 E0.19955
G1 X47.138 Y135.654 E0.01282
G1 X39.403 Y127.919 E0.19955
G1 X40.105 Y127.919 E0.01282
G1 X47.840 Y135.654 E0.19955
G1 X48.543 Y135.654 E0.01282
G1 X40.808 Y127.919 E0.19955
G1 X41.511 Y127.919 E0.01282
G1 X49.246 Y135.654 E0.19955
G1 X49.948 Y135.654 E0.01282
G1 X42.213 Y127.919 E0.19955
G1 X42.916 Y127.919 E0.01282
G1 X50.651 Y135.654 E0.19955
G1 X51.354 Y135.654 E0.01282
G1 X43.619 Y127.919 E0.19955
G1 X44.321 Y127.919 E0.01282
G1 X52.056 Y135.654 E0.19955
G1 X52.759 Y135.654 E0.01282
G1 X45.024 Y127.919 E0.19955
G1 X45.727 Y127.919 E0.01282
G1 X53.462 Y135.654 E0.19955
G1 X54.164 Y135.654 E0.01282
G1 X46.429 Y127.919 E0.19955
G1 X47.132 Y127.919 E0.01282
G1 X54.867 Y135.654 E0.19955
G1 X55.570 Y135.654 E0.01282
G1 X47.835 Y127.919 E0.19955
G1 X48.537 Y127.919 E0.01282
G1 X56.273 Y135.654 E0.19955
G1 X56.975 Y135.654 E0.01282
G1 X49.240 Y127.919 E0.19955
G1 X49.943 Y127.919 E0.01282
G1 X57.678 Y135.654 E0.19955
G1 X58.381 Y135.654 E0.01282
G1 X50.646 Y127.919 E0.19955
G1 X51.348 Y127.919 E0.01282
G1 X59.083 Y135.654 E0.19955
G1 X59.786 Y135.654 E0.01282
G1 X52.051 Y127.919 E0.19955
G1 X52.754 Y127.919 E0.01282
G1 X60.489 Y135.654 E0.19955
G1 X61.191 Y135.654 E0.01282
G1 X53.456 Y127.919 E0.19955
G1 X54.159 Y127.919 E0.01282
G1 X61.894 Y135.654 E0.19955
G1 X62.597 Y135.654 E0.01282
G1 X54.862 Y127.919 E0.19955
G1 X55.564 Y127.919 E0.01282
G1 X63.299 Y135.654 E0.19955
G1 X64.002 Y135.654 E0.01282
G1 X56.267 Y127.919 E0.19955
G1 X56.970 Y127.919 E0.01282
G1 X64.705 Y135.654 E0.19955
G1 X65.407 Y135.654 E0.01282
G1 X57.672 Y127.919 E0.19955
G1 X58.375 Y127.919 E0.01282
G1 X66.110 Y135.654 E0.19955
G1 X66.813 Y135.654 E0.01282
G1 X59.078 Y127.919 E0.19955
G1 X59.780 Y127.919 E0.01282
G1 X67.516 Y135.654 E0.19955
G1 X68.218 Y135.654 E0.01282
G1 X60.483 Y127.919 E0.19955
G1 X61.186 Y127.919 E0.01282
G1 X68.921 Y135.654 E0.19955
G1 X69.624 Y135.654 E0.01282
G1 X61.889 Y127.919 E0.19955
G1 X62.591 Y127.919 E0.01282
G1 X70.326 Y135.654 E0.19955
G1 X71.029 Y135.654 E0.01282
G1 X63.294 Y127.919 E0.19955
G1 X63.997 Y127.919 E0.01282
G1 X71.732 Y135.654 E0.19955
G1 X72.434 Y135.654 E0.01282
G1 X64.699 Y127.919 E0.19955
G1 X65.402 Y127.919 E0.01282
G1 X73.137 Y135.654 E0.19955
G1 X73.840 Y135.654 E0.01282
G1 X66.105 Y127.919 E0.19955
G1 X66.807 Y127.919 E0.01282
G1 X74.542 Y135.654 E0.19955
G1 X75.245 Y135.654 E0.01282
G1 X67.510 Y127.919 E0.19955
G1 X68.213 Y127.919 E0.01282
G1 X75.948 Y135.654 E0.19955
G1 X76.650 Y135.654 E0.01282
G1 X68.915 Y127.919 E0.19955
G1 X69.618 Y127.919 E0.01282
G1 X77.353 Y135.654 E0.19955
G1 X78.056 Y135.654 E0.01282
G1 X70.321 Y127.919 E0.19955
G1 X71.023 Y127.919 E0.01282
G1 X78.759 Y135.654 E0.19955
G1 X79.461 Y135.654 E0.01282
G1 X71.726 Y127.919 E0.19955
G1 X72.429 Y127.919 E0.01282
G1 X80.164 Y135.654 E0.19955
G1 X80.867 Y135.654 E0.01282
G1 X73.132 Y127.919 E0.19955
G1 X73.834 Y127.919 E0.01282
G1 X81.569 Y135.654 E0.19955
G1 X82.272 Y135.654 E0.01282
G1 X74.537 Y127.919 E0.19955
G1 X75.240 Y127.919 E0.01282
G1 X82.975 Y135.654 E0.19955
G1 X83.677 Y135.654 E0.01282
G1 X75.942 Y127.919 E0.19955
G1 X76.645 Y127.919 E0.01282
G1 X84.380 Y135.654 E0.19955
G1 X85.083 Y135.654 E0.01282
G1 X77.348 Y127.919 E0.19955
G1 X78.050 Y127.919 E0.01282
G1 X85.785 Y135.654 E0.19955
G1 X86.488 Y135.654 E0.01282
G1 X78.753 Y127.919 E0.19955
G1 X79.456 Y127.919 E0.01282
G1 X87.191 Y135.654 E0.19955
G1 X87.893 Y135.654 E0.01282
G1 X80.158 Y127.919 E0.19955
G1 X80.861 Y127.919 E0.01282
G1 X88.596 Y135.654 E0.19955
G1 X89.299 Y135.654 E0.01282
G1 X81.564 Y127.919 E0.19955
G1 X82.266 Y127.919 E0.01282
G1 X90.002 Y135.654 E0.19955
G1 X90.704 Y135.654 E0.01282
G1 X82.969 Y127.919 E0.19955
G1 X83.672 Y127.919 E0.01282
G1 X91.407 Y135.654 E0.19955
G1 X92.110 Y135.654 E0.01282
G1 X84.375 Y127.919 E0.19955
G1 X85.077 Y127.919 E0.01282
G1 X92.812 Y135.654 E0.19955
G1 X93.515 Y135.654 E0.01282
G1 X85.780 Y127.919 E0.19955
G1 X86.483 Y127.919 E0.01282
G1 X94.218 Y135.654 E0.19955
G1 X94.920 Y135.654 E0.01282
G1 X87.185 Y127.919 E0.19955
G1 X87.888 Y127.919 E0.01282
G1 X95.623 Y135.654 E0.19955
G1 X96.326 Y135.654 E0.01282
G1 X88.591 Y127.919 E0.19955
G1 X89.293 Y127.919 E0.01282
G1 X97.028 Y135.654 E0.19955
G1 X97.731 Y135.654 E0.01282
G1 X89.996 Y127.919 E0.19955
G1 X90.699 Y127.919 E0.01282
G1 X98.434 Y135.654 E0.19955
G1 X99.136 Y135.654 E0.01282
G1 X91.401 Y127.919 E0.19955
G1 X92.104 Y127.919 E0.01282
G1 X99.839 Y135.654 E0.19955
G1 X100.542 Y135.654 E0.01282
G1 X92.807 Y127.919 E0.19955
G1 X93.509 Y127.919 E0.01282
G1 X101.245 Y135.654 E0.19955
G1 X101.947 Y135.654 E0.01282
G1 X94.212 Y127.919 E0.19955
G1 X94.915 Y127.919 E0.01282
G1 X102.650 Y135.654 E0.19955
G1 X103.353 Y135.654 E0.01282
G1 X95.618 Y127.919 E0.19955
G1 X96.320 Y127.919 E0.01282
G1 X104.055 Y135.654 E0.19955
G1 X104.758 Y135.654 E0.01282
G1 X97.023 Y127.919 E0.19955
G1 X97.726 Y127.919 E0.01282
G1 X105.461 Y135.654 E0.19955
G1 X106.163 Y135.654 E0.01282
G1 X98.428 Y127.919 E0.19955
G1 X99.131 Y127.919 E0.01282
G1 X106.866 Y135.654 E0.19955
G1 X107.569 Y135.654 E0.01282
G1 X99.834 Y127.919 E0.19955
G1 X100.536 Y127.919 E0.01282
G1 X108.271 Y135.654 E0.19955
G1 X108.974 Y135.654 E0.01282
G1 X101.239 Y127.919 E0.19955
G1 X101.942 Y127.919 E0.01282
G1 X109.677 Y135.654 E0.19955
G1 X110.379 Y135.654 E0.01282
G1 X102.644 Y127.919 E0.19955
G1 X103.347 Y127.919 E0.01282
G1 X111.082 Y135.654 E0.19955
G1 X111.785 Y135.654 E0.01282
G1 X104.050 Y127.919 E0.19955
G1 X104.752 Y127.919 E0.01282
G1 X112.488 Y135.654 E0.19955
G1 X113.190 Y135.654 E0.01282
G1 X105.455 Y127.919 E0.19955
G1 X106.158 Y127.919 E0.01282
G1 X113.893 Y135.654 E0.19955
G1 X114.596 Y135.654 E0.01282
G1 X106.861 Y127.919 E0.19955
G1 X107.563 Y127.919 E0.01282
G1 X115.298 Y135.654 E0.19955
G1 X116.001 Y135.654 E0.01282
G1 X108.266 Y127.919 E0.19955
G1 X108.969 Y127.919 E0.01282
G1 X116.704 Y135.654 E0.19955
G1 X117.406 Y135.654 E0.01282
G1 X109.671 Y127.919 E0.19955
G1 X110.374 Y127.919 E0.01282
G1 X118.109 Y135.654 E0.19955
G1 X118.812 Y135.654 E0.01282
G1 X111.077 Y127.919 E0.19955
G1 X111.779 Y127.919 E0.01282
G1 X119.514 Y135.654 E0.19955
G1 X120.217 Y135.654 E0.01282
G1 X112.482 Y127.919 E0.19955
G1 X113.185 Y127.919 E0.01282
G1 X120.920 Y135.654 E0.19955
G1 X121.622 Y135.654 E0.01282
G1 X113.887 Y127.919 E0.19955
G1 X114.590 Y127.919 E0.01282
G1 X122.325 Y135.654 E0.19955
G1 X123.028 Y135.654 E0.01282
G1 X115.293 Y127.919 E0.19955
G1 X115.995 Y127.919 E0.01282
G1 X123.731 Y135.654 E0.19955
G1 X124.433 Y135.654 E0.01282
G1 X116.698 Y127.919 E0.19955
G1 X117.401 Y127.919 E0.01282
G1 X125.136 Y135.654 E0.19955
G1 X125.839 Y135.654 E0.01282
G1 X118.104 Y127.919 E0.19955
G1 X118.806 Y127.919 E0.01282
G1 X126.541 Y135.654 E0.19955
G1 X127.244 Y135.654 E0.01282
G1 X119.509 Y127.919 E0.19955
G1 X120.212 Y127.919 E0.01282
G1 X127.947 Y135.654 E0.19955
G1 X128.649 Y135.654 E0.01282
G1 X120.914 Y127.919 E0.19955
G1 X121.617 Y127.919 E0.01282
G1 X129.352 Y135.654 E0.19955
G1 X130.055 Y135.654 E0.01282
G1 X122.320 Y127.919 E0.19955
G1 X123.022 Y127.919 E0.01282
G1 X130.757 Y135.654 E0.19955
G1 X131.460 Y135.654 E0.01282
G1 X123.725 Y127.919 E0.19955
G1 X124.428 Y127.919 E0.01282
G1 X132.163 Y135.654 E0.19955
G1 X132.865 Y135.654 E0.01282
G1 X125.130 Y127.919 E0.19955
G1 X125.833 Y127.919 E0.01282
G1 X133.568 Y135.654 E0.19955
G1 X134.271 Y135.654 E0.01282
G1 X126.536 Y127.919 E0.19955
G1 X127.238 Y127.919 E0.01282
G1 X134.974 Y135.654 E0.19955
G1 X135.676 Y135.654 E0.01282
G1 X127.941 Y127.919 E0.19955
G1 X128.644 Y127.919 E0.01282
G1 X136.379 Y135.654 E0.19955
G1 X137.082 Y135.654 E0.01282
G1 X129.347 Y127.919 E0.19955
G1 X130.049 Y127.919 E0.01282
G1 X137.784 Y135.654 E0.19955
G1 X138.487 Y135.654 E0.01282
G1 X130.752 Y127.919 E0.19955
G1 X131.455 Y127.919 E0.01282
G1 X139.190 Y135.654 E0.19955
G1 X139.892 Y135.654 E0.01282
G1 X132.157 Y127.919 E0.19955
G1 X132.860 Y127.919 E0.01282
G1 X140.595 Y135.654 E0.19955
G1 X141.298 Y135.654 E0.01282
G1 X133.563 Y127.919 E0.19955
G1 X134.265 Y127.919 E0.01282
G1 X142.000 Y135.654 E0.19955
G1 X142.703 Y135.654 E0.01282
G1 X134.968 Y127.919 E0.19955
G1 X135.671 Y127.919 E0.01282
G1 X143.406 Y135.654 E0.19955
G1 X144.108 Y135.654 E0.01282
G1 X136.373 Y127.919 E0.19955
G1 X137.076 Y127.919 E0.01282
G1 X144.811 Y135.654 E0.19955
G1 X145.514 Y135.654 E0.01282
G1 X137.779 Y127.919 E0.19955
G1 X138.481 Y127.919 E0.01282
G1 X146.217 Y135.654 E0.19955
G1 X146.919 Y135.654 E0.01282
G1 X139.184 Y127.919 E0.19955
G1 X139.887 Y127.919 E0.01282
G1 X147.622 Y135.654 E0.19955
G1 X148.325 Y135.654 E0.01282
G1 X140.590 Y127.919 E0.19955
G1 X141.292 Y127.919 E0.01282
G1 X149.027 Y135.654 E0.19955
G1 X149.730 Y135.654 E0.01282
G1 X141.995 Y127.919 E0.19955
G1 X142.698 Y127.919 E0.01282
G1 X150.433 Y135.654 E0.19955
G1 X151.135 Y135.654 E0.01282
G1 X143.400 Y127.919 E0.19955
G1 X144.103 Y127.919 E0.01282
G1 X151.838 Y135.654 E0.19955
G1 X152.541 Y135.654 E0.01282
G1 X144.806 Y127.919 E0.19955
G1 X145.508 Y127.919 E0.01282
G1 X153.243 Y135.654 E0.19955
G1 X153.946 Y135.654 E0.01282
G1 X146.211 Y127.919 E0.19955
G1 X146.914 Y127.919 E0.01282
G1 X154.649 Y135.654 E0.19955
G1 X155.351 Y135.654 E0.01282
G1 X147.616 Y127.919 E0.19955
G1 X148.319 Y127.919 E0.01282
G1 X156.054 Y135.654 E0.19955
G1 X156.757 Y135.654 E0.01282
G1 X149.022 Y127.919 E0.19955
G1 X149.724 Y127.919 E0.01282
G1 X157.460 Y135.654 E0.19955
G1 X158.162 Y135.654 E0.01282
G1 X150.427 Y127.919 E0.19955
G1 X151.130 Y127.919 E0.01282
G1 X158.865 Y135.654 E0.19955
G1 X159.568 Y135.654 E0.01282
G1 X151.833 Y127.919 E0.19955
G1 X152.535 Y127.919 E0.01282
G1 X160.270 Y135.654 E0.19955
G1 X160.973 Y135.654 E0.01282
G1 X153.238 Y127.919 E0.19955
G1 X153.941 Y127.919 E0.01282
G1 X161.676 Y135.654 E0.19955
G1 X162.378 Y135.654 E0.01282
G1 X154.643 Y127.919 E0.19955
G1 X155.346 Y127.919 E0.01282
G1 X163.081 Y135.654 E0.19955
G1 X163.784 Y135.654 E0.01282
G1 X156.049 Y127.919 E0.19955
G1 X156.751 Y127.919 E0.01282
G1 X164.486 Y135.654 E0.19955
G1 X165.189 Y135.654 E0.01282
G1 X157.454 Y127.919 E0.19955
G1 X158.157 Y127.919 E0.01282
G1 X165.892 Y135.654 E0.19955
G1 X166.594 Y135.654 E0.01282
G1 X158.859 Y127.919 E0.19955
G1 X159.562 Y127.919 E0.01282
G1 X167.297 Y135.654 E0.19955
G1 X168.000 Y135.654 E0.01282
G1 X160.265 Y127.919 E0.19955
G1 X160.967 Y127.919 E0.01282
G1 X168.703 Y135.654 E0.19955
G1 X169.405 Y135.654 E0.01282
G1 X161.670 Y127.919 E0.19955
G1 X162.373 Y127.919 E0.01282
G1 X170.108 Y135.654 E0.19955
G1 X170.811 Y135.654 E0.01282
G1 X163.076 Y127.919 E0.19955
G1 X163.778 Y127.919 E0.01282
G1 X171.513 Y135.654 E0.19955
G1 X172.216 Y135.654 E0.01282
G1 X164.481 Y127.919 E0.19955
G1 X165.184 Y127.919 E0.01282
G1 X172.919 Y135.654 E0.19955
G1 X173.621 Y135.654 E0.01282
G1 X165.886 Y127.919 E0.19955
G1 X166.589 Y127.919 E0.01282
G1 X174.324 Y135.654 E0.19955
G1 X175.027 Y135.654 E0.01282
G1 X167.292 Y127.919 E0.19955
G1 X167.994 Y127.919 E0.01282
G1 X175.729 Y135.654 E0.19955
G1 X176.432 Y135.654 E0.01282
G1 X168.697 Y127.919 E0.19955
G1 X169.400 Y127.919 E0.01282
G1 X177.135 Y135.654 E0.19955
G1 X177.837 Y135.654 E0.01282
G1 X170.102 Y127.919 E0.19955
G1 X170.805 Y127.919 E0.01282
G1 X178.540 Y135.654 E0.19955
G1 X179.243 Y135.654 E0.01282
G1 X171.508 Y127.919 E0.19955
G1 X172.210 Y127.919 E0.01282
G1 X179.946 Y135.654 E0.19955
G1 X180.648 Y135.654 E0.01282
G1 X172.913 Y127.919 E0.19955
G1 X173.616 Y127.919 E0.01282
G1 X181.351 Y135.654 E0.19955
G1 X182.054 Y135.654 E0.01282
G1 X174.319 Y127.919 E0.19955
G1 X175.021 Y127.919 E0.01282
G1 X182.756 Y135.654 E0.19955
G1 X183.459 Y135.654 E0.01282
G1 X175.724 Y127.919 E0.19955
G1 X176.427 Y127.919 E0.01282
G1 X184.162 Y135.654 E0.19955
G1 X184.864 Y135.654 E0.01282
G1 X177.129 Y127.919 E0.19955
G1 X177.832 Y127.919 E0.01282
G1 X185.567 Y135.654 E0.19955
G1 X186.270 Y135.654 E0.01282
G1 X178.535 Y127.919 E0.19955
G1 X179.237 Y127.919 E0.01282
G1 X186.972 Y135.654 E0.19955
G1 X187.675 Y135.654 E0.01282
G1 X179.940 Y127.919 E0.19955
G1 X180.643 Y127.919 E0.01282
G1 X188.378 Y135.654 E0.19955
G1 X189.080 Y135.654 E0.01282
G1 X181.345 Y127.919 E0.19955
G1 X182.048 Y127.919 E0.01282
G1 X189.783 Y135.654 E0.19955
G1 X190.486 Y135.654 E0.01282
G1 X182.751 Y127.919 E0.19955
G1 X183.453 Y127.919 E0.01282
G1 X190.731 Y135.196 E0.18774
