; generated by Slic3r 1.2.9 on 2015-09-12 at 15:08:51

; Layer Hight:                  from .15 to .2
; 1st Layer Hieght:          from .15 to .18
; 1st Layer Speed:           from 80% to 40mm
; Extrusion Multiplier     from  1 to .96

; external perimeters extrusion width = 0.45mm
; perimeters extrusion width = 0.50mm
; infill extrusion width = 0.50mm
; solid infill extrusion width = 0.65mm
; top infill extrusion width = 0.65mm

M201 X750 Y750 E100
G28 X10.0 Y10.0
G28 Z
G92 E0.0
G1 Y60.0 E2.0  F1000.0
G1 Y100.0 E4.5  F1000.0
G92 Z0.35
G92 E0.0
G21 ; set units to millimeters
G90 ; use absolute coordinates
M83 ; use relative distances for extrusion
M106 S255
G1 E-2.50000 F1200.00000
G1 Z0.240 F6000.000
G1 X95.946 Y96.765 F6000.000
G1 E2.50000 F1200.00000
G1 X97.698 Y95.293 E0.03214 F2400.000
G1 X99.847 Y94.508 E0.03214
G1 X101.000 Y94.406 E0.01626
G1 X111.000 Y94.406 E0.14045
G1 X113.253 Y94.803 E0.03214
G1 X115.235 Y95.946 E0.03214 F2400.000
G1 X116.707 Y97.698 E0.03214
G1 X117.492 Y99.847 E0.03214
G1 X117.594 Y101.000 E0.01626
G1 X117.594 Y111.000 E0.14045
G1 X117.197 Y113.253 E0.03214
G1 X116.054 Y115.235 E0.03214
G1 X114.302 Y116.707 E0.03214
G1 X112.153 Y117.492 E0.03214
G1 X111.000 Y117.594 E0.01626
G1 X101.000 Y117.594 E0.14045
G1 X98.747 Y117.197 E0.03214
G1 X96.765 Y116.054 E0.03214
G1 X95.293 Y114.302 E0.03214
G1 X94.508 Y112.153 E0.03214
G1 X94.406 Y111.000 E0.01626
G1 X94.406 Y101.000 E0.14045
G1 X94.803 Y98.747 E0.03214
G1 X95.916 Y96.817 E0.03129
G1 X96.273 Y97.030 F6000.000
G1 X96.341 Y96.916 E0.00186 F2400.000
G1 X98.077 Y95.537 E0.03114
G1 X101.000 Y94.805 E0.04232
G1 X111.000 Y94.805 E0.14045
G1 X113.182 Y95.201 E0.03114
G1 X115.084 Y96.341 E0.03114 F2400.000
G1 X116.463 Y98.077 E0.03114
G1 X117.195 Y101.000 E0.04232
G1 X117.195 Y111.000 E0.14045
G1 X116.799 Y113.182 E0.03114
G1 X115.659 Y115.084 E0.03114
G1 X113.923 Y116.463 E0.03114
G1 X111.000 Y117.195 E0.04232
G1 X101.000 Y117.195 E0.14045
G1 X98.818 Y116.799 E0.03114
G1 X96.916 Y115.659 E0.03114
G1 X95.537 Y113.923 E0.03114
G1 X94.805 Y111.000 E0.04232
G1 X94.805 Y101.000 E0.14045
G1 X95.201 Y98.818 E0.03114
G1 X96.242 Y97.082 E0.02844
G1 X96.593 Y97.301 F6000.000
G1 X96.735 Y97.074 E0.00376 F2400.000
G1 X98.454 Y95.792 E0.03012
G1 X101.000 Y95.203 E0.03671
G1 X111.000 Y95.203 E0.14045
G1 X113.107 Y95.600 E0.03012
G1 X114.926 Y96.735 E0.03012 F2400.000
G1 X116.208 Y98.454 E0.03012
G1 X116.797 Y101.000 E0.03671
G1 X116.797 Y111.000 E0.14045
G1 X116.400 Y113.107 E0.03012
G1 X115.265 Y114.926 E0.03012
G1 X113.546 Y116.208 E0.03012
G1 X111.000 Y116.797 E0.03671
G1 X101.000 Y116.797 E0.14045
G1 X98.893 Y116.400 E0.03012
G1 X97.074 Y115.265 E0.03012
G1 X95.792 Y113.546 E0.03012
G1 X95.203 Y111.000 E0.03671
G1 X95.203 Y101.000 E0.14045
G1 X95.600 Y98.893 E0.03012
G1 X96.561 Y97.352 E0.02551
G1 X96.907 Y97.577 F6000.000
G1 X97.129 Y97.238 E0.00570 F2400.000
G1 X98.828 Y96.058 E0.02905
G1 X101.000 Y95.602 E0.03118
G1 X111.000 Y95.602 E0.14045
G1 X113.030 Y95.998 E0.02905
G1 X114.762 Y97.129 E0.02905 F2400.000
G1 X115.942 Y98.828 E0.02905
G1 X116.398 Y101.000 E0.03118
G1 X116.398 Y111.000 E0.14045
G1 X116.002 Y113.030 E0.02905
G1 X114.871 Y114.762 E0.02905
G1 X113.172 Y115.942 E0.02905
G1 X111.000 Y116.398 E0.03118
G1 X101.000 Y116.398 E0.14045
G1 X98.970 Y116.002 E0.02905
G1 X97.238 Y114.871 E0.02905
G1 X96.058 Y113.172 E0.02905
G1 X95.602 Y111.000 E0.03118
G1 X95.602 Y101.000 E0.14045
G1 X95.998 Y98.970 E0.02905
G1 X96.874 Y97.628 E0.02251
G1 F4800
G1 X97.129 Y97.238 E-0.11059
G1 F4800
G1 X98.828 Y96.058 E-0.49127
G1 F4800
G1 X101.000 Y95.602 E-0.52721
G1 F4800
G1 X106.246 Y95.602 E-1.24593
G1 E-0.12500 F1200.00000
G1 X101.225 Y101.225 F6000.000
G1 E2.50000 F1200.00000
G1 X110.775 Y101.225 E0.13413 F2400.000
G1 X110.775 Y110.775 E0.13413
G1 X101.225 Y110.775 E0.13413 F2400.000
G1 X101.225 Y101.285 E0.13329
G1 X101.571 Y101.425 F6000.000
G1 X101.623 Y101.623 F6000.000
G1 X110.377 Y101.623 E0.12294 F2400.000
G1 X110.377 Y110.377 E0.12294
G1 X101.623 Y110.377 E0.12294 F2400.000
G1 X101.623 Y101.683 E0.12209
G1 F4800
G1 X110.377 Y101.623 E-2.07889
G1 F4800
G1 X110.377 Y102.870 E-0.29611
G1 E-0.12500 F1200.00000
G1 X109.978 Y105.014 F6000.000
G1 E2.50000 F1200.00000
G1 X109.978 Y109.978 E0.06972 F2400.000
G1 X102.022 Y109.978 E0.11174 F2400.000
G1 X102.022 Y102.022 E0.11174
G1 X109.978 Y102.022 E0.11174
G1 X109.978 Y104.954 E0.04118
G1 F4800
G1 X109.978 Y109.978 E-1.19316
G1 E-1.30684 F1200.00000
G1 X102.420 Y102.420 F6000.000
G1 E2.50000 F1200.00000
G1 X109.580 Y102.420 E0.10626 F2400.000
G1 X109.580 Y109.580 E0.10626
G1 X102.420 Y109.580 E0.10626
G1 X102.420 Y102.480 E0.10537
G1 X102.842 Y102.842 F6000.000
G1 X109.158 Y102.842 E0.09376 F2400.000
G1 X109.158 Y109.158 E0.09376
G1 X102.842 Y109.158 E0.09376
G1 X102.842 Y102.902 E0.09287
G1 X103.263 Y103.263 F6000.000
G1 X108.737 Y103.263 E0.08126 F2400.000
G1 X108.737 Y108.737 E0.08126
G1 X103.263 Y108.737 E0.08126
G1 X103.263 Y103.323 E0.08037
G1 X103.684 Y103.684 F6000.000
G1 X108.316 Y103.684 E0.06876 F2400.000
G1 X108.316 Y108.316 E0.06876
G1 X103.684 Y108.316 E0.06876
G1 X103.684 Y103.744 E0.06786
G1 X104.105 Y104.105 F6000.000
G1 X107.895 Y104.105 E0.05625 F2400.000
G1 X107.895 Y107.895 E0.05625
G1 X104.105 Y107.895 E0.05625
G1 X104.105 Y104.165 E0.05536
G1 X104.526 Y104.526 F6000.000
G1 X107.474 Y104.526 E0.04375 F2400.000
G1 X107.474 Y107.474 E0.04375
G1 X104.526 Y107.474 E0.04375
G1 X104.526 Y104.586 E0.04286
G1 X104.947 Y104.947 F6000.000
G1 X107.053 Y104.947 E0.03125 F2400.000
G1 X107.053 Y107.053 E0.03125
G1 X104.947 Y107.053 E0.03125
G1 X104.947 Y105.007 E0.03036
G1 X105.368 Y105.368 F6000.000
G1 X106.632 Y105.368 E0.01875 F2400.000
G1 X106.632 Y106.632 E0.01875
G1 X105.368 Y106.632 E0.01875
G1 X105.368 Y105.428 E0.01786
G1 X105.789 Y105.789 F6000.000
G1 X106.211 Y105.789 E0.00625 F2400.000
G1 X106.211 Y106.211 E0.00625
G1 X105.789 Y106.211 E0.00625
G1 X105.789 Y105.849 E0.00536
G1 F4800
G1 X105.789 Y106.211 E-0.08576
G1 F4800
G1 X106.211 Y106.211 E-0.10001
G1 F4800
G1 X106.211 Y105.789 E-0.10001
G1 F4800
G1 X105.789 Y105.789 E-0.10001
G1 E-2.11420 F1200.00000
G1 Z0.440 F6000.000
G1 X101.225 Y105.849 F6000.000
G1 E2.50000 F1200.00000
G1 X101.225 Y101.225 E0.05529 F1058.530
G1 X110.775 Y101.225 E0.11418
G1 X110.775 Y110.775 E0.11418
G1 X101.225 Y110.775 E0.11418 F1058.530
G1 X101.225 Y105.909 E0.05817
G1 X101.571 Y105.649 F6000.000
G1 X101.657 Y105.909 F6000.000
G1 X101.657 Y101.657 E0.05709 F1058.530
G1 X110.343 Y101.657 E0.11661
G1 X110.343 Y110.343 E0.11661
G1 X101.657 Y110.343 E0.11661 F1058.530
G1 X101.657 Y105.969 E0.05871
G1 F4800
G1 X101.657 Y101.657 E-1.02419
G1 F4800
G1 X107.345 Y101.657 E-1.35081
G1 E-0.12500 F1200.00000
G1 X105.459 Y102.114 F6000.000
G1 E2.50000 F1200.00000
G1 X109.886 Y102.114 E0.05943 F1058.530
G1 X109.886 Y109.886 E0.10433
G1 X102.114 Y109.886 E0.10433 F1058.530
G1 X102.114 Y102.114 E0.10433
G1 X105.399 Y102.114 E0.04409
G1 F4800
G1 X109.886 Y102.114 E-1.06572
G1 F4800
G1 X109.886 Y107.627 E-1.30928
G1 E-0.12500 F1200.00000
G1 X102.497 Y102.795 F6000.000
G1 E2.50000 F1200.00000
G1 X102.795 Y102.497 E0.00782 F1323.163
G1 X103.689 Y102.497 E0.01661
G1 X102.497 Y103.689 E0.03131
G1 X102.497 Y104.584 E0.01661
G1 X104.584 Y102.497 E0.05480
G1 X105.478 Y102.497 E0.01661
G1 X102.497 Y105.478 E0.07829
G1 X102.497 Y106.372 E0.01661
G1 X106.372 Y102.497 E0.10178
G1 X107.267 Y102.497 E0.01661
G1 X102.497 Y107.267 E0.12528
G1 X102.497 Y108.161 E0.01661
G1 X108.161 Y102.497 E0.14877
G1 X109.055 Y102.497 E0.01661
G1 X102.497 Y109.055 E0.17226
G1 X102.945 Y109.503 E0.01175
G1 X109.503 Y102.945 E0.17226
G1 X109.503 Y103.839 E0.01661
G1 X103.839 Y109.503 E0.14877
G1 X104.733 Y109.503 E0.01661
G1 X109.503 Y104.733 E0.12528
G1 X109.503 Y105.628 E0.01661
G1 X105.628 Y109.503 E0.10179
G1 X106.522 Y109.503 E0.01661
G1 X109.503 Y106.522 E0.07829
G1 X109.503 Y107.416 E0.01661
G1 X107.416 Y109.503 E0.05480
G1 X108.311 Y109.503 E0.01661
G1 X109.503 Y108.311 E0.03131
G1 X109.503 Y109.205 E0.01661
G1 X109.205 Y109.503 E0.00782
G1 F4800
G1 X109.503 Y109.205 E-0.09994
G1 F4800
G1 X109.503 Y108.311 E-0.21241
G1 F4800
G1 X108.311 Y109.503 E-0.40033
G1 F4800
G1 X107.416 Y109.503 E-0.21241
G1 F4800
G1 X109.503 Y107.416 E-0.70072
G1 F4800
G1 X109.503 Y106.522 E-0.21241
G1 F4800
G1 X107.904 Y108.120 E-0.53678
G1 E-0.12500 F1200.00000
G1 Z0.640 F6000.000
G1 X109.205 Y110.775 F6000.000
G1 E2.50000 F1200.00000
G1 X101.225 Y110.775 E0.09541 F1058.530
G1 X101.225 Y101.225 E0.11418
G1 X110.775 Y101.225 E0.11418
G1 X110.775 Y110.775 E0.11418
G1 X109.265 Y110.775 E0.01805 F1058.530
G1 X109.005 Y110.429 F6000.000
G1 X109.265 Y110.343 F6000.000
G1 X101.657 Y110.343 E0.10213 F1058.530
G1 X101.657 Y101.657 E0.11661
G1 X110.343 Y101.657 E0.11661
G1 X110.343 Y110.343 E0.11661
G1 X109.325 Y110.343 E0.01367 F1058.530
G1 F4800
G1 X101.657 Y110.343 E-1.82113
G1 F4800
G1 X101.657 Y108.011 E-0.55387
G1 E-0.12500 F1200.00000
G1 X109.886 Y106.055 F6000.000
G1 E2.50000 F1200.00000
G1 X109.886 Y109.886 E0.05143 F1058.530
G1 X102.114 Y109.886 E0.10433 F1058.530
G1 X102.114 Y102.114 E0.10433
G1 X109.886 Y102.114 E0.10433
G1 X109.886 Y105.995 E0.05210
G1 F4800
G1 X109.886 Y109.886 E-0.92404
G1 E-1.57596 F1200.00000
G1 X109.503 Y102.795 F6000.000
G1 E2.50000 F1200.00000
G1 X109.205 Y102.497 E0.00782 F1323.163
G1 X108.311 Y102.497 E0.01661
G1 X109.503 Y103.689 E0.03131
G1 X109.503 Y104.584 E0.01661
G1 X107.416 Y102.497 E0.05480
G1 X106.522 Y102.497 E0.01661
G1 X109.503 Y105.478 E0.07829
G1 X109.503 Y106.372 E0.01661
G1 X105.628 Y102.497 E0.10179
G1 X104.733 Y102.497 E0.01661
G1 X109.503 Y107.267 E0.12528
G1 X109.503 Y108.161 E0.01661
G1 X103.839 Y102.497 E0.14877
G1 X102.945 Y102.497 E0.01661
G1 X109.503 Y109.055 E0.17226
G1 X109.055 Y109.503 E0.01175
G1 X102.497 Y102.945 E0.17226
G1 X102.497 Y103.839 E0.01661
G1 X108.161 Y109.503 E0.14877
G1 X107.267 Y109.503 E0.01661
G1 X102.497 Y104.733 E0.12528
G1 X102.497 Y105.628 E0.01661
G1 X106.372 Y109.503 E0.10178
G1 X105.478 Y109.503 E0.01661
G1 X102.497 Y106.522 E0.07829
G1 X102.497 Y107.416 E0.01661
G1 X104.584 Y109.503 E0.05480
G1 X103.689 Y109.503 E0.01661
G1 X102.497 Y108.311 E0.03131
G1 X102.497 Y109.205 E0.01661
G1 X102.795 Y109.503 E0.00782
G1 F4800
G1 X102.497 Y109.205 E-0.09994
G1 F4800
G1 X102.497 Y108.311 E-0.21241
G1 F4800
G1 X103.689 Y109.503 E-0.40033
G1 F4800
G1 X104.584 Y109.503 E-0.21241
G1 F4800
G1 X102.497 Y107.416 E-0.70072
G1 F4800
G1 X102.497 Y106.522 E-0.21241
G1 F4800
G1 X104.096 Y108.120 E-0.53680
G1 E-0.12500 F1200.00000
G1 Z0.840 F6000.000
G1 X102.795 Y110.775 F6000.000
G1 E2.50000 F1200.00000
G1 X101.225 Y110.775 E0.01877 F1058.530
G1 X101.225 Y101.225 E0.11418
G1 X110.775 Y101.225 E0.11418
G1 X110.775 Y110.775 E0.11418
G1 X102.855 Y110.775 E0.09469 F1058.530
G1 X102.595 Y110.429 F6000.000
G1 X102.855 Y110.343 F6000.000
G1 X101.657 Y110.343 E0.01608 F1058.530
G1 X101.657 Y101.657 E0.11661
G1 X110.343 Y101.657 E0.11661
G1 X110.343 Y110.343 E0.11661
G1 X102.915 Y110.343 E0.09972 F1058.530
G1 F4800
G1 X101.657 Y110.343 E-0.29875
G1 F4800
G1 X101.657 Y101.657 E-2.06289
G1 F4800
G1 X101.713 Y101.657 E-0.01336
G1 E-0.12500 F1200.00000
G1 X107.061 Y109.886 F6000.000
G1 E2.50000 F1200.00000
G1 X102.114 Y109.886 E0.06641 F1058.530
G1 X102.114 Y102.114 E0.10433
G1 X109.886 Y102.114 E0.10433
G1 X109.886 Y109.886 E0.10433
G1 X107.121 Y109.886 E0.03712 F1058.530
G1 F4800
G1 X102.114 Y109.886 E-1.18908
G1 F4800
G1 X102.114 Y104.892 E-1.18592
G1 E-0.12500 F1200.00000
G1 X109.205 Y109.503 F6000.000
G1 E2.50000 F1200.00000
G1 X109.503 Y109.205 E0.00782 F1323.163
G1 X109.503 Y108.311 E0.01661
G1 X108.311 Y109.503 E0.03131
G1 X107.416 Y109.503 E0.01661
G1 X109.503 Y107.416 E0.05480
G1 X109.503 Y106.522 E0.01661
G1 X106.522 Y109.503 E0.07829
G1 X105.628 Y109.503 E0.01661
G1 X109.503 Y105.628 E0.10179
G1 X109.503 Y104.733 E0.01661
G1 X104.733 Y109.503 E0.12528
G1 X103.839 Y109.503 E0.01661
G1 X109.503 Y103.839 E0.14877
G1 X109.503 Y102.945 E0.01661
G1 X102.945 Y109.503 E0.17226
G1 X102.497 Y109.055 E0.01175
G1 X109.055 Y102.497 E0.17226
G1 X108.161 Y102.497 E0.01661
G1 X102.497 Y108.161 E0.14877
G1 X102.497 Y107.267 E0.01661
G1 X107.267 Y102.497 E0.12528
G1 X106.372 Y102.497 E0.01661
G1 X102.497 Y106.372 E0.10178
G1 X102.497 Y105.478 E0.01661
G1 X105.478 Y102.497 E0.07829
G1 X104.584 Y102.497 E0.01661
G1 X102.497 Y104.584 E0.05480
G1 X102.497 Y103.689 E0.01661
G1 X103.689 Y102.497 E0.03131
G1 X102.795 Y102.497 E0.01661
G1 X102.497 Y102.795 E0.00782
G1 F4800
G1 X102.795 Y102.497 E-0.09994
G1 F4800
G1 X103.689 Y102.497 E-0.21241
G1 F4800
G1 X102.497 Y103.689 E-0.40033
G1 F4800
G1 X102.497 Y104.584 E-0.21241
G1 F4800
G1 X104.584 Y102.497 E-0.70072
G1 F4800
G1 X105.478 Y102.497 E-0.21241
G1 F4800
G1 X103.880 Y104.096 E-0.53680
G1 E-0.12500 F1200.00000
G1 Z1.040 F6000.000
G1 X101.225 Y102.795 F6000.000
G1 E2.50000 F1200.00000
G1 X101.225 Y101.225 E0.01877 F1058.530
G1 X110.775 Y101.225 E0.11418
G1 X110.775 Y110.775 E0.11418
G1 X101.225 Y110.775 E0.11418 F1058.530
G1 X101.225 Y102.855 E0.09469
G1 X101.571 Y102.595 F6000.000
G1 X101.657 Y102.855 F6000.000
G1 X101.657 Y101.657 E0.01608 F1058.530
G1 X110.343 Y101.657 E0.11661
G1 X110.343 Y110.343 E0.11661
G1 X101.657 Y110.343 E0.11661 F1058.530
G1 X101.657 Y102.915 E0.09972
G1 F4800
G1 X101.657 Y101.657 E-0.29875
G1 F4800
G1 X110.343 Y101.657 E-2.06289
G1 F4800
G1 X110.343 Y101.713 E-0.01336
G1 E-0.12500 F1200.00000
G1 X105.639 Y102.114 F6000.000
G1 E2.50000 F1200.00000
G1 X109.886 Y102.114 E0.05701 F1058.530
G1 X109.886 Y109.886 E0.10433
G1 X102.114 Y109.886 E0.10433 F1058.530
G1 X102.114 Y102.114 E0.10433
G1 X105.579 Y102.114 E0.04652
G1 F4800
G1 X109.886 Y102.114 E-1.02284
G1 F4800
G1 X109.886 Y107.807 E-1.35216
G1 E-0.12500 F1200.00000
G1 X109.503 Y102.795 F6000.000
G1 E2.50000 F1200.00000
G1 X109.205 Y102.497 E0.00782 F1323.163
G1 X108.311 Y102.497 E0.01661
G1 X109.503 Y103.689 E0.03131
G1 X109.503 Y104.584 E0.01661
G1 X107.416 Y102.497 E0.05480
G1 X106.522 Y102.497 E0.01661
G1 X109.503 Y105.478 E0.07829
G1 X109.503 Y106.372 E0.01661
G1 X105.628 Y102.497 E0.10179
G1 X104.733 Y102.497 E0.01661
G1 X109.503 Y107.267 E0.12528
G1 X109.503 Y108.161 E0.01661
G1 X103.839 Y102.497 E0.14877
G1 X102.945 Y102.497 E0.01661
G1 X109.503 Y109.055 E0.17226
G1 X109.055 Y109.503 E0.01175
G1 X102.497 Y102.945 E0.17226
G1 X102.497 Y103.839 E0.01661
G1 X108.161 Y109.503 E0.14877
G1 X107.267 Y109.503 E0.01661
G1 X102.497 Y104.733 E0.12528
G1 X102.497 Y105.628 E0.01661
G1 X106.372 Y109.503 E0.10178
G1 X105.478 Y109.503 E0.01661
G1 X102.497 Y106.522 E0.07829
G1 X102.497 Y107.416 E0.01661
G1 X104.584 Y109.503 E0.05480
G1 X103.689 Y109.503 E0.01661
G1 X102.497 Y108.311 E0.03131
G1 X102.497 Y109.205 E0.01661
G1 X102.795 Y109.503 E0.00782
G1 F4800
G1 X102.497 Y109.205 E-0.09994
G1 F4800
G1 X102.497 Y108.311 E-0.21241
G1 F4800
G1 X103.689 Y109.503 E-0.40033
G1 F4800
G1 X104.584 Y109.503 E-0.21241
G1 F4800
G1 X102.497 Y107.416 E-0.70072
G1 F4800
G1 X102.497 Y106.522 E-0.21241
G1 F4800
G1 X104.096 Y108.120 E-0.53680
G1 E-0.12500 F1200.00000
G1 Z1.240 F6000.000
G1 X102.795 Y110.775 F6000.000
G1 E2.50000 F1200.00000
G1 X101.225 Y110.775 E0.01877 F1182.566
G1 X101.225 Y101.225 E0.11418
G1 X110.775 Y101.225 E0.11418
G1 X110.775 Y110.775 E0.11418
G1 X102.855 Y110.775 E0.09469 F1182.566
G1 X102.595 Y110.429 F6000.000
G1 X102.855 Y110.343 F6000.000
G1 X101.657 Y110.343 E0.01608 F1182.566
G1 X101.657 Y101.657 E0.11661
G1 X110.343 Y101.657 E0.11661
G1 X110.343 Y110.343 E0.11661
G1 X102.915 Y110.343 E0.09972 F1182.566
G1 F4800
G1 X101.657 Y110.343 E-0.29875
G1 F4800
G1 X101.657 Y101.657 E-2.06289
G1 F4800
G1 X101.713 Y101.657 E-0.01336
G1 E-0.12500 F1200.00000
G1 X102.114 Y104.577 F6000.000
G1 E2.50000 F1200.00000
G1 X102.114 Y102.114 E0.03307 F1182.566
G1 X109.886 Y102.114 E0.10433
G1 X109.886 Y109.886 E0.10433
G1 X102.114 Y109.886 E0.10433 F1182.566
G1 X102.114 Y104.637 E0.07046
G1 F4800
G1 X102.114 Y102.114 E-0.59922
G1 F4800
G1 X109.591 Y102.114 E-1.77578
G1 E-0.12500 F1200.00000
G1 X102.571 Y102.571 F6000.000
G1 E2.50000 F1200.00000
