; generated by Slic3r 1.2.9 on 2015-09-16 at 10:19:41

; external perimeters extrusion width = 0.55mm
; perimeters extrusion width = 0.60mm
; infill extrusion width = 0.60mm
; solid infill extrusion width = 0.65mm
; top infill extrusion width = 0.65mm

M201 X750 Y750 E100
G28 X10.0 Y10.0
G28 Z
G92 E0.0
G1 Y60.0 E2.0  F1000.0
G1 Y100.0 E4.5  F1000.0
G92 Z0.35
G92 E0.0
G21 ; set units to millimeters
G90 ; use absolute coordinates
M83 ; use relative distances for extrusion
G1 E-2.50000 F1200.00000
G1 Z0.250 F6000.000
G1 X20.669 Y93.577 F6000.000
G1 E2.50000 F1200.00000
G1 X21.000 Y93.504 E0.00617 F2400.000
G1 X191.000 Y93.504 E3.09786
G1 X192.343 Y93.896 E0.02549
G1 X193.264 Y94.948 E0.02549 F2400.000
G1 X193.496 Y96.000 E0.01962
G1 X193.496 Y106.000 E0.18223
G1 X193.104 Y107.343 E0.02549
G1 X192.052 Y108.264 E0.02549
G1 X191.000 Y108.496 E0.01962
G1 X21.000 Y108.496 E3.09786
G1 X19.657 Y108.104 E0.02549
G1 X18.736 Y107.051 E0.02549
G1 X18.504 Y106.000 E0.01962
G1 X18.504 Y96.000 E0.18223
G1 X18.896 Y94.657 E0.02549
G1 X19.948 Y93.736 E0.02549
G1 X20.611 Y93.590 E0.01236
G1 F4800
G1 X21.000 Y93.504 E-0.09465
G1 F4800
G1 X30.601 Y93.504 E-2.28035
G1 E-0.12500 F1200.00000
G1 X21.275 Y96.275 F6000.000
G1 E2.50000 F1200.00000
G1 X190.725 Y96.275 E3.08784 F1920.000
G1 X190.725 Y105.725 E0.17220
G1 X21.275 Y105.725 E3.08784 F1920.000
G1 X21.275 Y96.335 E0.17111
G1 X21.621 Y96.475 F6000.000
G1 F4800
G1 X31.275 Y96.331 E-2.37500
G1 E-0.12500 F1200.00000
G1 X106.242 Y105.229 F6000.000
G1 E2.50000 F1200.00000
G1 X21.771 Y105.229 E1.53929 F1920.000
G1 X21.771 Y96.771 E0.15412
G1 X190.229 Y96.771 E3.06975
G1 X190.229 Y105.229 E0.15412
G1 X106.302 Y105.229 E1.52937 F1920.000
G1 F4800
G1 X96.302 Y105.229 E-2.37500
G1 E-0.12500 F1200.00000
G1 X189.868 Y97.383 F6000.000
G1 E2.50000 F1200.00000
G1 X189.617 Y97.132 E0.00646 F1920.000
G1 X188.914 Y97.132 E0.01282
G1 X189.868 Y98.086 E0.02459
G1 X189.868 Y98.788 E0.01282
G1 X188.212 Y97.132 E0.04272
G1 X187.509 Y97.132 E0.01282
G1 X189.868 Y99.491 E0.06085
G1 X189.868 Y100.194 E0.01282
G1 X186.806 Y97.132 E0.07898
G1 X186.104 Y97.132 E0.01282
G1 X189.868 Y100.896 E0.09710
G1 X189.868 Y101.599 E0.01282
G1 X185.401 Y97.132 E0.11523
G1 X184.698 Y97.132 E0.01282
G1 X189.868 Y102.302 E0.13336
G1 X189.868 Y103.005 E0.01282
G1 X183.995 Y97.132 E0.15149
G1 X183.293 Y97.132 E0.01282
G1 X189.868 Y103.707 E0.16962
G1 X189.868 Y104.410 E0.01282
G1 X182.590 Y97.132 E0.18774
G1 X181.887 Y97.132 E0.01282
G1 X189.622 Y104.868 E0.19955
G1 X188.920 Y104.868 E0.01282
G1 X181.185 Y97.132 E0.19955
G1 X180.482 Y97.132 E0.01282
G1 X188.217 Y104.868 E0.19955
G1 X187.514 Y104.868 E0.01282
G1 X179.779 Y97.132 E0.19955
G1 X179.077 Y97.132 E0.01282
G1 X186.812 Y104.868 E0.19955
G1 X186.109 Y104.868 E0.01282
G1 X178.374 Y97.132 E0.19955
G1 X177.671 Y97.132 E0.01282
G1 X185.406 Y104.868 E0.19955
G1 X184.704 Y104.868 E0.01282
G1 X176.969 Y97.132 E0.19955
G1 X176.266 Y97.132 E0.01282
G1 X184.001 Y104.868 E0.19955
G1 X183.298 Y104.868 E0.01282
G1 X175.563 Y97.132 E0.19955
G1 X174.861 Y97.132 E0.01282
G1 X182.596 Y104.868 E0.19955
G1 X181.893 Y104.868 E0.01282
G1 X174.158 Y97.132 E0.19955
G1 X173.455 Y97.132 E0.01282
G1 X181.190 Y104.868 E0.19955
G1 X180.488 Y104.868 E0.01282
G1 X172.752 Y97.132 E0.19955
G1 X172.050 Y97.132 E0.01282
G1 X179.785 Y104.868 E0.19955
G1 X179.082 Y104.868 E0.01282
G1 X171.347 Y97.132 E0.19955
G1 X170.644 Y97.132 E0.01282
G1 X178.379 Y104.868 E0.19955
G1 X177.677 Y104.868 E0.01282
G1 X169.942 Y97.132 E0.19955
G1 X169.239 Y97.132 E0.01282
G1 X176.974 Y104.868 E0.19955
G1 X176.271 Y104.868 E0.01282
G1 X168.536 Y97.132 E0.19955
G1 X167.834 Y97.132 E0.01282
G1 X175.569 Y104.868 E0.19955
G1 X174.866 Y104.868 E0.01282
G1 X167.131 Y97.132 E0.19955
G1 X166.428 Y97.132 E0.01282
G1 X174.163 Y104.868 E0.19955
G1 X173.461 Y104.868 E0.01282
G1 X165.726 Y97.132 E0.19955
G1 X165.023 Y97.132 E0.01282
G1 X172.758 Y104.868 E0.19955
G1 X172.055 Y104.868 E0.01282
G1 X164.320 Y97.132 E0.19955
G1 X163.618 Y97.132 E0.01282
G1 X171.353 Y104.868 E0.19955
G1 X170.650 Y104.868 E0.01282
G1 X162.915 Y97.132 E0.19955
G1 X162.212 Y97.132 E0.01282
G1 X169.947 Y104.868 E0.19955
G1 X169.245 Y104.868 E0.01282
G1 X161.509 Y97.132 E0.19955
G1 X160.807 Y97.132 E0.01282
G1 X168.542 Y104.868 E0.19955
G1 X167.839 Y104.868 E0.01282
G1 X160.104 Y97.132 E0.19955
G1 X159.401 Y97.132 E0.01282
G1 X167.136 Y104.868 E0.19955
G1 X166.434 Y104.868 E0.01282
G1 X158.699 Y97.132 E0.19955
G1 X157.996 Y97.132 E0.01282
G1 X165.731 Y104.868 E0.19955
G1 X165.028 Y104.868 E0.01282
G1 X157.293 Y97.132 E0.19955
G1 X156.591 Y97.132 E0.01282
G1 X164.326 Y104.868 E0.19955
G1 X163.623 Y104.868 E0.01282
G1 X155.888 Y97.132 E0.19955
G1 X155.185 Y97.132 E0.01282
G1 X162.920 Y104.868 E0.19955
G1 X162.218 Y104.868 E0.01282
G1 X154.483 Y97.132 E0.19955
G1 X153.780 Y97.132 E0.01282
G1 X161.515 Y104.868 E0.19955
G1 X160.812 Y104.868 E0.01282
G1 X153.077 Y97.132 E0.19955
G1 X152.375 Y97.132 E0.01282
G1 X160.110 Y104.868 E0.19955
G1 X159.407 Y104.868 E0.01282
G1 X151.672 Y97.132 E0.19955
G1 X150.969 Y97.132 E0.01282
G1 X158.704 Y104.868 E0.19955
G1 X158.002 Y104.868 E0.01282
G1 X150.266 Y97.132 E0.19955
G1 X149.564 Y97.132 E0.01282
G1 X157.299 Y104.868 E0.19955
G1 X156.596 Y104.868 E0.01282
G1 X148.861 Y97.132 E0.19955
G1 X148.158 Y97.132 E0.01282
G1 X155.893 Y104.868 E0.19955
G1 X155.191 Y104.868 E0.01282
G1 X147.456 Y97.132 E0.19955
G1 X146.753 Y97.132 E0.01282
G1 X154.488 Y104.868 E0.19955
G1 X153.785 Y104.868 E0.01282
G1 X146.050 Y97.132 E0.19955
G1 X145.348 Y97.132 E0.01282
G1 X153.083 Y104.868 E0.19955
G1 X152.380 Y104.868 E0.01282
G1 X144.645 Y97.132 E0.19955
G1 X143.942 Y97.132 E0.01282
G1 X151.677 Y104.868 E0.19955
G1 X150.975 Y104.868 E0.01282
G1 X143.240 Y97.132 E0.19955
G1 X142.537 Y97.132 E0.01282
G1 X150.272 Y104.868 E0.19955
G1 X149.569 Y104.868 E0.01282
G1 X141.834 Y97.132 E0.19955
G1 X141.132 Y97.132 E0.01282
G1 X148.867 Y104.868 E0.19955
G1 X148.164 Y104.868 E0.01282
G1 X140.429 Y97.132 E0.19955
G1 X139.726 Y97.132 E0.01282
G1 X147.461 Y104.868 E0.19955
G1 X146.759 Y104.868 E0.01282
G1 X139.023 Y97.132 E0.19955
G1 X138.321 Y97.132 E0.01282
G1 X146.056 Y104.868 E0.19955
G1 X145.353 Y104.868 E0.01282
G1 X137.618 Y97.132 E0.19955
G1 X136.915 Y97.132 E0.01282
G1 X144.650 Y104.868 E0.19955
G1 X143.948 Y104.868 E0.01282
G1 X136.213 Y97.132 E0.19955
G1 X135.510 Y97.132 E0.01282
G1 X143.245 Y104.868 E0.19955
G1 X142.542 Y104.868 E0.01282
G1 X134.807 Y97.132 E0.19955
G1 X134.105 Y97.132 E0.01282
G1 X141.840 Y104.868 E0.19955
G1 X141.137 Y104.868 E0.01282
G1 X133.402 Y97.132 E0.19955
G1 X132.699 Y97.132 E0.01282
G1 X140.434 Y104.868 E0.19955
G1 X139.732 Y104.868 E0.01282
G1 X131.997 Y97.132 E0.19955
G1 X131.294 Y97.132 E0.01282
G1 X139.029 Y104.868 E0.19955
G1 X138.326 Y104.868 E0.01282
G1 X130.591 Y97.132 E0.19955
G1 X129.889 Y97.132 E0.01282
G1 X137.624 Y104.868 E0.19955
G1 X136.921 Y104.868 E0.01282
G1 X129.186 Y97.132 E0.19955
G1 X128.483 Y97.132 E0.01282
G1 X136.218 Y104.868 E0.19955
G1 X135.516 Y104.868 E0.01282
G1 X127.780 Y97.132 E0.19955
G1 X127.078 Y97.132 E0.01282
G1 X134.813 Y104.868 E0.19955
G1 X134.110 Y104.868 E0.01282
G1 X126.375 Y97.132 E0.19955
G1 X125.672 Y97.132 E0.01282
G1 X133.407 Y104.868 E0.19955
G1 X132.705 Y104.868 E0.01282
G1 X124.970 Y97.132 E0.19955
G1 X124.267 Y97.132 E0.01282
G1 X132.002 Y104.868 E0.19955
G1 X131.299 Y104.868 E0.01282
G1 X123.564 Y97.132 E0.19955
G1 X122.862 Y97.132 E0.01282
G1 X130.597 Y104.868 E0.19955
G1 X129.894 Y104.868 E0.01282
G1 X122.159 Y97.132 E0.19955
G1 X121.456 Y97.132 E0.01282
G1 X129.191 Y104.868 E0.19955
G1 X128.489 Y104.868 E0.01282
G1 X120.754 Y97.132 E0.19955
G1 X120.051 Y97.132 E0.01282
G1 X127.786 Y104.868 E0.19955
G1 X127.083 Y104.868 E0.01282
G1 X119.348 Y97.132 E0.19955
G1 X118.646 Y97.132 E0.01282
G1 X126.381 Y104.868 E0.19955
G1 X125.678 Y104.868 E0.01282
G1 X117.943 Y97.132 E0.19955
G1 X117.240 Y97.132 E0.01282
G1 X124.975 Y104.868 E0.19955
G1 X124.273 Y104.868 E0.01282
G1 X116.537 Y97.132 E0.19955
G1 X115.835 Y97.132 E0.01282
G1 X123.570 Y104.868 E0.19955
G1 X122.867 Y104.868 E0.01282
G1 X115.132 Y97.132 E0.19955
G1 X114.429 Y97.132 E0.01282
G1 X122.164 Y104.868 E0.19955
G1 X121.462 Y104.868 E0.01282
G1 X113.727 Y97.132 E0.19955
G1 X113.024 Y97.132 E0.01282
G1 X120.759 Y104.868 E0.19955
G1 X120.056 Y104.868 E0.01282
G1 X112.321 Y97.132 E0.19955
G1 X111.619 Y97.132 E0.01282
G1 X119.354 Y104.868 E0.19955
G1 X118.651 Y104.868 E0.01282
G1 X110.916 Y97.132 E0.19955
G1 X110.213 Y97.132 E0.01282
G1 X117.948 Y104.868 E0.19955
G1 X117.246 Y104.868 E0.01282
G1 X109.511 Y97.132 E0.19955
G1 X108.808 Y97.132 E0.01282
G1 X116.543 Y104.868 E0.19955
G1 X115.840 Y104.868 E0.01282
G1 X108.105 Y97.132 E0.19955
G1 X107.403 Y97.132 E0.01282
G1 X115.138 Y104.868 E0.19955
G1 X114.435 Y104.868 E0.01282
G1 X106.700 Y97.132 E0.19955
G1 X105.997 Y97.132 E0.01282
G1 X113.732 Y104.868 E0.19955
G1 X113.030 Y104.868 E0.01282
G1 X105.294 Y97.132 E0.19955
G1 X104.592 Y97.132 E0.01282
G1 X112.327 Y104.868 E0.19955
G1 X111.624 Y104.868 E0.01282
G1 X103.889 Y97.132 E0.19955
G1 X103.186 Y97.132 E0.01282
G1 X110.921 Y104.868 E0.19955
G1 X110.219 Y104.868 E0.01282
G1 X102.484 Y97.132 E0.19955
G1 X101.781 Y97.132 E0.01282
G1 X109.516 Y104.868 E0.19955
G1 X108.813 Y104.868 E0.01282
G1 X101.078 Y97.132 E0.19955
G1 X100.376 Y97.132 E0.01282
G1 X108.111 Y104.868 E0.19955
G1 X107.408 Y104.868 E0.01282
G1 X99.673 Y97.132 E0.19955
G1 X98.970 Y97.132 E0.01282
G1 X106.705 Y104.868 E0.19955
G1 X106.003 Y104.868 E0.01282
G1 X98.268 Y97.132 E0.19955
G1 X97.565 Y97.132 E0.01282
G1 X105.300 Y104.868 E0.19955
G1 X104.597 Y104.868 E0.01282
G1 X96.862 Y97.132 E0.19955
G1 X96.160 Y97.132 E0.01282
G1 X103.895 Y104.868 E0.19955
G1 X103.192 Y104.868 E0.01282
G1 X95.457 Y97.132 E0.19955
G1 X94.754 Y97.132 E0.01282
G1 X102.489 Y104.868 E0.19955
G1 X101.787 Y104.868 E0.01282
G1 X94.051 Y97.132 E0.19955
G1 X93.349 Y97.132 E0.01282
G1 X101.084 Y104.868 E0.19955
G1 X100.381 Y104.868 E0.01282
G1 X92.646 Y97.132 E0.19955
G1 X91.943 Y97.132 E0.01282
G1 X99.678 Y104.868 E0.19955
G1 X98.976 Y104.868 E0.01282
G1 X91.241 Y97.132 E0.19955
G1 X90.538 Y97.132 E0.01282
G1 X98.273 Y104.868 E0.19955
G1 X97.570 Y104.868 E0.01282
G1 X89.835 Y97.132 E0.19955
G1 X89.133 Y97.132 E0.01282
G1 X96.868 Y104.868 E0.19955
G1 X96.165 Y104.868 E0.01282
G1 X88.430 Y97.132 E0.19955
G1 X87.727 Y97.132 E0.01282
G1 X95.462 Y104.868 E0.19955
G1 X94.760 Y104.868 E0.01282
G1 X87.025 Y97.132 E0.19955
G1 X86.322 Y97.132 E0.01282
G1 X94.057 Y104.868 E0.19955
G1 X93.354 Y104.868 E0.01282
G1 X85.619 Y97.132 E0.19955
G1 X84.917 Y97.132 E0.01282
G1 X92.652 Y104.868 E0.19955
G1 X91.949 Y104.868 E0.01282
G1 X84.214 Y97.132 E0.19955
G1 X83.511 Y97.132 E0.01282
G1 X91.246 Y104.868 E0.19955
G1 X90.544 Y104.868 E0.01282
G1 X82.808 Y97.132 E0.19955
G1 X82.106 Y97.132 E0.01282
G1 X89.841 Y104.868 E0.19955
G1 X89.138 Y104.868 E0.01282
G1 X81.403 Y97.132 E0.19955
G1 X80.700 Y97.132 E0.01282
G1 X88.435 Y104.868 E0.19955
G1 X87.733 Y104.868 E0.01282
G1 X79.998 Y97.132 E0.19955
G1 X79.295 Y97.132 E0.01282
G1 X87.030 Y104.868 E0.19955
G1 X86.327 Y104.868 E0.01282
G1 X78.592 Y97.132 E0.19955
G1 X77.890 Y97.132 E0.01282
G1 X85.625 Y104.868 E0.19955
G1 X84.922 Y104.868 E0.01282
G1 X77.187 Y97.132 E0.19955
G1 X76.484 Y97.132 E0.01282
G1 X84.219 Y104.868 E0.19955
G1 X83.517 Y104.868 E0.01282
G1 X75.782 Y97.132 E0.19955
G1 X75.079 Y97.132 E0.01282
G1 X82.814 Y104.868 E0.19955
G1 X82.111 Y104.868 E0.01282
G1 X74.376 Y97.132 E0.19955
G1 X73.674 Y97.132 E0.01282
G1 X81.409 Y104.868 E0.19955
G1 X80.706 Y104.868 E0.01282
G1 X72.971 Y97.132 E0.19955
G1 X72.268 Y97.132 E0.01282
G1 X80.003 Y104.868 E0.19955
G1 X79.301 Y104.868 E0.01282
G1 X71.565 Y97.132 E0.19955
G1 X70.863 Y97.132 E0.01282
G1 X78.598 Y104.868 E0.19955
G1 X77.895 Y104.868 E0.01282
G1 X70.160 Y97.132 E0.19955
G1 X69.457 Y97.132 E0.01282
G1 X77.192 Y104.868 E0.19955
G1 X76.490 Y104.868 E0.01282
G1 X68.755 Y97.132 E0.19955
G1 X68.052 Y97.132 E0.01282
G1 X75.787 Y104.868 E0.19955
G1 X75.084 Y104.868 E0.01282
G1 X67.349 Y97.132 E0.19955
G1 X66.647 Y97.132 E0.01282
G1 X74.382 Y104.868 E0.19955
G1 X73.679 Y104.868 E0.01282
G1 X65.944 Y97.132 E0.19955
G1 X65.241 Y97.132 E0.01282
G1 X72.976 Y104.868 E0.19955
G1 X72.274 Y104.868 E0.01282
G1 X64.539 Y97.132 E0.19955
G1 X63.836 Y97.132 E0.01282
G1 X71.571 Y104.868 E0.19955
G1 X70.868 Y104.868 E0.01282
G1 X63.133 Y97.132 E0.19955
G1 X62.431 Y97.132 E0.01282
G1 X70.166 Y104.868 E0.19955
G1 X69.463 Y104.868 E0.01282
G1 X61.728 Y97.132 E0.19955
G1 X61.025 Y97.132 E0.01282
G1 X68.760 Y104.868 E0.19955
G1 X68.058 Y104.868 E0.01282
G1 X60.322 Y97.132 E0.19955
G1 X59.620 Y97.132 E0.01282
G1 X67.355 Y104.868 E0.19955
G1 X66.652 Y104.868 E0.01282
G1 X58.917 Y97.132 E0.19955
G1 X58.214 Y97.132 E0.01282
G1 X65.949 Y104.868 E0.19955
G1 X65.247 Y104.868 E0.01282
G1 X57.512 Y97.132 E0.19955
G1 X56.809 Y97.132 E0.01282
G1 X64.544 Y104.868 E0.19955
G1 X63.841 Y104.868 E0.01282
G1 X56.106 Y97.132 E0.19955
G1 X55.404 Y97.132 E0.01282
G1 X63.139 Y104.868 E0.19955
G1 X62.436 Y104.868 E0.01282
G1 X54.701 Y97.132 E0.19955
G1 X53.998 Y97.132 E0.01282
G1 X61.733 Y104.868 E0.19955
G1 X61.031 Y104.868 E0.01282
G1 X53.296 Y97.132 E0.19955
G1 X52.593 Y97.132 E0.01282
G1 X60.328 Y104.868 E0.19955
G1 X59.625 Y104.868 E0.01282
G1 X51.890 Y97.132 E0.19955
G1 X51.188 Y97.132 E0.01282
G1 X58.923 Y104.868 E0.19955
G1 X58.220 Y104.868 E0.01282
G1 X50.485 Y97.132 E0.19955
G1 X49.782 Y97.132 E0.01282
G1 X57.517 Y104.868 E0.19955
G1 X56.815 Y104.868 E0.01282
G1 X49.079 Y97.132 E0.19955
G1 X48.377 Y97.132 E0.01282
G1 X56.112 Y104.868 E0.19955
G1 X55.409 Y104.868 E0.01282
G1 X47.674 Y97.132 E0.19955
G1 X46.971 Y97.132 E0.01282
G1 X54.706 Y104.868 E0.19955
G1 X54.004 Y104.868 E0.01282
G1 X46.269 Y97.132 E0.19955
G1 X45.566 Y97.132 E0.01282
G1 X53.301 Y104.868 E0.19955
G1 X52.598 Y104.868 E0.01282
G1 X44.863 Y97.132 E0.19955
G1 X44.161 Y97.132 E0.01282
G1 X51.896 Y104.868 E0.19955
G1 X51.193 Y104.868 E0.01282
G1 X43.458 Y97.132 E0.19955
G1 X42.755 Y97.132 E0.01282
G1 X50.490 Y104.868 E0.19955
G1 X49.788 Y104.868 E0.01282
G1 X42.053 Y97.132 E0.19955
G1 X41.350 Y97.132 E0.01282
G1 X49.085 Y104.868 E0.19955
G1 X48.382 Y104.868 E0.01282
G1 X40.647 Y97.132 E0.19955
G1 X39.945 Y97.132 E0.01282
G1 X47.680 Y104.868 E0.19955
G1 X46.977 Y104.868 E0.01282
G1 X39.242 Y97.132 E0.19955
G1 X38.539 Y97.132 E0.01282
G1 X46.274 Y104.868 E0.19955
G1 X45.572 Y104.868 E0.01282
G1 X37.836 Y97.132 E0.19955
G1 X37.134 Y97.132 E0.01282
G1 X44.869 Y104.868 E0.19955
G1 X44.166 Y104.868 E0.01282
G1 X36.431 Y97.132 E0.19955
G1 X35.728 Y97.132 E0.01282
G1 X43.463 Y104.868 E0.19955
G1 X42.761 Y104.868 E0.01282
G1 X35.026 Y97.132 E0.19955
G1 X34.323 Y97.132 E0.01282
G1 X42.058 Y104.868 E0.19955
G1 X41.355 Y104.868 E0.01282
G1 X33.620 Y97.132 E0.19955
G1 X32.918 Y97.132 E0.01282
G1 X40.653 Y104.868 E0.19955
G1 X39.950 Y104.868 E0.01282
G1 X32.215 Y97.132 E0.19955
G1 X31.512 Y97.132 E0.01282
G1 X39.247 Y104.868 E0.19955
G1 X38.545 Y104.868 E0.01282
G1 X30.810 Y97.132 E0.19955
G1 X30.107 Y97.132 E0.01282
G1 X37.842 Y104.868 E0.19955
G1 X37.139 Y104.868 E0.01282
G1 X29.404 Y97.132 E0.19955
G1 X28.702 Y97.132 E0.01282
G1 X36.437 Y104.868 E0.19955
G1 X35.734 Y104.868 E0.01282
G1 X27.999 Y97.132 E0.19955
G1 X27.296 Y97.132 E0.01282
G1 X35.031 Y104.868 E0.19955
G1 X34.329 Y104.868 E0.01282
G1 X26.593 Y97.132 E0.19955
G1 X25.891 Y97.132 E0.01282
G1 X33.626 Y104.868 E0.19955
G1 X32.923 Y104.868 E0.01282
G1 X25.188 Y97.132 E0.19955
G1 X24.485 Y97.132 E0.01282
G1 X32.220 Y104.868 E0.19955
G1 X31.518 Y104.868 E0.01282
G1 X23.783 Y97.132 E0.19955
G1 X23.080 Y97.132 E0.01282
G1 X30.815 Y104.868 E0.19955
G1 X30.112 Y104.868 E0.01282
G1 X22.377 Y97.132 E0.19955
G1 X22.132 Y97.590 E0.00947
G1 X29.410 Y104.868 E0.18774
G1 X28.707 Y104.868 E0.01282
G1 X22.132 Y98.293 E0.16961
G1 X22.132 Y98.996 E0.01282
G1 X28.004 Y104.868 E0.15148
G1 X27.302 Y104.868 E0.01282
G1 X22.132 Y99.698 E0.13336
G1 X22.132 Y100.401 E0.01282
G1 X26.599 Y104.868 E0.11523
G1 X25.896 Y104.868 E0.01282
