; generated by Slic3r 1.2.9 on 2015-09-12 at 09:41:02

; Layer Hight:                  from .15 to .2
; 1st Layer Hieght:          from .15 to .18
; 1st Layer Speed:           from 80% to 40mm
; Extrusion Multiplier     from  1 to .96

; external perimeters extrusion width = 0.45mm
; perimeters extrusion width = 0.50mm
; infill extrusion width = 0.50mm
; solid infill extrusion width = 0.65mm
; top infill extrusion width = 0.65mm

M201 X750 Y750 E100
G28 X10.0 Y10.0
G28 Z
G92 E0.0
G1 Y60.0 E2.0  F1000.0
G1 Y100.0 E4.5  F1000.0
G92 Z0.35
G92 E0.0
G21 ; set units to millimeters
G90 ; use absolute coordinates
M83 ; use relative distances for extrusion
G1 E-2.50000 F1200.00000
G1 Z0.240 F6000.000
G1 X20.123 Y95.786 F6000.000
G1 E2.50000 F1200.00000
G1 X21.000 Y95.602 E0.01272 F2400.000
G1 X191.000 Y95.602 E2.41226
G1 X193.030 Y95.998 E0.02935
G1 X194.762 Y97.129 E0.02935 F2400.000
G1 X195.942 Y98.828 E0.02935
G1 X196.398 Y101.000 E0.03150
G1 X196.398 Y111.000 E0.14190
G1 X196.002 Y113.030 E0.02935
G1 X194.871 Y114.762 E0.02935
G1 X193.172 Y115.942 E0.02935
G1 X191.000 Y116.398 E0.03150
G1 X21.000 Y116.398 E2.41226
G1 X18.970 Y116.002 E0.02935
G1 X17.238 Y114.871 E0.02935
G1 X16.058 Y113.172 E0.02935
G1 X15.602 Y111.000 E0.03150
G1 X15.602 Y101.000 E0.14190
G1 X15.998 Y98.970 E0.02935
G1 X17.129 Y97.238 E0.02935
G1 X18.828 Y96.058 E0.02935
G1 X20.064 Y95.798 E0.01793
G1 F4800
G1 X21.000 Y95.602 E-0.22708
G1 F4800
G1 X30.044 Y95.602 E-2.14792
G1 E-0.12500 F1200.00000
G1 X21.225 Y101.225 F6000.000
G1 E2.50000 F1200.00000
G1 X190.775 Y101.225 E2.40587 F2400.000
G1 X190.775 Y110.775 E0.13551
G1 X21.225 Y110.775 E2.40587 F2400.000
G1 X21.225 Y101.285 E0.13466
G1 X21.571 Y101.425 F6000.000
G1 X21.623 Y101.623 F6000.000
G1 X190.377 Y101.623 E2.39456 F2400.000
G1 X190.377 Y110.377 E0.12420
G1 X21.623 Y110.377 E2.39456 F2400.000
G1 X21.623 Y101.683 E0.12335
G1 F4800
G1 X31.623 Y101.680 E-2.37500
G1 E-0.12500 F1200.00000
G1 X127.154 Y109.978 F6000.000
G1 E2.50000 F1200.00000
G1 X22.022 Y109.978 E1.49180 F2400.000
G1 X22.022 Y102.022 E0.11289
G1 X189.978 Y102.022 E2.38325
G1 X189.978 Y109.978 E0.11289
G1 X127.214 Y109.978 E0.89061 F2400.000
G1 F4800
G1 X117.214 Y109.978 E-2.37500
G1 E-0.12500 F1200.00000
G1 X22.420 Y102.420 F6000.000
G1 E2.50000 F1200.00000
G1 X189.580 Y102.420 E2.37464 F2400.000
G1 X189.580 Y109.580 E0.10170
G1 X22.420 Y109.580 E2.37464
G1 X22.420 Y102.480 E0.10085
G1 X22.819 Y102.819 F6000.000
G1 X189.181 Y102.819 E2.36331 F2400.000
G1 X189.181 Y109.181 E0.09037
G1 X22.819 Y109.181 E2.36331
G1 X22.819 Y102.879 E0.08951
G1 X23.218 Y103.218 F6000.000
G1 X188.782 Y103.218 E2.35197 F2400.000
G1 X188.782 Y108.782 E0.07903
G1 X23.218 Y108.782 E2.35197
G1 X23.218 Y103.278 E0.07818
G1 X23.617 Y103.617 F6000.000
G1 X188.383 Y103.617 E2.34064 F2400.000
G1 X188.383 Y108.383 E0.06770
G1 X23.617 Y108.383 E2.34064
G1 X23.617 Y103.677 E0.06684
G1 X24.016 Y104.016 F6000.000
G1 X187.984 Y104.016 E2.32930 F2400.000
G1 X187.984 Y107.984 E0.05636
G1 X24.016 Y107.984 E2.32930
G1 X24.016 Y104.076 E0.05551
G1 X24.415 Y104.415 F6000.000
G1 X187.585 Y104.415 E2.31797 F2400.000
G1 X187.585 Y107.585 E0.04503
G1 X24.415 Y107.585 E2.31797
G1 X24.415 Y104.475 E0.04417
G1 X24.814 Y104.814 F6000.000
G1 X187.186 Y104.814 E2.30663 F2400.000
G1 X187.186 Y107.186 E0.03369
G1 X24.814 Y107.186 E2.30663
G1 X24.814 Y104.874 E0.03284
G1 X25.213 Y105.213 F6000.000
G1 X186.787 Y105.213 E2.29530 F2400.000
G1 X186.787 Y106.787 E0.02236
G1 X25.213 Y106.787 E2.29530
G1 X25.213 Y105.273 E0.02150
G1 X25.612 Y105.612 F6000.000
G1 X186.388 Y105.612 E2.28396 F2400.000
G1 X186.388 Y106.388 E0.01102
G1 X25.612 Y106.388 E2.28396
G1 X25.612 Y105.672 E0.01017
M106 S255
M104 S285 ; set temperature
M140 S100 ; wait for bed temperature to be reached
G1 F4800
G1 X25.612 Y106.388 E-0.17002
G1 F4800
G1 X34.896 Y106.388 E-2.20498
G1 E-0.12500 F1200.00000
G1 Z0.440 F6000.000
G1 X21.225 Y105.672 F6000.000
G1 E2.50000 F1200.00000
G1 X21.225 Y101.225 E0.05372 F2400.000
G1 X190.775 Y101.225 E2.04808
G1 X190.775 Y110.775 E0.11536
G1 X21.225 Y110.775 E2.04808 F2400.000
G1 X21.225 Y105.732 E0.06092
G1 X21.571 Y105.472 F6000.000
G1 X21.657 Y105.732 F6000.000
G1 X21.657 Y101.657 E0.05527 F2400.000
G1 X190.343 Y101.657 E2.28792
G1 X190.343 Y110.343 E0.11781
G1 X21.657 Y110.343 E2.28792 F2400.000
G1 X21.657 Y105.792 E0.06172
G1 F4800
G1 X21.657 Y101.657 E-0.98206
G1 F4800
G1 X27.522 Y101.657 E-1.39294
G1 E-0.12500 F1200.00000
G1 X83.797 Y102.114 F6000.000
G1 E2.50000 F1200.00000
G1 X189.886 Y102.114 E1.43890 F2400.000
G1 X189.886 Y109.886 E0.10541
G1 X22.114 Y109.886 E2.27552 F2400.000
G1 X22.114 Y102.114 E0.10541
G1 X83.737 Y102.114 E0.83580
G1 F4800
G1 X93.737 Y102.114 E-2.37500
G1 E-0.12500 F1200.00000
G1 X23.658 Y102.497 F6000.000
G1 E2.50000 F1200.00000
G1 X22.497 Y103.658 E0.02970 F3000.000
G1 X22.497 Y104.520 E0.01562
G1 X24.520 Y102.497 E0.05179
G1 X25.383 Y102.497 E0.01562
G1 X22.497 Y105.383 E0.07388
G1 X22.497 Y106.246 E0.01562
G1 X26.246 Y102.497 E0.09596
G1 X27.109 Y102.497 E0.01562
G1 X22.497 Y107.109 E0.11805
G1 X22.497 Y107.971 E0.01562
G1 X27.971 Y102.497 E0.14014
G1 X28.834 Y102.497 E0.01562
G1 X22.497 Y108.834 E0.16223
G1 X22.692 Y109.503 E0.01260
G1 X29.697 Y102.497 E0.17934
G1 X30.560 Y102.497 E0.01562
G1 X23.555 Y109.503 E0.17934
G1 X24.417 Y109.503 E0.01562
G1 X31.422 Y102.497 E0.17934
G1 X32.285 Y102.497 E0.01562
G1 X25.280 Y109.503 E0.17934
G1 X26.143 Y109.503 E0.01562
G1 X33.148 Y102.497 E0.17934
G1 X34.011 Y102.497 E0.01562
G1 X27.006 Y109.503 E0.17934
G1 X27.868 Y109.503 E0.01562
G1 X34.873 Y102.497 E0.17934
G1 X35.736 Y102.497 E0.01562
G1 X28.731 Y109.503 E0.17934
G1 X29.594 Y109.503 E0.01562
G1 X36.599 Y102.497 E0.17934
G1 X37.462 Y102.497 E0.01562
G1 X30.457 Y109.503 E0.17934
G1 X31.319 Y109.503 E0.01562
G1 X38.325 Y102.497 E0.17934
G1 X39.187 Y102.497 E0.01562
G1 X32.182 Y109.503 E0.17934
G1 X33.045 Y109.503 E0.01562
G1 X40.050 Y102.497 E0.17934
G1 X40.913 Y102.497 E0.01562
G1 X33.908 Y109.503 E0.17934
G1 X34.770 Y109.503 E0.01562
G1 X41.776 Y102.497 E0.17934
G1 X42.638 Y102.497 E0.01562
G1 X35.633 Y109.503 E0.17934
G1 X36.496 Y109.503 E0.01562
G1 X43.501 Y102.497 E0.17934
G1 X44.364 Y102.497 E0.01562
G1 X37.359 Y109.503 E0.17934
G1 X38.222 Y109.503 E0.01562
G1 X45.227 Y102.497 E0.17934
G1 X46.089 Y102.497 E0.01562
G1 X39.084 Y109.503 E0.17934
G1 X39.947 Y109.503 E0.01562
G1 X46.952 Y102.497 E0.17934
G1 X47.815 Y102.497 E0.01562
G1 X40.810 Y109.503 E0.17934
G1 X41.673 Y109.503 E0.01562
G1 X48.678 Y102.497 E0.17934
G1 X49.540 Y102.497 E0.01562
G1 X42.535 Y109.503 E0.17934
G1 X43.398 Y109.503 E0.01562
G1 X50.403 Y102.497 E0.17934
G1 X51.266 Y102.497 E0.01562
G1 X44.261 Y109.503 E0.17934
G1 X45.124 Y109.503 E0.01562
G1 X52.129 Y102.497 E0.17934
G1 X52.992 Y102.497 E0.01562
G1 X45.986 Y109.503 E0.17934
G1 X46.849 Y109.503 E0.01562
G1 X53.854 Y102.497 E0.17934
G1 X54.717 Y102.497 E0.01562
G1 X47.712 Y109.503 E0.17934
G1 X48.575 Y109.503 E0.01562
G1 X55.580 Y102.497 E0.17934
G1 X56.443 Y102.497 E0.01562
G1 X49.437 Y109.503 E0.17934
G1 X50.300 Y109.503 E0.01562
G1 X57.305 Y102.497 E0.17934
G1 X58.168 Y102.497 E0.01562
G1 X51.163 Y109.503 E0.17934
G1 X52.026 Y109.503 E0.01562
G1 X59.031 Y102.497 E0.17934
G1 X59.894 Y102.497 E0.01562
G1 X52.888 Y109.503 E0.17934
G1 X53.751 Y109.503 E0.01562
G1 X60.756 Y102.497 E0.17934
G1 X61.619 Y102.497 E0.01562
G1 X54.614 Y109.503 E0.17934
G1 X55.477 Y109.503 E0.01562
G1 X62.482 Y102.497 E0.17934
G1 X63.345 Y102.497 E0.01562
G1 X56.340 Y109.503 E0.17934
G1 X57.202 Y109.503 E0.01562
G1 X64.207 Y102.497 E0.17934
G1 X65.070 Y102.497 E0.01562
G1 X58.065 Y109.503 E0.17934
G1 X58.928 Y109.503 E0.01562
G1 X65.933 Y102.497 E0.17934
G1 X66.796 Y102.497 E0.01562
G1 X59.791 Y109.503 E0.17934
G1 X60.653 Y109.503 E0.01562
G1 X67.658 Y102.497 E0.17934
G1 X68.521 Y102.497 E0.01562
G1 X61.516 Y109.503 E0.17934
G1 X62.379 Y109.503 E0.01562
G1 X69.384 Y102.497 E0.17934
G1 X70.247 Y102.497 E0.01562
G1 X63.242 Y109.503 E0.17934
G1 X64.104 Y109.503 E0.01562
G1 X71.110 Y102.497 E0.17934
G1 X71.972 Y102.497 E0.01562
G1 X64.967 Y109.503 E0.17934
G1 X65.830 Y109.503 E0.01562
G1 X72.835 Y102.497 E0.17934
G1 X73.698 Y102.497 E0.01562
G1 X66.693 Y109.503 E0.17934
G1 X67.555 Y109.503 E0.01562
G1 X74.561 Y102.497 E0.17934
G1 X75.423 Y102.497 E0.01562
G1 X68.418 Y109.503 E0.17934
G1 X69.281 Y109.503 E0.01562
G1 X76.286 Y102.497 E0.17934
G1 X77.149 Y102.497 E0.01562
G1 X70.144 Y109.503 E0.17934
G1 X71.007 Y109.503 E0.01562
G1 X78.012 Y102.497 E0.17934
G1 X78.874 Y102.497 E0.01562
G1 X71.869 Y109.503 E0.17934
G1 X72.732 Y109.503 E0.01562
G1 X79.737 Y102.497 E0.17934
G1 X80.600 Y102.497 E0.01562
G1 X73.595 Y109.503 E0.17934
G1 X74.458 Y109.503 E0.01562
G1 X81.463 Y102.497 E0.17934
G1 X82.325 Y102.497 E0.01562
G1 X75.320 Y109.503 E0.17934
G1 X76.183 Y109.503 E0.01562
G1 X83.188 Y102.497 E0.17934
G1 X84.051 Y102.497 E0.01562
G1 X77.046 Y109.503 E0.17934
G1 X77.909 Y109.503 E0.01562
G1 X84.914 Y102.497 E0.17934
G1 X85.776 Y102.497 E0.01562
G1 X78.771 Y109.503 E0.17934
G1 X79.634 Y109.503 E0.01562
G1 X86.639 Y102.497 E0.17934
G1 X87.502 Y102.497 E0.01562
G1 X80.497 Y109.503 E0.17934
G1 X81.360 Y109.503 E0.01562
G1 X88.365 Y102.497 E0.17934
G1 X89.228 Y102.497 E0.01562
G1 X82.222 Y109.503 E0.17934
G1 X83.085 Y109.503 E0.01562
G1 X90.090 Y102.497 E0.17934
G1 X90.953 Y102.497 E0.01562
G1 X83.948 Y109.503 E0.17934
G1 X84.811 Y109.503 E0.01562
G1 X91.816 Y102.497 E0.17934
G1 X92.679 Y102.497 E0.01562
G1 X85.673 Y109.503 E0.17934
G1 X86.536 Y109.503 E0.01562
G1 X93.541 Y102.497 E0.17934
G1 X94.404 Y102.497 E0.01562
G1 X87.399 Y109.503 E0.17934
G1 X88.262 Y109.503 E0.01562
G1 X95.267 Y102.497 E0.17934
G1 X96.130 Y102.497 E0.01562
G1 X89.125 Y109.503 E0.17934
G1 X89.987 Y109.503 E0.01562
G1 X96.992 Y102.497 E0.17934
G1 X97.855 Y102.497 E0.01562
G1 X90.850 Y109.503 E0.17934
G1 X91.713 Y109.503 E0.01562
G1 X98.718 Y102.497 E0.17934
G1 X99.581 Y102.497 E0.01562
G1 X92.576 Y109.503 E0.17934
G1 X93.438 Y109.503 E0.01562
G1 X100.443 Y102.497 E0.17934
G1 X101.306 Y102.497 E0.01562
G1 X94.301 Y109.503 E0.17934
G1 X95.164 Y109.503 E0.01562
G1 X102.169 Y102.497 E0.17934
G1 X103.032 Y102.497 E0.01562
G1 X96.027 Y109.503 E0.17934
G1 X96.889 Y109.503 E0.01562
G1 X103.895 Y102.497 E0.17934
G1 X104.757 Y102.497 E0.01562
G1 X97.752 Y109.503 E0.17934
G1 X98.615 Y109.503 E0.01562
G1 X105.620 Y102.497 E0.17934
G1 X106.483 Y102.497 E0.01562
G1 X99.478 Y109.503 E0.17934
G1 X100.340 Y109.503 E0.01562
G1 X107.346 Y102.497 E0.17934
G1 X108.208 Y102.497 E0.01562
G1 X101.203 Y109.503 E0.17934
G1 X102.066 Y109.503 E0.01562
G1 X109.071 Y102.497 E0.17934
G1 X109.934 Y102.497 E0.01562
G1 X102.929 Y109.503 E0.17934
G1 X103.791 Y109.503 E0.01562
G1 X110.797 Y102.497 E0.17934
G1 X111.659 Y102.497 E0.01562
G1 X104.654 Y109.503 E0.17934
G1 X105.517 Y109.503 E0.01562
G1 X112.522 Y102.497 E0.17934
G1 X113.385 Y102.497 E0.01562
G1 X106.380 Y109.503 E0.17934
G1 X107.243 Y109.503 E0.01562
G1 X114.248 Y102.497 E0.17934
G1 X115.110 Y102.497 E0.01562
G1 X108.105 Y109.503 E0.17934
G1 X108.968 Y109.503 E0.01562
G1 X115.973 Y102.497 E0.17934
G1 X116.836 Y102.497 E0.01562
G1 X109.831 Y109.503 E0.17934
G1 X110.694 Y109.503 E0.01562
G1 X117.699 Y102.497 E0.17934
G1 X118.561 Y102.497 E0.01562
G1 X111.556 Y109.503 E0.17934
G1 X112.419 Y109.503 E0.01562
G1 X119.424 Y102.497 E0.17934
G1 X120.287 Y102.497 E0.01562
G1 X113.282 Y109.503 E0.17934
G1 X114.145 Y109.503 E0.01562
G1 X121.150 Y102.497 E0.17934
G1 X122.013 Y102.497 E0.01562
G1 X115.007 Y109.503 E0.17934
G1 X115.870 Y109.503 E0.01562
G1 X122.875 Y102.497 E0.17934
G1 X123.738 Y102.497 E0.01562
G1 X116.733 Y109.503 E0.17934
G1 X117.596 Y109.503 E0.01562
G1 X124.601 Y102.497 E0.17934
G1 X125.464 Y102.497 E0.01562
G1 X118.458 Y109.503 E0.17934
G1 X119.321 Y109.503 E0.01562
G1 X126.326 Y102.497 E0.17934
G1 X127.189 Y102.497 E0.01562
G1 X120.184 Y109.503 E0.17934
G1 X121.047 Y109.503 E0.01562
G1 X128.052 Y102.497 E0.17934
G1 X128.915 Y102.497 E0.01562
G1 X121.910 Y109.503 E0.17934
G1 X122.772 Y109.503 E0.01562
G1 X129.777 Y102.497 E0.17934
G1 X130.640 Y102.497 E0.01562
G1 X123.635 Y109.503 E0.17934
G1 X124.498 Y109.503 E0.01562
G1 X131.503 Y102.497 E0.17934
G1 X132.366 Y102.497 E0.01562
G1 X125.361 Y109.503 E0.17934
G1 X126.223 Y109.503 E0.01562
G1 X133.228 Y102.497 E0.17934
G1 X134.091 Y102.497 E0.01562
G1 X127.086 Y109.503 E0.17934
G1 X127.949 Y109.503 E0.01562
G1 X134.954 Y102.497 E0.17934
G1 X135.817 Y102.497 E0.01562
G1 X128.812 Y109.503 E0.17934
G1 X129.674 Y109.503 E0.01562
G1 X136.679 Y102.497 E0.17934
G1 X137.542 Y102.497 E0.01562
G1 X130.537 Y109.503 E0.17934
G1 X131.400 Y109.503 E0.01562
G1 X138.405 Y102.497 E0.17934
G1 X139.268 Y102.497 E0.01562
G1 X132.263 Y109.503 E0.17934
G1 X133.125 Y109.503 E0.01562
G1 X140.131 Y102.497 E0.17934
G1 X140.993 Y102.497 E0.01562
G1 X133.988 Y109.503 E0.17934
G1 X134.851 Y109.503 E0.01562
G1 X141.856 Y102.497 E0.17934
G1 X142.719 Y102.497 E0.01562
G1 X135.714 Y109.503 E0.17934
G1 X136.576 Y109.503 E0.01562
G1 X143.582 Y102.497 E0.17934
G1 X144.444 Y102.497 E0.01562
G1 X137.439 Y109.503 E0.17934
G1 X138.302 Y109.503 E0.01562
G1 X145.307 Y102.497 E0.17934
G1 X146.170 Y102.497 E0.01562
G1 X139.165 Y109.503 E0.17934
G1 X140.028 Y109.503 E0.01562
G1 X147.033 Y102.497 E0.17934
G1 X147.895 Y102.497 E0.01562
G1 X140.890 Y109.503 E0.17934
G1 X141.753 Y109.503 E0.01562
G1 X148.758 Y102.497 E0.17934
G1 X149.621 Y102.497 E0.01562
G1 X142.616 Y109.503 E0.17934
G1 X143.479 Y109.503 E0.01562
G1 X150.484 Y102.497 E0.17934
G1 X151.346 Y102.497 E0.01562
G1 X144.341 Y109.503 E0.17934
G1 X145.204 Y109.503 E0.01562
G1 X152.209 Y102.497 E0.17934
G1 X153.072 Y102.497 E0.01562
G1 X146.067 Y109.503 E0.17934
G1 X146.930 Y109.503 E0.01562
G1 X153.935 Y102.497 E0.17934
G1 X154.798 Y102.497 E0.01562
G1 X147.792 Y109.503 E0.17934
G1 X148.655 Y109.503 E0.01562
G1 X155.660 Y102.497 E0.17934
G1 X156.523 Y102.497 E0.01562
G1 X149.518 Y109.503 E0.17934
G1 X150.381 Y109.503 E0.01562
G1 X157.386 Y102.497 E0.17934
G1 X158.249 Y102.497 E0.01562
G1 X151.243 Y109.503 E0.17934
G1 X152.106 Y109.503 E0.01562
G1 X159.111 Y102.497 E0.17934
G1 X159.974 Y102.497 E0.01562
G1 X152.969 Y109.503 E0.17934
G1 X153.832 Y109.503 E0.01562
G1 X160.837 Y102.497 E0.17934
G1 X161.700 Y102.497 E0.01562
G1 X154.694 Y109.503 E0.17934
G1 X155.557 Y109.503 E0.01562
G1 X162.562 Y102.497 E0.17934
G1 X163.425 Y102.497 E0.01562
G1 X156.420 Y109.503 E0.17934
G1 X157.283 Y109.503 E0.01562
G1 X164.288 Y102.497 E0.17934
G1 X165.151 Y102.497 E0.01562
G1 X158.146 Y109.503 E0.17934
G1 X159.008 Y109.503 E0.01562
G1 X166.013 Y102.497 E0.17934
G1 X166.876 Y102.497 E0.01562
G1 X159.871 Y109.503 E0.17934
G1 X160.734 Y109.503 E0.01562
G1 X167.739 Y102.497 E0.17934
G1 X168.602 Y102.497 E0.01562
G1 X161.597 Y109.503 E0.17934
G1 X162.459 Y109.503 E0.01562
G1 X169.464 Y102.497 E0.17934
G1 X170.327 Y102.497 E0.01562
G1 X163.322 Y109.503 E0.17934
G1 X164.185 Y109.503 E0.01562
G1 X171.190 Y102.497 E0.17934
G1 X172.053 Y102.497 E0.01562
G1 X165.048 Y109.503 E0.17934
G1 X165.910 Y109.503 E0.01562
G1 X172.916 Y102.497 E0.17934
G1 X173.778 Y102.497 E0.01562
G1 X166.773 Y109.503 E0.17934
G1 X167.636 Y109.503 E0.01562
G1 X174.641 Y102.497 E0.17934
G1 X175.504 Y102.497 E0.01562
G1 X168.499 Y109.503 E0.17934
G1 X169.361 Y109.503 E0.01562
G1 X176.367 Y102.497 E0.17934
G1 X177.229 Y102.497 E0.01562
G1 X170.224 Y109.503 E0.17934
G1 X171.087 Y109.503 E0.01562
G1 X178.092 Y102.497 E0.17934
G1 X178.955 Y102.497 E0.01562
G1 X171.950 Y109.503 E0.17934
G1 X172.813 Y109.503 E0.01562
G1 X179.818 Y102.497 E0.17934
G1 X180.680 Y102.497 E0.01562
G1 X173.675 Y109.503 E0.17934
G1 X174.538 Y109.503 E0.01562
G1 X181.543 Y102.497 E0.17934
G1 X182.406 Y102.497 E0.01562
G1 X175.401 Y109.503 E0.17934
G1 X176.264 Y109.503 E0.01562
G1 X183.269 Y102.497 E0.17934
G1 X184.131 Y102.497 E0.01562
G1 X177.126 Y109.503 E0.17934
G1 X177.989 Y109.503 E0.01562
G1 X184.994 Y102.497 E0.17934
G1 X185.857 Y102.497 E0.01562
G1 X178.852 Y109.503 E0.17934
G1 X179.715 Y109.503 E0.01562
G1 X186.720 Y102.497 E0.17934
G1 X187.582 Y102.497 E0.01562
