; generated by Slic3r 1.2.9 on 2015-09-22 at 19:44:20

; Layer Hight:                  from .15 to .2
; 1st Layer Hieght:          from .15 to .18
; 1st Layer Speed:           from 80% to 40mm
; Extrusion Multiplier     from  1 to .96

; external perimeters extrusion width = 0.45mm
; perimeters extrusion width = 0.50mm
; infill extrusion width = 0.50mm
; solid infill extrusion width = 0.65mm
; top infill extrusion width = 0.65mm

M201 X750 Y750 E100
G28 X10.0 Y10.0
G28 Z
G92 E0.0
G1 Y60.0 E2.0  F1000.0
G1 Y100.0 E4.5  F1000.0
G92 Z0.35
G92 E0.0
G21 ; set units to millimeters
G90 ; use absolute coordinates
M83 ; use relative distances for extrusion
G1 E-3.00000 F1200.00000
G1 Z0.240 F6000.000
G1 X69.487 Y93.184 F6000.000
G1 E3.00000 F1200.00000
G1 X70.590 Y92.362 E0.01933 F2400.000
G1 X73.137 Y91.773 E0.03671
G1 X138.863 Y91.773 E0.92313
G1 X140.971 Y92.169 E0.03012
G1 X142.790 Y93.304 E0.03012 F2400.000
G1 X144.071 Y95.023 E0.03012
G1 X144.636 Y97.037 E0.02937
G1 X147.360 Y126.553 E0.41632
G1 X147.384 Y127.086 E0.00749
G1 X147.384 Y143.947 E0.23681
G1 X146.988 Y146.054 E0.03012
G1 X145.852 Y147.873 E0.03012
G1 X144.133 Y149.155 E0.03012
G1 X141.587 Y149.744 E0.03671
G1 X75.860 Y149.744 E0.92313
G1 X73.753 Y149.347 E0.03012
G1 X71.934 Y148.212 E0.03012
G1 X70.652 Y146.493 E0.03012
G1 X70.088 Y144.480 E0.02937
G1 X67.364 Y114.963 E0.41632
G1 X67.340 Y114.430 E0.00749
G1 X67.340 Y97.570 E0.23681
G1 X67.736 Y95.462 E0.03012
G1 X68.872 Y93.643 E0.03012
G1 X69.439 Y93.220 E0.00994
G1 X69.657 Y93.535 F6000.000
G1 X70.964 Y92.627 E0.02235 F2400.000
G1 X73.137 Y92.171 E0.03118
G1 X138.863 Y92.171 E0.92313
G1 X140.894 Y92.567 E0.02905
G1 X142.626 Y93.698 E0.02905 F2400.000
G1 X143.806 Y95.397 E0.02905
G1 X144.239 Y97.073 E0.02432
G1 X146.963 Y126.590 E0.41632
G1 X146.986 Y127.086 E0.00697
G1 X146.986 Y143.947 E0.23681
G1 X146.589 Y145.977 E0.02905
G1 X145.459 Y147.709 E0.02905
G1 X143.760 Y148.889 E0.02905
G1 X141.587 Y149.345 E0.03118
G1 X75.860 Y149.345 E0.92313
G1 X73.830 Y148.949 E0.02905
G1 X72.098 Y147.818 E0.02905
G1 X70.918 Y146.119 E0.02905
G1 X70.485 Y144.443 E0.02432
G1 X67.761 Y114.927 E0.41632
G1 X67.738 Y114.430 E0.00697
G1 X67.738 Y97.570 E0.23681
G1 X68.134 Y95.539 E0.02905
G1 X69.265 Y93.807 E0.02905
G1 X69.608 Y93.569 E0.00586
G1 F4800
G1 X70.964 Y92.627 E-0.39213
G1 F4800
G1 X73.137 Y92.171 E-0.52721
G1 F4800
G1 X81.266 Y92.171 E-1.93067
G1 E-0.15000 F1200.00000
G1 X76.085 Y127.311 F6000.000
G1 E3.00000 F1200.00000
G1 X141.362 Y127.311 E0.91681 F2400.000
G1 X141.362 Y143.722 E0.23049
G1 X76.085 Y143.722 E0.91681 F2400.000
G1 X76.085 Y127.371 E0.22965
G1 X76.432 Y127.511 F6000.000
G1 X76.484 Y127.710 F6000.000
G1 X140.964 Y127.710 E0.90562 F2400.000
G1 X140.964 Y143.323 E0.21930
G1 X76.484 Y143.323 E0.90562 F2400.000
G1 X76.484 Y127.770 E0.21845
G1 F4800
G1 X88.484 Y127.758 E-2.85000
G1 E-0.15000 F1200.00000
G1 X82.276 Y142.925 F6000.000
G1 E3.00000 F1200.00000
G1 X76.882 Y142.925 E0.07575 F2400.000
G1 X76.882 Y128.108 E0.20810
G1 X140.565 Y128.108 E0.89442
G1 X140.565 Y142.925 E0.20810
G1 X82.336 Y142.925 E0.81783 F2400.000
G1 F4800
G1 X76.882 Y142.925 E-1.29519
G1 F4800
G1 X76.882 Y136.378 E-1.55481
G1 E-0.15000 F1200.00000
G1 X77.281 Y128.506 F6000.000
G1 E3.00000 F1200.00000
G1 X140.167 Y128.506 E0.88778 F2400.000
G1 X140.167 Y142.526 E0.19792
G1 X77.281 Y142.526 E0.88778
G1 X77.281 Y128.566 E0.19708
G1 X77.681 Y128.907 F6000.000
G1 X139.766 Y128.907 E0.87647 F2400.000
G1 X139.766 Y142.126 E0.18662
G1 X77.681 Y142.126 E0.87647
G1 X77.681 Y128.967 E0.18577
G1 X78.082 Y129.308 F6000.000
G1 X139.366 Y129.308 E0.86516 F2400.000
G1 X139.366 Y141.725 E0.17531
G1 X78.082 Y141.725 E0.86516
G1 X78.082 Y129.368 E0.17446
G1 X78.482 Y129.708 F6000.000
G1 X138.965 Y129.708 E0.85385 F2400.000
G1 X138.965 Y141.325 E0.16400
G1 X78.482 Y141.325 E0.85385
G1 X78.482 Y129.768 E0.16315
G1 X78.883 Y130.109 F6000.000
G1 X138.565 Y130.109 E0.84254 F2400.000
G1 X138.565 Y140.924 E0.15269
G1 X78.883 Y140.924 E0.84254
G1 X78.883 Y130.169 E0.15184
G1 X79.284 Y130.509 F6000.000
G1 X138.164 Y130.509 E0.83123 F2400.000
G1 X138.164 Y140.524 E0.14138
G1 X79.284 Y140.524 E0.83123
G1 X79.284 Y130.569 E0.14053
G1 X79.684 Y130.910 F6000.000
G1 X137.763 Y130.910 E0.81992 F2400.000
G1 X137.763 Y140.123 E0.13007
G1 X79.684 Y140.123 E0.81992
G1 X79.684 Y130.970 E0.12922
G1 X80.085 Y131.310 F6000.000
G1 X137.363 Y131.310 E0.80861 F2400.000
G1 X137.363 Y139.723 E0.11876
G1 X80.085 Y139.723 E0.80861
G1 X80.085 Y131.370 E0.11791
G1 X80.485 Y131.711 F6000.000
G1 X136.962 Y131.711 E0.79731 F2400.000
G1 X136.962 Y139.322 E0.10745
G1 X80.485 Y139.322 E0.79731
G1 X80.485 Y131.771 E0.10660
G1 X80.886 Y132.111 F6000.000
G1 X136.562 Y132.111 E0.78600 F2400.000
G1 X136.562 Y138.922 E0.09614
G1 X80.886 Y138.922 E0.78600
G1 X80.886 Y132.171 E0.09529
G1 X81.286 Y132.512 F6000.000
G1 X136.161 Y132.512 E0.77469 F2400.000
G1 X136.161 Y138.521 E0.08483
G1 X81.286 Y138.521 E0.77469
G1 X81.286 Y132.572 E0.08398
G1 X81.687 Y132.912 F6000.000
G1 X135.761 Y132.912 E0.76338 F2400.000
G1 X135.761 Y138.120 E0.07352
G1 X81.687 Y138.120 E0.76338
G1 X81.687 Y132.972 E0.07267
G1 X82.087 Y133.313 F6000.000
G1 X135.360 Y133.313 E0.75207 F2400.000
G1 X135.360 Y137.720 E0.06221
G1 X82.087 Y137.720 E0.75207
G1 X82.087 Y133.373 E0.06137
G1 X82.488 Y133.714 F6000.000
G1 X134.960 Y133.714 E0.74076 F2400.000
G1 X134.960 Y137.319 E0.05090
G1 X82.488 Y137.319 E0.74076
G1 X82.488 Y133.774 E0.05006
G1 X82.888 Y134.114 F6000.000
G1 X134.559 Y134.114 E0.72945 F2400.000
G1 X134.559 Y136.919 E0.03959
G1 X82.888 Y136.919 E0.72945
G1 X82.888 Y134.174 E0.03875
G1 X83.289 Y134.515 F6000.000
G1 X134.159 Y134.515 E0.71814 F2400.000
G1 X134.159 Y136.518 E0.02828
G1 X83.289 Y136.518 E0.71814
G1 X83.289 Y134.575 E0.02744
G1 X83.690 Y134.915 F6000.000
G1 X133.758 Y134.915 E0.70683 F2400.000
G1 X133.758 Y136.118 E0.01698
G1 X83.690 Y136.118 E0.70683
G1 X83.690 Y134.975 E0.01613
G1 X84.090 Y135.316 F6000.000
G1 X133.357 Y135.316 E0.69552 F2400.000
G1 X133.357 Y135.717 E0.00567
G1 X84.090 Y135.717 E0.69552
G1 X84.090 Y135.376 E0.00482
G1 F4800
G1 X84.090 Y135.717 E-0.08107
G1 F4800
G1 X95.749 Y135.717 E-2.76893
G1 E-0.15000 F1200.00000
G1 Z0.240 F6000.000
G1 X84.090 Y114.205 F6000.000
G1 E3.00000 F1200.00000
G1 X73.362 Y114.205 E0.15068 F2400.000
G1 X73.362 Y97.795 E0.23049
G1 X138.638 Y97.795 E0.91681
G1 X138.638 Y114.205 E0.23049
G1 X84.150 Y114.205 E0.76529 F2400.000
G1 X83.890 Y113.859 F6000.000
G1 X84.150 Y113.807 F6000.000
G1 X73.760 Y113.807 E0.14593 F2400.000
G1 X73.760 Y98.193 E0.21930
G1 X138.240 Y98.193 E0.90562
G1 X138.240 Y113.807 E0.21930
G1 X84.210 Y113.807 E0.75885 F2400.000
G1 F4800
G1 X73.760 Y113.807 E-2.48189
G1 F4800
G1 X73.760 Y112.257 E-0.36811
G1 E-0.15000 F1200.00000
G1 X90.051 Y98.592 F6000.000
G1 E3.00000 F1200.00000
G1 X137.841 Y98.592 E0.67121 F2400.000
G1 X137.841 Y113.408 E0.20810
G1 X74.159 Y113.408 E0.89442 F2400.000
G1 X74.159 Y98.592 E0.20810
G1 X89.991 Y98.592 E0.22237
G1 F4800
G1 X101.991 Y98.592 E-2.85000
G1 E-0.15000 F1200.00000
G1 X74.557 Y98.990 F6000.000
G1 E3.00000 F1200.00000
G1 X137.443 Y98.990 E0.88778 F2400.000
G1 X137.443 Y113.010 E0.19792
G1 X74.557 Y113.010 E0.88778
G1 X74.557 Y99.050 E0.19708
G1 X74.958 Y99.391 F6000.000
G1 X137.042 Y99.391 E0.87647 F2400.000
G1 X137.042 Y112.609 E0.18662
G1 X74.958 Y112.609 E0.87647
G1 X74.958 Y99.451 E0.18577
G1 X75.358 Y99.791 F6000.000
G1 X136.642 Y99.791 E0.86516 F2400.000
G1 X136.642 Y112.209 E0.17531
G1 X75.358 Y112.209 E0.86516
G1 X75.358 Y99.851 E0.17446
G1 X75.759 Y100.192 F6000.000
G1 X136.241 Y100.192 E0.85385 F2400.000
G1 X136.241 Y111.808 E0.16400
G1 X75.759 Y111.808 E0.85385
G1 X75.759 Y100.252 E0.16315
G1 X76.159 Y100.592 F6000.000
G1 X135.841 Y100.592 E0.84254 F2400.000
G1 X135.841 Y111.408 E0.15269
G1 X76.159 Y111.408 E0.84254
G1 X76.159 Y100.652 E0.15184
G1 X76.560 Y100.993 F6000.000
G1 X135.440 Y100.993 E0.83123 F2400.000
G1 X135.440 Y111.007 E0.14138
G1 X76.560 Y111.007 E0.83123
G1 X76.560 Y101.053 E0.14053
G1 X76.960 Y101.393 F6000.000
G1 X135.040 Y101.393 E0.81992 F2400.000
G1 X135.040 Y110.607 E0.13007
G1 X76.960 Y110.607 E0.81992
G1 X76.960 Y101.453 E0.12922
G1 X77.361 Y101.794 F6000.000
G1 X134.639 Y101.794 E0.80861 F2400.000
G1 X134.639 Y110.206 E0.11876
G1 X77.361 Y110.206 E0.80861
G1 X77.361 Y101.854 E0.11791
G1 X77.761 Y102.194 F6000.000
G1 X134.239 Y102.194 E0.79731 F2400.000
G1 X134.239 Y109.806 E0.10745
G1 X77.761 Y109.806 E0.79731
G1 X77.761 Y102.254 E0.10660
G1 X78.162 Y102.595 F6000.000
G1 X133.838 Y102.595 E0.78600 F2400.000
G1 X133.838 Y109.405 E0.09614
G1 X78.162 Y109.405 E0.78600
G1 X78.162 Y102.655 E0.09529
G1 X78.562 Y102.995 F6000.000
G1 X133.437 Y102.995 E0.77469 F2400.000
G1 X133.437 Y109.005 E0.08483
G1 X78.562 Y109.005 E0.77469
G1 X78.562 Y103.055 E0.08398
G1 X78.963 Y103.396 F6000.000
G1 X133.037 Y103.396 E0.76338 F2400.000
G1 X133.037 Y108.604 E0.07352
G1 X78.963 Y108.604 E0.76338
G1 X78.963 Y103.456 E0.07267
G1 X79.364 Y103.797 F6000.000
G1 X132.636 Y103.797 E0.75207 F2400.000
G1 X132.636 Y108.203 E0.06221
G1 X79.364 Y108.203 E0.75207
G1 X79.364 Y103.857 E0.06137
G1 X79.764 Y104.197 F6000.000
G1 X132.236 Y104.197 E0.74076 F2400.000
G1 X132.236 Y107.803 E0.05090
G1 X79.764 Y107.803 E0.74076
G1 X79.764 Y104.257 E0.05006
G1 X80.165 Y104.598 F6000.000
G1 X131.835 Y104.598 E0.72945 F2400.000
G1 X131.835 Y107.402 E0.03959
G1 X80.165 Y107.402 E0.72945
G1 X80.165 Y104.658 E0.03875
G1 X80.565 Y104.998 F6000.000
G1 X131.435 Y104.998 E0.71814 F2400.000
G1 X131.435 Y107.002 E0.02828
G1 X80.565 Y107.002 E0.71814
G1 X80.565 Y105.058 E0.02744
G1 X80.966 Y105.399 F6000.000
G1 X131.034 Y105.399 E0.70683 F2400.000
G1 X131.034 Y106.601 E0.01698
G1 X80.966 Y106.601 E0.70683
G1 X80.966 Y105.459 E0.01613
G1 X81.366 Y105.799 F6000.000
G1 X130.634 Y105.799 E0.69552 F2400.000
G1 X130.634 Y106.201 E0.00567
G1 X81.366 Y106.201 E0.69552
G1 X81.366 Y105.859 E0.00482
M106 S255
G1 F4800
G1 X81.366 Y106.201 E-0.08107
G1 F4800
G1 X93.025 Y106.201 E-2.76893
G1 E-0.15000 F1200.00000
G1 Z0.440 F6000.000
G1 X81.366 Y127.311 F6000.000
G1 E3.00000 F1200.00000
G1 X141.362 Y127.311 E0.71733 F2400.000
G1 X141.362 Y143.722 E0.19621
G1 X76.085 Y143.722 E0.78047 F2400.000
G1 X76.085 Y127.311 E0.19621
G1 X81.306 Y127.311 E0.06242
G1 X81.566 Y127.657 F6000.000
G1 X81.306 Y127.743 F6000.000
G1 X140.930 Y127.743 E0.80044 F2400.000
G1 X140.930 Y143.290 E0.20871
G1 X76.517 Y143.290 E0.86473 F2400.000
G1 X76.517 Y127.743 E0.20871
G1 X81.246 Y127.743 E0.06348
G1 F4800
G1 X93.246 Y127.743 E-2.85000
G1 E-0.15000 F1200.00000
G1 X115.876 Y142.833 F6000.000
G1 E3.00000 F1200.00000
G1 X76.974 Y142.833 E0.52224 F2400.000
G1 X76.974 Y128.200 E0.19644
G1 X140.473 Y128.200 E0.85246
G1 X140.473 Y142.833 E0.19644
G1 X115.936 Y142.833 E0.32941 F2400.000
G1 F4800
G1 X103.936 Y142.833 E-2.85000
G1 E-0.15000 F1200.00000
G1 X139.792 Y142.450 F6000.000
G1 E3.00000 F1200.00000
G1 X140.090 Y142.152 E0.00755 F3000.000
G1 X140.090 Y141.288 E0.01549
G1 X138.929 Y142.450 E0.02946
G1 X138.065 Y142.450 E0.01549
G1 X140.090 Y140.425 E0.05137
G1 X140.090 Y139.561 E0.01549
G1 X137.201 Y142.450 E0.07327
G1 X136.338 Y142.450 E0.01549
G1 X140.090 Y138.697 E0.09518
G1 X140.090 Y137.834 E0.01549
G1 X135.474 Y142.450 E0.11709
G1 X134.610 Y142.450 E0.01549
G1 X140.090 Y136.970 E0.13900
G1 X140.090 Y136.106 E0.01549
G1 X133.747 Y142.450 E0.16091
G1 X132.883 Y142.450 E0.01549
G1 X140.090 Y135.243 E0.18282
G1 X140.090 Y134.379 E0.01549
G1 X132.019 Y142.450 E0.20472
G1 X131.156 Y142.450 E0.01549
G1 X140.090 Y133.515 E0.22663
G1 X140.090 Y132.652 E0.01549
G1 X130.292 Y142.450 E0.24854
G1 X129.428 Y142.450 E0.01549
G1 X140.090 Y131.788 E0.27045
G1 X140.090 Y130.924 E0.01549
G1 X128.565 Y142.450 E0.29236
G1 X127.701 Y142.450 E0.01549
G1 X140.090 Y130.061 E0.31427
G1 X140.090 Y129.197 E0.01549
G1 X126.837 Y142.450 E0.33618
G1 X125.973 Y142.450 E0.01549
G1 X139.840 Y128.583 E0.35174
G1 X138.976 Y128.583 E0.01549
G1 X125.110 Y142.450 E0.35174
G1 X124.246 Y142.450 E0.01549
G1 X138.112 Y128.583 E0.35174
G1 X137.249 Y128.583 E0.01549
G1 X123.382 Y142.450 E0.35174
G1 X122.519 Y142.450 E0.01549
G1 X136.385 Y128.583 E0.35174
G1 X135.521 Y128.583 E0.01549
G1 X121.655 Y142.450 E0.35174
G1 X120.791 Y142.450 E0.01549
G1 X134.658 Y128.583 E0.35174
G1 X133.794 Y128.583 E0.01549
G1 X119.928 Y142.450 E0.35174
G1 X119.064 Y142.450 E0.01549
G1 X132.930 Y128.583 E0.35174
G1 X132.067 Y128.583 E0.01549
G1 X118.200 Y142.450 E0.35174
G1 X117.337 Y142.450 E0.01549
G1 X131.203 Y128.583 E0.35174
G1 X130.339 Y128.583 E0.01549
G1 X116.473 Y142.450 E0.35174
G1 X115.609 Y142.450 E0.01549
G1 X129.476 Y128.583 E0.35174
G1 X128.612 Y128.583 E0.01549
G1 X114.746 Y142.450 E0.35174
G1 X113.882 Y142.450 E0.01549
G1 X127.748 Y128.583 E0.35174
G1 X126.885 Y128.583 E0.01549
G1 X113.018 Y142.450 E0.35174
G1 X112.155 Y142.450 E0.01549
G1 X126.021 Y128.583 E0.35174
G1 X125.157 Y128.583 E0.01549
G1 X111.291 Y142.450 E0.35174
G1 X110.427 Y142.450 E0.01549
G1 X124.293 Y128.583 E0.35174
G1 X123.430 Y128.583 E0.01549
G1 X109.564 Y142.450 E0.35174
G1 X108.700 Y142.450 E0.01549
G1 X122.566 Y128.583 E0.35174
G1 X121.702 Y128.583 E0.01549
G1 X107.836 Y142.450 E0.35174
G1 X106.973 Y142.450 E0.01549
G1 X120.839 Y128.583 E0.35174
G1 X119.975 Y128.583 E0.01549
G1 X106.109 Y142.450 E0.35174
G1 X105.245 Y142.450 E0.01549
G1 X119.111 Y128.583 E0.35174
G1 X118.248 Y128.583 E0.01549
G1 X104.382 Y142.450 E0.35174
G1 X103.518 Y142.450 E0.01549
G1 X117.384 Y128.583 E0.35174
G1 X116.520 Y128.583 E0.01549
G1 X102.654 Y142.450 E0.35174
G1 X101.791 Y142.450 E0.01549
G1 X115.657 Y128.583 E0.35174
G1 X114.793 Y128.583 E0.01549
G1 X100.927 Y142.450 E0.35174
G1 X100.063 Y142.450 E0.01549
G1 X113.929 Y128.583 E0.35174
G1 X113.066 Y128.583 E0.01549
G1 X99.200 Y142.450 E0.35174
G1 X98.336 Y142.450 E0.01549
G1 X112.202 Y128.583 E0.35174
G1 X111.338 Y128.583 E0.01549
G1 X97.472 Y142.450 E0.35174
G1 X96.609 Y142.450 E0.01549
G1 X110.475 Y128.583 E0.35174
G1 X109.611 Y128.583 E0.01549
G1 X95.745 Y142.450 E0.35174
G1 X94.881 Y142.450 E0.01549
G1 X108.747 Y128.583 E0.35174
G1 X107.884 Y128.583 E0.01549
G1 X94.018 Y142.450 E0.35174
G1 X93.154 Y142.450 E0.01549
G1 X107.020 Y128.583 E0.35174
G1 X106.156 Y128.583 E0.01549
G1 X92.290 Y142.450 E0.35174
G1 X91.427 Y142.450 E0.01549
G1 X105.293 Y128.583 E0.35174
G1 X104.429 Y128.583 E0.01549
G1 X90.563 Y142.450 E0.35174
G1 X89.699 Y142.450 E0.01549
G1 X103.565 Y128.583 E0.35174
G1 X102.702 Y128.583 E0.01549
G1 X88.836 Y142.450 E0.35174
G1 X87.972 Y142.450 E0.01549
G1 X101.838 Y128.583 E0.35174
G1 X100.974 Y128.583 E0.01549
G1 X87.108 Y142.450 E0.35174
G1 X86.245 Y142.450 E0.01549
G1 X100.111 Y128.583 E0.35174
G1 X99.247 Y128.583 E0.01549
G1 X85.381 Y142.450 E0.35174
G1 X84.517 Y142.450 E0.01549
G1 X98.383 Y128.583 E0.35174
G1 X97.520 Y128.583 E0.01549
G1 X83.654 Y142.450 E0.35174
G1 X82.790 Y142.450 E0.01549
G1 X96.656 Y128.583 E0.35174
G1 X95.792 Y128.583 E0.01549
G1 X81.926 Y142.450 E0.35174
G1 X81.063 Y142.450 E0.01549
G1 X94.929 Y128.583 E0.35174
G1 X94.065 Y128.583 E0.01549
G1 X80.199 Y142.450 E0.35174
G1 X79.335 Y142.450 E0.01549
G1 X93.201 Y128.583 E0.35174
G1 X92.338 Y128.583 E0.01549
G1 X78.472 Y142.450 E0.35174
G1 X77.608 Y142.450 E0.01549
G1 X91.474 Y128.583 E0.35174
G1 X90.610 Y128.583 E0.01549
G1 X77.358 Y141.836 E0.33617
G1 X77.358 Y140.972 E0.01549
G1 X89.747 Y128.583 E0.31427
G1 X88.883 Y128.583 E0.01549
G1 X77.358 Y140.109 E0.29236
G1 X77.358 Y139.245 E0.01549
G1 X88.019 Y128.583 E0.27045
G1 X87.156 Y128.583 E0.01549
G1 X77.358 Y138.381 E0.24854
G1 X77.358 Y137.518 E0.01549
G1 X86.292 Y128.583 E0.22663
G1 X85.428 Y128.583 E0.01549
G1 X77.358 Y136.654 E0.20472
G1 X77.358 Y135.790 E0.01549
G1 X84.565 Y128.583 E0.18281
G1 X83.701 Y128.583 E0.01549
G1 X77.358 Y134.927 E0.16091
G1 X77.358 Y134.063 E0.01549
G1 X82.837 Y128.583 E0.13900
G1 X81.974 Y128.583 E0.01549
G1 X77.358 Y133.199 E0.11709
G1 X77.358 Y132.336 E0.01549
G1 X81.110 Y128.583 E0.09518
G1 X80.246 Y128.583 E0.01549
G1 X77.358 Y131.472 E0.07327
G1 X77.358 Y130.608 E0.01549
G1 X79.383 Y128.583 E0.05136
