; generated by Slic3r 1.2.9 on 2015-07-08 at 20:01:30

; external perimeters extrusion width = 0.60mm
; perimeters extrusion width = 0.70mm
; infill extrusion width = 0.75mm
; solid infill extrusion width = 0.60mm
; top infill extrusion width = 0.50mm

M208 S-0.05 F180
M201 X750 Y750
G28 X10.0 Y10.0
G28 Z
G92 E0.0
G1 Y60.0 E2.0  F1000.0
G1 Y100.0 E4.5  F1000.0
G92 Z0.35
G92 E0.0
G21 ; set units to millimeters
G90 ; use absolute coordinates
M83 ; use relative distances for extrusion
M106 S255
G1 E-0.60000 F360.00000
G1 Z0.252 F6000.000
G1 X59.969 Y59.220 F6000.000
G1 E0.56000 F360.00000
G1 X61.812 Y57.489 E0.06231 F1800.000
G1 X63.888 Y55.711 E0.06737
G1 X65.883 Y54.157 E0.06231
G1 X67.947 Y52.691 E0.06239
G1 X69.931 Y51.407 E0.05823
G1 X72.071 Y50.145 E0.06123
G1 X74.303 Y48.959 E0.06231
G1 X76.586 Y47.872 E0.06231
G1 X78.915 Y46.887 E0.06231
G1 X81.285 Y46.007 E0.06231
G1 X83.692 Y45.232 E0.06231
G1 X86.130 Y44.564 E0.06231
G1 X88.797 Y43.964 E0.06737
G1 X91.287 Y43.523 E0.06231
G1 X93.589 Y43.216 E0.05724
G1 X96.107 Y42.988 E0.06231
G1 X98.633 Y42.871 E0.06231
G1 X101.205 Y42.869 E0.06338
G1 X103.687 Y42.974 E0.06123 F1800.000
G1 X106.206 Y43.193 E0.06231
G1 X108.713 Y43.523 E0.06231
G1 X111.203 Y43.964 E0.06231
G1 X113.670 Y44.514 E0.06231
G1 X116.111 Y45.173 E0.06231
G1 X118.521 Y45.940 E0.06231
G1 X120.894 Y46.812 E0.06231
G1 X123.414 Y47.872 E0.06737
G1 X125.697 Y48.959 E0.06231
G1 X127.929 Y50.145 E0.06231
G1 X130.107 Y51.429 E0.06231
G1 X132.226 Y52.809 E0.06231
G1 X134.246 Y54.255 E0.06123
G1 X136.271 Y55.841 E0.06338
G1 X138.188 Y57.489 E0.06231
G1 X139.885 Y59.076 E0.05724
G1 X141.656 Y60.880 E0.06231
G1 X143.345 Y62.761 E0.06231
G1 X144.950 Y64.715 E0.06231
G1 X146.467 Y66.738 E0.06231
G1 X147.893 Y68.826 E0.06231
G1 X149.225 Y70.975 E0.06231
G1 X150.460 Y73.181 E0.06231
G1 X151.597 Y75.439 E0.06231
G1 X152.633 Y77.745 E0.06231
G1 X153.566 Y80.095 E0.06231
G1 X154.394 Y82.484 E0.06231
G1 X155.116 Y84.907 E0.06231
G1 X155.729 Y87.360 E0.06231
G1 X156.234 Y89.837 E0.06231
G1 X156.628 Y92.335 E0.06231
G1 X156.912 Y94.847 E0.06231
G1 X157.084 Y97.370 E0.06231
G1 X157.145 Y99.897 E0.06231
G1 X157.093 Y102.425 E0.06231
G1 X156.930 Y104.948 E0.06231
G1 X156.656 Y107.461 E0.06231
G1 X156.270 Y109.960 E0.06231
G1 X155.729 Y112.640 E0.06737
G1 X155.116 Y115.093 E0.06231
G1 X154.394 Y117.516 E0.06231
G1 X153.566 Y119.905 E0.06231
G1 X152.633 Y122.255 E0.06231
G1 X151.597 Y124.561 E0.06231
G1 X150.460 Y126.819 E0.06231
G1 X149.225 Y129.025 E0.06230
G1 X147.893 Y131.174 E0.06231
G1 X146.467 Y133.262 E0.06231
G1 X144.950 Y135.285 E0.06230
G1 X143.479 Y137.083 E0.05724
G1 X141.796 Y138.969 E0.06231
G1 X140.031 Y140.780 E0.06230
G1 X138.188 Y142.511 E0.06231
G1 X136.271 Y144.159 E0.06231
G1 X134.314 Y145.695 E0.06132
G1 X132.229 Y147.189 E0.06321
G1 X130.107 Y148.571 E0.06239
G1 X127.929 Y149.855 E0.06231
G1 X125.697 Y151.041 E0.06231
G1 X123.414 Y152.128 E0.06231
G1 X121.085 Y153.113 E0.06231
G1 X118.715 Y153.993 E0.06231
G1 X116.308 Y154.768 E0.06231
G1 X113.870 Y155.436 E0.06231
G1 X111.404 Y155.995 E0.06230
G1 X108.713 Y156.477 E0.06737
G1 X106.206 Y156.807 E0.06231
G1 X103.687 Y157.026 E0.06231
G1 X101.161 Y157.133 E0.06231
G1 X98.633 Y157.129 E0.06231
G1 X96.107 Y157.012 E0.06231
G1 X93.589 Y156.784 E0.06231
G1 X91.084 Y156.445 E0.06231
G1 X88.596 Y155.995 E0.06231
G1 X86.130 Y155.436 E0.06230
G1 X83.692 Y154.768 E0.06231
G1 X81.285 Y153.993 E0.06231
G1 X78.915 Y153.113 E0.06231
G1 X76.586 Y152.128 E0.06231
G1 X74.303 Y151.041 E0.06231
G1 X72.250 Y149.955 E0.05724
G1 X70.068 Y148.679 E0.06231
G1 X67.908 Y147.282 E0.06338
G1 X65.883 Y145.843 E0.06123
G1 X63.888 Y144.289 E0.06231
G1 X61.965 Y142.648 E0.06231
G1 X60.115 Y140.924 E0.06231
G1 X58.344 Y139.120 E0.06231
G1 X56.655 Y137.239 E0.06230
G1 X55.050 Y135.285 E0.06231
G1 X53.533 Y133.262 E0.06231
G1 X52.107 Y131.174 E0.06231
G1 X50.775 Y129.025 E0.06231
G1 X49.540 Y126.819 E0.06231
G1 X48.421 Y124.597 E0.06132
G1 X47.368 Y122.258 E0.06321
G1 X46.363 Y119.712 E0.06746
G1 X45.543 Y117.320 E0.06231
G1 X44.830 Y114.894 E0.06231
G1 X44.225 Y112.436 E0.06239
G1 X43.724 Y109.921 E0.06321
G1 X43.344 Y107.461 E0.06132
G1 X43.070 Y104.948 E0.06231
G1 X42.907 Y102.425 E0.06231
G1 X42.855 Y99.897 E0.06231
G1 X42.916 Y97.370 E0.06231
G1 X43.088 Y94.847 E0.06231
G1 X43.372 Y92.335 E0.06231
G1 X43.759 Y89.881 E0.06123
G1 X44.225 Y87.564 E0.05823
G1 X44.830 Y85.106 E0.06239
G1 X45.543 Y82.680 E0.06231
G1 X46.363 Y80.288 E0.06231
G1 X47.287 Y77.935 E0.06231
G1 X48.315 Y75.625 E0.06231
G1 X49.443 Y73.362 E0.06231
G1 X50.671 Y71.152 E0.06231
G1 X51.995 Y68.998 E0.06231
G1 X53.414 Y66.905 E0.06231
G1 X54.923 Y64.877 E0.06231
G1 X56.521 Y62.917 E0.06231
G1 X58.204 Y61.031 E0.06231
G1 X59.927 Y59.263 E0.06083
G1 E-0.60000 F360.00000
G1 X63.462 Y62.721 F6000.000
G1 E0.56000 F360.00000
G1 X65.186 Y61.105 E0.04921 F600.000
G1 X66.941 Y59.603 E0.04810
G1 X68.760 Y58.180 E0.04810
G1 X70.640 Y56.840 E0.04810
G1 X72.613 Y55.563 E0.04894
G1 X74.570 Y54.414 E0.04727
G1 X76.611 Y53.333 E0.04810
G1 X78.698 Y52.344 E0.04810
G1 X80.827 Y51.449 E0.04810
G1 X82.993 Y50.648 E0.04810
G1 X85.193 Y49.944 E0.04810
G1 X87.421 Y49.338 E0.04810
G1 X89.675 Y48.831 E0.04810
G1 X91.948 Y48.425 E0.04810
G1 X94.237 Y48.119 E0.04810
G1 X96.538 Y47.915 E0.04810
G1 X98.845 Y47.813 E0.04810
G1 X101.195 Y47.815 E0.04894
G1 X103.462 Y47.915 E0.04727 F600.000
G1 X105.763 Y48.119 E0.04810
G1 X108.052 Y48.425 E0.04810
G1 X110.325 Y48.831 E0.04810
G1 X112.578 Y49.338 E0.04810
G1 X114.807 Y49.944 E0.04810
G1 X117.007 Y50.648 E0.04810
G1 X119.173 Y51.449 E0.04810
G1 X121.302 Y52.344 E0.04810
G1 X123.389 Y53.333 E0.04810
G1 X125.430 Y54.414 E0.04810
G1 X127.422 Y55.583 E0.04810
G1 X129.360 Y56.839 E0.04810
G1 X131.208 Y58.157 E0.04727
G1 X133.060 Y59.603 E0.04894
G1 X134.814 Y61.105 E0.04810
G1 X136.500 Y62.683 E0.04810
G1 X138.115 Y64.334 E0.04810
G1 X139.656 Y66.055 E0.04810
G1 X141.118 Y67.842 E0.04810
G1 X142.500 Y69.693 E0.04810
G1 X143.800 Y71.602 E0.04810
G1 X145.013 Y73.567 E0.04810
G1 X146.138 Y75.584 E0.04810
G1 X147.173 Y77.649 E0.04810
G1 X148.115 Y79.758 E0.04810
G1 X148.964 Y81.906 E0.04810
G1 X149.716 Y84.089 E0.04810
G1 X150.371 Y86.304 E0.04810
G1 X150.928 Y88.545 E0.04810
G1 X151.384 Y90.809 E0.04810
G1 X151.741 Y93.091 E0.04810
G1 X151.996 Y95.387 E0.04810
G1 X152.149 Y97.691 E0.04810
G1 X152.200 Y100.000 E0.04810
G1 X152.149 Y102.309 E0.04810
G1 X151.996 Y104.613 E0.04810
G1 X151.741 Y106.909 E0.04810
G1 X151.384 Y109.191 E0.04810
G1 X150.928 Y111.455 E0.04810
G1 X150.371 Y113.696 E0.04810
G1 X149.716 Y115.911 E0.04810
G1 X148.964 Y118.094 E0.04810
G1 X148.115 Y120.242 E0.04810
G1 X147.173 Y122.351 E0.04810
G1 X146.138 Y124.416 E0.04810
G1 X145.013 Y126.433 E0.04810
G1 X143.800 Y128.398 E0.04810
G1 X142.500 Y130.307 E0.04810
G1 X141.118 Y132.158 E0.04810
G1 X139.656 Y133.945 E0.04810
G1 X138.115 Y135.666 E0.04810
G1 X136.500 Y137.317 E0.04810
G1 X134.814 Y138.895 E0.04810
G1 X133.059 Y140.397 E0.04810
G1 X131.272 Y141.795 E0.04727
G1 X129.360 Y143.161 E0.04894
G1 X127.422 Y144.417 E0.04810
G1 X125.430 Y145.586 E0.04810
G1 X123.389 Y146.667 E0.04810
G1 X121.302 Y147.656 E0.04810
G1 X119.173 Y148.551 E0.04810
G1 X117.007 Y149.352 E0.04810
G1 X114.807 Y150.056 E0.04810
G1 X112.578 Y150.662 E0.04810
G1 X110.325 Y151.169 E0.04810
G1 X108.052 Y151.575 E0.04810
G1 X105.763 Y151.881 E0.04810
G1 X103.462 Y152.085 E0.04810
G1 X101.155 Y152.187 E0.04810
G1 X98.845 Y152.187 E0.04810
G1 X96.538 Y152.085 E0.04810
G1 X94.237 Y151.881 E0.04810
G1 X91.948 Y151.575 E0.04810
G1 X89.675 Y151.169 E0.04810
G1 X87.422 Y150.662 E0.04810
G1 X85.193 Y150.056 E0.04810
G1 X82.993 Y149.352 E0.04810
G1 X80.827 Y148.551 E0.04810
G1 X78.698 Y147.656 E0.04810
G1 X76.611 Y146.667 E0.04810
G1 X74.570 Y145.586 E0.04810
G1 X72.578 Y144.417 E0.04810
G1 X70.608 Y143.137 E0.04894
G1 X68.760 Y141.820 E0.04727
G1 X66.941 Y140.397 E0.04810
G1 X65.186 Y138.895 E0.04810
G1 X63.500 Y137.317 E0.04810
G1 X61.885 Y135.666 E0.04810
G1 X60.344 Y133.945 E0.04810
G1 X58.882 Y132.158 E0.04810
G1 X57.500 Y130.307 E0.04810
G1 X56.201 Y128.398 E0.04810
G1 X54.987 Y126.433 E0.04810
G1 X53.862 Y124.416 E0.04810
G1 X52.845 Y122.387 E0.04727
G1 X51.885 Y120.242 E0.04894
G1 X51.036 Y118.094 E0.04810
G1 X50.284 Y115.911 E0.04810
G1 X49.629 Y113.696 E0.04810
G1 X49.072 Y111.455 E0.04810
G1 X48.609 Y109.151 E0.04894
G1 X48.259 Y106.909 E0.04727
G1 X48.004 Y104.613 E0.04810
G1 X47.851 Y102.309 E0.04810
G1 X47.800 Y100.000 E0.04810
G1 X47.851 Y97.691 E0.04810
G1 X48.004 Y95.387 E0.04810
G1 X48.259 Y93.091 E0.04810
G1 X48.609 Y90.849 E0.04727
G1 X49.072 Y88.545 E0.04894
G1 X49.629 Y86.304 E0.04810
G1 X50.284 Y84.089 E0.04810
G1 X51.036 Y81.906 E0.04810
G1 X51.885 Y79.758 E0.04810
G1 X52.827 Y77.649 E0.04810
G1 X53.862 Y75.584 E0.04810
G1 X54.987 Y73.567 E0.04810
G1 X56.201 Y71.602 E0.04810
G1 X57.500 Y69.693 E0.04810
G1 X58.882 Y67.842 E0.04810
G1 X60.344 Y66.055 E0.04810
G1 X61.885 Y64.334 E0.04810
G1 X63.420 Y62.764 E0.04574
G1 X63.847 Y62.832 F6000.000
G1 E-0.60000 F360.00000
G1 X151.040 Y92.469 F6000.000
G1 E0.56000 F360.00000
G1 X151.150 Y93.170 E0.01749 F900.000
G1 X151.402 Y95.439 E0.05626
G1 X151.553 Y97.717 E0.05626
G1 X151.604 Y100.000 E0.05626
G1 X151.553 Y102.283 E0.05626
G1 X151.402 Y104.561 E0.05626
G1 X151.150 Y106.830 E0.05626
G1 X150.798 Y109.086 E0.05626
G1 X150.346 Y111.324 E0.05626
G1 X149.796 Y113.540 E0.05626
G1 X149.148 Y115.729 E0.05626
G1 X148.404 Y117.888 E0.05626
G1 X147.566 Y120.011 E0.05626
G1 X146.634 Y122.096 E0.05626
G1 X145.611 Y124.137 E0.05626
G1 X144.499 Y126.131 E0.05626
G1 X143.299 Y128.074 E0.05626
G1 X142.015 Y129.961 E0.05626
G1 X140.649 Y131.790 E0.05626
G1 X139.203 Y133.557 E0.05626
G1 X137.680 Y135.259 E0.05626
G1 X136.084 Y136.891 E0.05626
G1 X134.416 Y138.451 E0.05626
G1 X132.682 Y139.936 E0.05626
G1 X130.915 Y141.318 E0.05528
G1 X129.024 Y142.668 E0.05725
G1 X127.109 Y143.910 E0.05626
G1 X125.140 Y145.066 E0.05626
G1 X123.122 Y146.134 E0.05626
G1 X121.059 Y147.111 E0.05626
G1 X118.954 Y147.997 E0.05626
G1 X116.813 Y148.788 E0.05626
G1 X114.638 Y149.484 E0.05626
G1 X112.435 Y150.083 E0.05626
G1 X110.207 Y150.584 E0.05626
G1 X107.960 Y150.986 E0.05626
G1 X105.697 Y151.288 E0.05626
G1 X103.423 Y151.490 E0.05626
G1 X101.142 Y151.591 E0.05626
G1 X98.858 Y151.591 E0.05626
G1 X96.577 Y151.490 E0.05626
G1 X94.303 Y151.288 E0.05626
G1 X92.040 Y150.986 E0.05626
G1 X89.793 Y150.584 E0.05626
G1 X87.565 Y150.083 E0.05626
G1 X85.362 Y149.484 E0.05626
G1 X83.187 Y148.788 E0.05626
G1 X81.046 Y147.997 E0.05626
G1 X78.941 Y147.111 E0.05626
G1 X76.878 Y146.134 E0.05626
G1 X74.860 Y145.066 E0.05626
G1 X72.891 Y143.910 E0.05626
G1 X70.943 Y142.645 E0.05725
G1 X69.117 Y141.342 E0.05528
G1 X67.318 Y139.936 E0.05626
G1 X65.584 Y138.451 E0.05626
G1 X63.916 Y136.891 E0.05626
G1 X62.320 Y135.259 E0.05626
G1 X60.797 Y133.557 E0.05626
G1 X59.351 Y131.790 E0.05626
G1 X57.985 Y129.961 E0.05626
G1 X56.701 Y128.074 E0.05626
G1 X55.501 Y126.131 E0.05626
G1 X54.389 Y124.137 E0.05626
G1 X53.384 Y122.131 E0.05528
G1 X52.434 Y120.011 E0.05725
G1 X51.596 Y117.888 E0.05626
G1 X50.852 Y115.729 E0.05626
G1 X50.204 Y113.540 E0.05626
G1 X49.654 Y111.324 E0.05626
G1 X49.196 Y109.046 E0.05725
G1 X48.850 Y106.830 E0.05528
G1 X48.598 Y104.561 E0.05626
G1 X48.447 Y102.283 E0.05626
G1 X48.396 Y100.000 E0.05626
G1 X48.447 Y97.717 E0.05626
G1 X48.598 Y95.439 E0.05626
G1 X48.850 Y93.170 E0.05626
G1 X49.196 Y90.954 E0.05528
G1 X49.654 Y88.676 E0.05725
G1 X50.204 Y86.460 E0.05626
G1 X50.852 Y84.271 E0.05626
G1 X51.596 Y82.112 E0.05626
G1 X52.434 Y79.989 E0.05626
G1 X53.366 Y77.904 E0.05626
G1 X54.389 Y75.863 E0.05626
G1 X55.501 Y73.869 E0.05626
G1 X56.701 Y71.926 E0.05626
G1 X57.985 Y70.039 E0.05626
G1 X59.351 Y68.209 E0.05626
G1 X60.797 Y66.443 E0.05626
G1 X62.320 Y64.741 E0.05626
G1 X63.916 Y63.109 E0.05626
G1 X65.584 Y61.549 E0.05626
G1 X67.318 Y60.064 E0.05626
G1 X69.117 Y58.658 E0.05626
G1 X70.975 Y57.332 E0.05626
G1 X72.926 Y56.070 E0.05725
G1 X74.860 Y54.934 E0.05528
G1 X76.878 Y53.866 E0.05626
G1 X78.941 Y52.889 E0.05626
G1 X81.046 Y52.003 E0.05626
G1 X83.187 Y51.212 E0.05626
G1 X85.362 Y50.516 E0.05626
G1 X87.565 Y49.917 E0.05626
G1 X89.793 Y49.416 E0.05626
G1 X92.040 Y49.014 E0.05626
G1 X94.303 Y48.712 E0.05626
G1 X96.577 Y48.510 E0.05626
G1 X98.858 Y48.409 E0.05626
G1 X101.181 Y48.411 E0.05725
G1 X103.423 Y48.510 E0.05528 F900.000
G1 X105.697 Y48.712 E0.05626
G1 X107.960 Y49.014 E0.05626
G1 X110.207 Y49.416 E0.05626
G1 X112.435 Y49.917 E0.05626
G1 X114.638 Y50.516 E0.05626
G1 X116.813 Y51.212 E0.05626
G1 X118.954 Y52.003 E0.05626
G1 X121.059 Y52.889 E0.05626
G1 X123.122 Y53.866 E0.05626
G1 X125.140 Y54.934 E0.05626
G1 X127.109 Y56.090 E0.05626
G1 X129.025 Y57.332 E0.05626
G1 X130.851 Y58.635 E0.05528
G1 X132.682 Y60.065 E0.05725
G1 X134.416 Y61.549 E0.05626
G1 X136.084 Y63.109 E0.05626
G1 X137.680 Y64.741 E0.05626
G1 X139.203 Y66.443 E0.05626
G1 X140.649 Y68.209 E0.05626
G1 X142.015 Y70.039 E0.05626
G1 X143.299 Y71.926 E0.05626
G1 X144.499 Y73.869 E0.05626
G1 X145.611 Y75.863 E0.05626
G1 X146.634 Y77.904 E0.05626
G1 X147.566 Y79.989 E0.05626
G1 X148.404 Y82.112 E0.05626
G1 X149.148 Y84.271 E0.05626
G1 X149.796 Y86.460 E0.05626
G1 X150.346 Y88.676 E0.05626
G1 X150.798 Y90.914 E0.05626
G1 X151.031 Y92.410 E0.03730
G1 E-0.60000 F360.00000
G1 X149.744 Y92.614 F6000.000
G1 E0.56000 F360.00000
G1 X149.845 Y93.248 E0.01338 F600.000
G1 X150.098 Y95.491 E0.04701
G1 X150.249 Y97.743 E0.04701
G1 X150.300 Y100.000 E0.04701
G1 X150.249 Y102.257 E0.04701
G1 X150.098 Y104.509 E0.04701
G1 X149.845 Y106.752 E0.04701
G1 X149.492 Y108.981 E0.04701
G1 X149.039 Y111.193 E0.04701
G1 X148.487 Y113.382 E0.04701
G1 X147.838 Y115.544 E0.04701
G1 X147.093 Y117.674 E0.04701
G1 X146.252 Y119.769 E0.04701
G1 X145.319 Y121.824 E0.04701
G1 X144.294 Y123.836 E0.04701
G1 X143.180 Y125.799 E0.04701
G1 X141.979 Y127.710 E0.04701
G1 X140.694 Y129.566 E0.04701
G1 X139.326 Y131.362 E0.04701
G1 X137.880 Y133.094 E0.04701
G1 X136.357 Y134.760 E0.04701
G1 X134.760 Y136.357 E0.04701
G1 X133.094 Y137.880 E0.04701
G1 X131.362 Y139.326 E0.04701
G1 X129.566 Y140.694 E0.04701
G1 X127.710 Y141.979 E0.04702
G1 X125.759 Y143.203 E0.04797
G1 X123.836 Y144.294 E0.04605
G1 X121.824 Y145.319 E0.04701
G1 X119.769 Y146.252 E0.04701
G1 X117.674 Y147.093 E0.04701
G1 X115.544 Y147.838 E0.04701
G1 X113.382 Y148.487 E0.04701
G1 X111.193 Y149.039 E0.04701
G1 X108.981 Y149.492 E0.04701
G1 X106.752 Y149.845 E0.04701
G1 X104.509 Y150.098 E0.04701
G1 X102.257 Y150.249 E0.04701
G1 X100.000 Y150.300 E0.04701
G1 X97.743 Y150.249 E0.04701
G1 X95.491 Y150.098 E0.04701
G1 X93.248 Y149.845 E0.04701
G1 X91.019 Y149.492 E0.04701
G1 X88.807 Y149.039 E0.04701
G1 X86.618 Y148.487 E0.04701
G1 X84.456 Y147.838 E0.04701
G1 X82.326 Y147.093 E0.04701
G1 X80.231 Y146.252 E0.04701
G1 X78.175 Y145.319 E0.04702
G1 X76.124 Y144.271 E0.04797
G1 X74.201 Y143.180 E0.04605
G1 X72.290 Y141.979 E0.04701
G1 X70.434 Y140.694 E0.04701
G1 X68.638 Y139.326 E0.04701
G1 X66.906 Y137.880 E0.04701
G1 X65.239 Y136.357 E0.04701
G1 X63.643 Y134.760 E0.04701
G1 X62.152 Y133.128 E0.04605
G1 X60.674 Y131.362 E0.04797
G1 X59.306 Y129.566 E0.04702
G1 X58.021 Y127.710 E0.04701
G1 X56.820 Y125.799 E0.04701
G1 X55.706 Y123.836 E0.04701
G1 X54.681 Y121.824 E0.04701
G1 X53.748 Y119.769 E0.04701
G1 X52.907 Y117.674 E0.04701
G1 X52.162 Y115.544 E0.04701
G1 X51.513 Y113.382 E0.04701
G1 X50.961 Y111.193 E0.04701
G1 X50.518 Y109.027 E0.04605
G1 X50.155 Y106.752 E0.04797
G1 X49.902 Y104.509 E0.04702
G1 X49.751 Y102.257 E0.04701
G1 X49.700 Y100.000 E0.04701
G1 X49.751 Y97.743 E0.04701
G1 X49.902 Y95.491 E0.04701
G1 X50.155 Y93.248 E0.04701
G1 X50.508 Y91.019 E0.04701
G1 X50.961 Y88.807 E0.04701
G1 X51.513 Y86.618 E0.04701
G1 X52.162 Y84.456 E0.04702
G1 X52.924 Y82.283 E0.04797
G1 X53.748 Y80.231 E0.04605
G1 X54.681 Y78.176 E0.04701
G1 X55.706 Y76.164 E0.04701
G1 X56.820 Y74.201 E0.04701
G1 X58.021 Y72.290 E0.04701
G1 X59.306 Y70.434 E0.04701
G1 X60.674 Y68.638 E0.04701
G1 X62.120 Y66.906 E0.04701
G1 X63.643 Y65.239 E0.04701
G1 X65.239 Y63.643 E0.04701
