; generated by Slic3r 1.2.6 on 2015-07-05 at 11:40:14

; external perimeters extrusion width = 0.60mm
; perimeters extrusion width = 0.70mm
; infill extrusion width = 0.75mm
; solid infill extrusion width = 0.60mm
; top infill extrusion width = 0.50mm

M208 S-0.05 F180
M201 X750 Y750
G28 X10.0 Y10.0
G28 Z
G92 E0.0
G1 Y60.0 E2.0  F1000.0
G1 Y100.0 E4.5  F1000.0
G92 Z0.35
G92 E0.0
G21 ; set units to millimeters
G90 ; use absolute coordinates
M83 ; use relative distances for extrusion
M106 S255
G1 E-0.60000 F360.00000
G1 Z0.252 F6000.000
G1 X78.707 Y78.664 F6000.000
G1 E0.56000 F360.00000
G1 X80.009 Y77.439 E0.04406 F1800.000
G1 X81.529 Y76.178 E0.04867
G1 X83.380 Y74.852 E0.05610
G1 X85.062 Y73.818 E0.04867
G1 X86.547 Y73.025 E0.04147
G1 X88.605 Y72.093 E0.05569
G1 X90.457 Y71.407 E0.04867
G1 X92.068 Y70.919 E0.04147
G1 X94.268 Y70.406 E0.05569
G1 X95.915 Y70.134 E0.04112
G1 X97.877 Y69.931 E0.04861
G1 X99.848 Y69.857 E0.04861
G1 X101.806 Y69.911 E0.04826
G1 X103.781 Y70.094 E0.04889 F1800.000
G1 X106.030 Y70.465 E0.05616
G1 X107.655 Y70.844 E0.04112
G1 X109.545 Y71.407 E0.04861
G1 X111.395 Y72.093 E0.04861
G1 X113.468 Y73.032 E0.05610
G1 X115.203 Y73.971 E0.04861
G1 X116.873 Y75.021 E0.04861
G1 X118.230 Y75.993 E0.04112
G1 X119.761 Y77.237 E0.04861
G1 X121.410 Y78.781 E0.05569
G1 X122.763 Y80.239 E0.04902
G1 X124.007 Y81.770 E0.04861
G1 X124.979 Y83.127 E0.04112
G1 X126.029 Y84.797 E0.04861
G1 X127.102 Y86.804 E0.05610
G1 X127.791 Y88.324 E0.04112
G1 X128.495 Y90.167 E0.04861
G1 X129.156 Y92.345 E0.05610
G1 X129.594 Y94.268 E0.04861
G1 X129.906 Y96.219 E0.04867
G1 X130.070 Y97.893 E0.04147
G1 X130.143 Y99.848 E0.04820
G1 X130.089 Y101.820 E0.04861
G1 X129.866 Y104.085 E0.05610
G1 X129.594 Y105.732 E0.04112
G1 X129.156 Y107.655 E0.04861
G1 X128.593 Y109.545 E0.04861
G1 X127.791 Y111.676 E0.05610
G1 X127.102 Y113.196 E0.04112
G1 X126.181 Y114.940 E0.04861
G1 X124.979 Y116.873 E0.05610
G1 X123.822 Y118.471 E0.04861
G1 X122.763 Y119.761 E0.04112
G1 X121.432 Y121.197 E0.04826
G1 X119.761 Y122.763 E0.05644
G1 X118.230 Y124.007 E0.04861
G1 X116.873 Y124.979 E0.04112
G1 X115.203 Y126.029 E0.04861
G1 X113.468 Y126.968 E0.04861
G1 X111.395 Y127.907 E0.05610
G1 X109.545 Y128.593 E0.04861
G1 X107.949 Y129.077 E0.04112
G1 X106.030 Y129.535 E0.04861
G1 X104.085 Y129.866 E0.04861
G1 X101.820 Y130.089 E0.05610
G1 X100.152 Y130.143 E0.04112
G1 X98.180 Y130.089 E0.04861
G1 X96.216 Y129.905 E0.04861
G1 X93.970 Y129.535 E0.05610
G1 X92.345 Y129.156 E0.04112
G1 X90.455 Y128.593 E0.04861
G1 X88.324 Y127.791 E0.05610
G1 X86.532 Y126.968 E0.04861
G1 X84.797 Y126.029 E0.04861
G1 X83.380 Y125.148 E0.04112
G1 X81.770 Y124.007 E0.04861
G1 X80.011 Y122.563 E0.05610
G1 X78.590 Y121.219 E0.04820
G1 X77.439 Y119.991 E0.04147
G1 X76.178 Y118.471 E0.04867
G1 X74.852 Y116.620 E0.05610
G1 X73.819 Y114.940 E0.04861
G1 X73.032 Y113.468 E0.04112
G1 X72.209 Y111.676 E0.04861
G1 X71.407 Y109.545 E0.05610
G1 X70.923 Y107.949 E0.04112
G1 X70.465 Y106.030 E0.04861
G1 X70.134 Y104.085 E0.04861
G1 X69.911 Y101.820 E0.05610
G1 X69.857 Y99.848 E0.04861
G1 X69.911 Y98.180 E0.04112
G1 X70.095 Y96.216 E0.04861
G1 X70.406 Y94.268 E0.04861
G1 X70.923 Y92.051 E0.05610
G1 X71.505 Y90.167 E0.04861
G1 X72.093 Y88.605 E0.04112
G1 X72.898 Y86.804 E0.04861
G1 X73.819 Y85.060 E0.04861
G1 X75.021 Y83.127 E0.05610
G1 X75.993 Y81.770 E0.04112
G1 X77.237 Y80.239 E0.04861
G1 X78.665 Y78.707 E0.05162
G1 E-0.60000 F360.00000
G1 X117.829 Y117.809 F6000.000
G1 E0.56000 F360.00000
G1 X116.615 Y118.946 E0.04098 F600.000
G1 X115.341 Y119.992 E0.04064
G1 X114.000 Y120.953 E0.04064
G1 X112.600 Y121.824 E0.04064
G1 X111.146 Y122.601 E0.04064
G1 X109.644 Y123.282 E0.04064
G1 X108.100 Y123.862 E0.04064
G1 X106.522 Y124.341 E0.04064
G1 X104.916 Y124.716 E0.04064
G1 X103.289 Y124.984 E0.04064
G1 X101.648 Y125.146 E0.04064
G1 X100.000 Y125.200 E0.04064
G1 X98.352 Y125.146 E0.04064
G1 X96.711 Y124.984 E0.04064
G1 X95.084 Y124.716 E0.04064
G1 X93.478 Y124.341 E0.04064
G1 X91.900 Y123.862 E0.04064
G1 X90.356 Y123.282 E0.04064
G1 X88.854 Y122.601 E0.04064
G1 X87.400 Y121.824 E0.04064
G1 X86.000 Y120.953 E0.04064
G1 X84.659 Y119.992 E0.04064
G1 X83.385 Y118.946 E0.04064
G1 X82.191 Y117.829 E0.04029
G1 X81.054 Y116.615 E0.04098
G1 X80.008 Y115.341 E0.04064
G1 X79.047 Y114.000 E0.04064
G1 X78.176 Y112.600 E0.04064
G1 X77.399 Y111.146 E0.04064
G1 X76.718 Y109.644 E0.04064
G1 X76.138 Y108.100 E0.04064
G1 X75.659 Y106.522 E0.04064
G1 X75.284 Y104.916 E0.04064
G1 X75.016 Y103.289 E0.04064
G1 X74.854 Y101.648 E0.04064
G1 X74.800 Y100.000 E0.04064
G1 X74.854 Y98.352 E0.04064
G1 X75.016 Y96.711 E0.04064
G1 X75.284 Y95.084 E0.04064
G1 X75.659 Y93.478 E0.04064
G1 X76.138 Y91.900 E0.04064
G1 X76.718 Y90.356 E0.04064
G1 X77.399 Y88.854 E0.04064
G1 X78.176 Y87.400 E0.04064
G1 X79.047 Y86.000 E0.04064
G1 X80.008 Y84.659 E0.04064
G1 X81.054 Y83.385 E0.04064
G1 X82.171 Y82.191 E0.04029
G1 X83.385 Y81.054 E0.04098
G1 X84.659 Y80.008 E0.04064
G1 X86.000 Y79.047 E0.04064
G1 X87.400 Y78.176 E0.04064
G1 X88.867 Y77.393 E0.04098
G1 X90.356 Y76.718 E0.04029
G1 X91.900 Y76.138 E0.04064
G1 X93.491 Y75.656 E0.04098
G1 X95.084 Y75.284 E0.04029
G1 X96.711 Y75.016 E0.04064
G1 X98.352 Y74.854 E0.04064
G1 X100.000 Y74.800 E0.04064
G1 X101.634 Y74.854 E0.04029
G1 X103.289 Y75.016 E0.04098 F600.000
G1 X104.916 Y75.284 E0.04064
G1 X106.522 Y75.659 E0.04064
G1 X108.100 Y76.138 E0.04064
G1 X109.644 Y76.718 E0.04064
G1 X111.146 Y77.399 E0.04064
G1 X112.600 Y78.176 E0.04064
G1 X114.000 Y79.047 E0.04064
G1 X115.341 Y80.008 E0.04064
G1 X116.615 Y81.054 E0.04064
G1 X117.809 Y82.171 E0.04029
G1 X118.946 Y83.385 E0.04098
G1 X119.992 Y84.659 E0.04064
G1 X120.953 Y86.000 E0.04064
G1 X121.824 Y87.400 E0.04064
G1 X122.601 Y88.854 E0.04064
G1 X123.282 Y90.356 E0.04064
G1 X123.862 Y91.900 E0.04064
G1 X124.341 Y93.478 E0.04064
G1 X124.716 Y95.084 E0.04064
G1 X124.984 Y96.711 E0.04064
G1 X125.146 Y98.366 E0.04098
G1 X125.200 Y100.000 E0.04029
G1 X125.146 Y101.648 E0.04064
G1 X124.984 Y103.289 E0.04064
G1 X124.716 Y104.916 E0.04064
G1 X124.341 Y106.522 E0.04064
G1 X123.862 Y108.100 E0.04064
G1 X123.282 Y109.644 E0.04064
G1 X122.601 Y111.146 E0.04064
G1 X121.824 Y112.600 E0.04064
G1 X120.953 Y114.000 E0.04064
G1 X119.992 Y115.341 E0.04064
G1 X118.946 Y116.615 E0.04064
G1 X117.870 Y117.765 E0.03882
G1 X117.443 Y117.701 F6000.000
G1 X117.407 Y117.387 F6000.000
G1 X116.222 Y118.498 E0.04002 F900.000
G1 X114.978 Y119.519 E0.03967
G1 X113.669 Y120.457 E0.03968
G1 X112.302 Y121.307 E0.03968
G1 X110.882 Y122.066 E0.03968
G1 X109.415 Y122.731 E0.03968
G1 X107.909 Y123.298 E0.03968
G1 X106.368 Y123.765 E0.03968
G1 X104.800 Y124.131 E0.03968
G1 X103.211 Y124.393 E0.03968
G1 X101.609 Y124.551 E0.03968
G1 X100.000 Y124.604 E0.03968
G1 X98.391 Y124.551 E0.03968
G1 X96.789 Y124.393 E0.03968
G1 X95.200 Y124.131 E0.03968
G1 X93.632 Y123.765 E0.03968
G1 X92.091 Y123.298 E0.03968
G1 X90.585 Y122.731 E0.03968
G1 X89.118 Y122.066 E0.03968
G1 X87.698 Y121.307 E0.03968
G1 X86.331 Y120.457 E0.03968
G1 X85.022 Y119.519 E0.03968
G1 X83.778 Y118.498 E0.03968
G1 X82.613 Y117.407 E0.03934
G1 X81.502 Y116.222 E0.04002
G1 X80.481 Y114.978 E0.03967
G1 X79.543 Y113.669 E0.03968
G1 X78.693 Y112.302 E0.03968
G1 X77.934 Y110.882 E0.03968
G1 X77.269 Y109.415 E0.03968
G1 X76.702 Y107.909 E0.03968
G1 X76.235 Y106.368 E0.03968
G1 X75.869 Y104.800 E0.03968
G1 X75.607 Y103.211 E0.03968
G1 X75.449 Y101.609 E0.03968
G1 X75.396 Y100.000 E0.03968
G1 X75.449 Y98.391 E0.03968
G1 X75.607 Y96.789 E0.03968
G1 X75.869 Y95.200 E0.03968
G1 X76.235 Y93.632 E0.03968
G1 X76.702 Y92.091 E0.03968
G1 X77.269 Y90.585 E0.03968
G1 X77.934 Y89.118 E0.03968
G1 X78.693 Y87.698 E0.03968
G1 X79.543 Y86.331 E0.03968
G1 X80.481 Y85.022 E0.03968
G1 X81.502 Y83.778 E0.03968
G1 X82.593 Y82.613 E0.03934
G1 X83.778 Y81.502 E0.04002
G1 X85.022 Y80.481 E0.03967
G1 X86.331 Y79.543 E0.03968
G1 X87.698 Y78.693 E0.03967
G1 X89.131 Y77.928 E0.04002
G1 X90.585 Y77.269 E0.03934
G1 X92.091 Y76.702 E0.03967
G1 X93.646 Y76.232 E0.04002
G1 X95.200 Y75.869 E0.03934
G1 X96.789 Y75.607 E0.03968
G1 X98.391 Y75.449 E0.03968
G1 X100.000 Y75.396 E0.03968
G1 X101.595 Y75.449 E0.03934
G1 X103.212 Y75.607 E0.04002 F900.000
G1 X104.800 Y75.869 E0.03967
G1 X106.368 Y76.235 E0.03968
G1 X107.909 Y76.702 E0.03968
G1 X109.415 Y77.269 E0.03968
G1 X110.882 Y77.934 E0.03968
G1 X112.302 Y78.693 E0.03968
G1 X113.669 Y79.543 E0.03968
G1 X114.978 Y80.481 E0.03968
G1 X116.222 Y81.502 E0.03968
G1 X117.387 Y82.593 E0.03934
G1 X118.498 Y83.778 E0.04002
G1 X119.519 Y85.022 E0.03967
G1 X120.457 Y86.331 E0.03968
G1 X121.307 Y87.698 E0.03968
G1 X122.066 Y89.118 E0.03968
G1 X122.731 Y90.585 E0.03968
G1 X123.298 Y92.091 E0.03968
G1 X123.765 Y93.632 E0.03968
G1 X124.131 Y95.200 E0.03968
G1 X124.393 Y96.788 E0.03967
G1 X124.551 Y98.405 E0.04002
G1 X124.604 Y100.000 E0.03934
G1 X124.551 Y101.609 E0.03968
G1 X124.393 Y103.211 E0.03968
G1 X124.131 Y104.800 E0.03968
G1 X123.765 Y106.368 E0.03968
G1 X123.298 Y107.909 E0.03968
G1 X122.731 Y109.415 E0.03968
G1 X122.066 Y110.882 E0.03968
G1 X121.307 Y112.302 E0.03968
G1 X120.457 Y113.669 E0.03968
G1 X119.519 Y114.978 E0.03968
G1 X118.498 Y116.222 E0.03968
G1 X117.448 Y117.344 E0.03786
G1 E-0.60000 F360.00000
G1 X116.122 Y116.103 F6000.000
G1 E0.56000 F360.00000
G1 X115.562 Y116.663 E0.01952 F600.000
G1 X114.389 Y117.686 E0.03837
G1 X113.148 Y118.627 E0.03837
G1 X111.847 Y119.481 E0.03837
G1 X110.490 Y120.244 E0.03837
G1 X109.084 Y120.913 E0.03837
G1 X107.635 Y121.484 E0.03837
G1 X106.151 Y121.955 E0.03837
G1 X104.639 Y122.323 E0.03837
G1 X103.105 Y122.588 E0.03837
G1 X101.556 Y122.747 E0.03837
G1 X100.000 Y122.800 E0.03837
G1 X98.444 Y122.747 E0.03837
G1 X96.895 Y122.588 E0.03837
G1 X95.361 Y122.323 E0.03837
G1 X93.849 Y121.955 E0.03837
G1 X92.365 Y121.484 E0.03837
G1 X90.916 Y120.913 E0.03837
G1 X89.510 Y120.244 E0.03837
G1 X88.153 Y119.481 E0.03837
G1 X86.852 Y118.627 E0.03837
G1 X85.601 Y117.677 E0.03870
G1 X84.438 Y116.663 E0.03803
G1 X83.337 Y115.562 E0.03837
G1 X82.314 Y114.389 E0.03837
G1 X81.373 Y113.148 E0.03837
G1 X80.519 Y111.847 E0.03837
G1 X79.756 Y110.489 E0.03837
G1 X79.082 Y109.071 E0.03870
G1 X78.516 Y107.635 E0.03803
G1 X78.045 Y106.152 E0.03836
G1 X77.682 Y104.667 E0.03767
G1 X77.412 Y103.105 E0.03907
G1 X77.253 Y101.556 E0.03837
G1 X77.200 Y100.000 E0.03837
G1 X77.253 Y98.458 E0.03803
G1 X77.412 Y96.895 E0.03870
G1 X77.677 Y95.361 E0.03837
G1 X78.045 Y93.849 E0.03837
G1 X78.516 Y92.365 E0.03837
G1 X79.087 Y90.916 E0.03837
G1 X79.756 Y89.510 E0.03837
G1 X80.519 Y88.153 E0.03837
G1 X81.373 Y86.852 E0.03837
G1 X82.314 Y85.611 E0.03837
G1 X83.337 Y84.438 E0.03837
G1 X84.438 Y83.337 E0.03837
G1 X85.601 Y82.323 E0.03803
G1 X86.852 Y81.373 E0.03870
G1 X88.153 Y80.519 E0.03837
G1 X89.499 Y79.763 E0.03803
G1 X90.916 Y79.087 E0.03870
G1 X92.365 Y78.516 E0.03837
G1 X93.849 Y78.045 E0.03837
G1 X95.361 Y77.677 E0.03837
G1 X96.895 Y77.412 E0.03837
G1 X98.458 Y77.253 E0.03870
G1 X100.000 Y77.200 E0.03803 F600.000
G1 X101.556 Y77.253 E0.03837
G1 X103.105 Y77.412 E0.03837
G1 X104.667 Y77.682 E0.03907
G1 X106.152 Y78.045 E0.03767
G1 X107.635 Y78.516 E0.03836
G1 X109.084 Y79.087 E0.03837
G1 X110.490 Y79.756 E0.03837
G1 X111.847 Y80.519 E0.03837
G1 X113.148 Y81.373 E0.03837
G1 X114.389 Y82.314 E0.03837
G1 X115.562 Y83.337 E0.03837
G1 X116.663 Y84.438 E0.03837
G1 X117.686 Y85.611 E0.03837
G1 X118.627 Y86.852 E0.03837
G1 X119.481 Y88.153 E0.03837
G1 X120.250 Y89.523 E0.03870
G1 X120.913 Y90.916 E0.03803
G1 X121.484 Y92.365 E0.03837
G1 X121.955 Y93.849 E0.03837
G1 X122.323 Y95.361 E0.03837
G1 X122.588 Y96.895 E0.03837
G1 X122.747 Y98.444 E0.03837
G1 X122.800 Y100.000 E0.03837
G1 X122.747 Y101.556 E0.03837
G1 X122.588 Y103.105 E0.03837
G1 X122.323 Y104.639 E0.03837
G1 X121.955 Y106.151 E0.03837
G1 X121.484 Y107.635 E0.03837
G1 X120.913 Y109.084 E0.03837
G1 X120.244 Y110.490 E0.03837
G1 X119.481 Y111.847 E0.03837
G1 X118.627 Y113.148 E0.03837
G1 X117.686 Y114.389 E0.03837
G1 X116.663 Y115.562 E0.03837
G1 X116.165 Y116.061 E0.01736
G1 X116.226 Y116.489 F6000.000
G1 X116.544 Y116.524 F6000.000
G1 X115.969 Y117.099 E0.02002 F900.000
G1 X114.765 Y118.149 E0.03937
G1 X113.492 Y119.114 E0.03937
G1 X112.156 Y119.990 E0.03937
G1 X110.764 Y120.773 E0.03937
G1 X109.321 Y121.459 E0.03937
G1 X107.835 Y122.046 E0.03937
G1 X106.312 Y122.529 E0.03937
G1 X104.760 Y122.907 E0.03937
G1 X103.186 Y123.179 E0.03937
G1 X101.597 Y123.342 E0.03937
G1 X100.000 Y123.396 E0.03937
G1 X98.403 Y123.342 E0.03937
G1 X96.814 Y123.179 E0.03937
G1 X95.240 Y122.907 E0.03937
G1 X93.688 Y122.529 E0.03937
G1 X92.165 Y122.046 E0.03937
G1 X90.679 Y121.459 E0.03937
G1 X89.236 Y120.773 E0.03937
G1 X87.844 Y119.990 E0.03937
G1 X86.508 Y119.114 E0.03938
G1 X85.224 Y118.140 E0.03970
G1 X84.031 Y117.099 E0.03903
G1 X82.901 Y115.969 E0.03937
G1 X81.851 Y114.765 E0.03937
G1 X80.886 Y113.492 E0.03937
G1 X80.010 Y112.156 E0.03937
G1 X79.227 Y110.764 E0.03938
G1 X78.535 Y109.308 E0.03970
G1 X77.954 Y107.835 E0.03903
G1 X77.471 Y106.313 E0.03935
G1 X77.098 Y104.789 E0.03867
G1 X76.821 Y103.186 E0.04008
G1 X76.658 Y101.597 E0.03937
G1 X76.604 Y100.000 E0.03937
G1 X76.658 Y98.417 E0.03903
G1 X76.821 Y96.814 E0.03970
G1 X77.093 Y95.240 E0.03938
G1 X77.471 Y93.688 E0.03937
G1 X77.954 Y92.165 E0.03937
G1 X78.541 Y90.679 E0.03937
G1 X79.227 Y89.236 E0.03937
G1 X80.010 Y87.844 E0.03937
G1 X80.886 Y86.508 E0.03937
G1 X81.851 Y85.235 E0.03937
G1 X82.901 Y84.031 E0.03937
G1 X84.031 Y82.901 E0.03937
G1 X85.224 Y81.860 E0.03903
G1 X86.508 Y80.886 E0.03970
G1 X87.844 Y80.010 E0.03938
G1 X89.224 Y79.233 E0.03903
G1 X90.679 Y78.541 E0.03970
G1 X92.165 Y77.954 E0.03938
G1 X93.688 Y77.471 E0.03937
G1 X95.240 Y77.093 E0.03937
G1 X96.814 Y76.821 E0.03938
G1 X98.417 Y76.658 E0.03970
G1 X100.000 Y76.604 E0.03903 F900.000
G1 X101.597 Y76.658 E0.03937
G1 X103.186 Y76.821 E0.03937
G1 X104.789 Y77.098 E0.04008
G1 X106.313 Y77.471 E0.03867
G1 X107.835 Y77.954 E0.03935
G1 X109.321 Y78.541 E0.03937
G1 X110.764 Y79.227 E0.03937
G1 X112.156 Y80.010 E0.03937
G1 X113.492 Y80.886 E0.03937
G1 X114.765 Y81.851 E0.03937
G1 X115.969 Y82.901 E0.03937
G1 X117.099 Y84.031 E0.03937
G1 X118.149 Y85.235 E0.03937
G1 X119.114 Y86.508 E0.03937
G1 X119.991 Y87.844 E0.03938
G1 X120.779 Y89.249 E0.03970
G1 X121.459 Y90.679 E0.03903
G1 X122.046 Y92.165 E0.03937
G1 X122.529 Y93.688 E0.03937
G1 X122.907 Y95.240 E0.03937
G1 X123.179 Y96.814 E0.03937
G1 X123.342 Y98.403 E0.03937
G1 X123.396 Y100.000 E0.03937
G1 X123.342 Y101.597 E0.03937
G1 X123.179 Y103.186 E0.03937
G1 X122.907 Y104.760 E0.03937
G1 X122.529 Y106.312 E0.03937
G1 X122.046 Y107.835 E0.03937
G1 X121.459 Y109.321 E0.03937
G1 X120.773 Y110.764 E0.03937
G1 X119.990 Y112.156 E0.03937
G1 X119.114 Y113.492 E0.03937
G1 X118.149 Y114.765 E0.03937
G1 X117.099 Y115.969 E0.03937
G1 X116.586 Y116.482 E0.01787
G1 X116.982 Y116.949 F6000.000
G1 X116.370 Y117.542 E0.00962 F600.000
G1 X115.819 Y118.039 E0.00838
G1 X115.149 Y118.606 E0.00991
G1 X114.606 Y119.035 E0.00781
G1 X113.844 Y119.597 E0.01069
G1 X113.330 Y119.950 E0.00704
G1 X112.459 Y120.506 E0.01167
G1 X111.047 Y121.300 E0.01829
G1 X109.551 Y122.012 E0.01871
G1 X108.027 Y122.613 E0.01850
G1 X106.465 Y123.109 E0.01850
G1 X104.682 Y123.536 E0.02070
G1 X103.132 Y123.793 E0.01773
G1 X101.570 Y123.948 E0.01773
G1 X100.000 Y124.000 E0.01773
G1 X98.353 Y123.942 E0.01861
G1 X96.742 Y123.776 E0.01829
G1 X95.108 Y123.493 E0.01871
G1 X93.517 Y123.104 E0.01850
G1 X92.287 Y122.722 E0.01454
G1 X90.818 Y122.168 E0.01773
G1 X89.388 Y121.520 E0.01773
G1 X88.969 Y121.309 E0.00529
G1 X87.541 Y120.506 E0.01850
G1 X86.670 Y119.950 E0.01167
G1 X86.171 Y119.607 E0.00684
G1 X85.394 Y119.035 E0.01089
G1 X84.840 Y118.597 E0.00797
G1 X84.180 Y118.039 E0.00976
G1 X83.630 Y117.542 E0.00837
G1 X83.044 Y116.975 E0.00920
G1 X82.458 Y116.370 E0.00951
G1 X81.961 Y115.819 E0.00838
G1 X81.382 Y115.135 E0.01012
G1 X80.965 Y114.606 E0.00760
G1 X80.403 Y113.844 E0.01069
G1 X80.050 Y113.330 E0.00704
G1 X79.221 Y111.997 E0.01773
G1 X78.700 Y111.047 E0.01223
G1 X77.990 Y109.555 E0.01865
G1 X77.387 Y108.027 E0.01855
G1 X76.897 Y106.484 E0.01828
